LUTS/Dam_Filmstock_FJ_D65.cube
#Created by: Damian Krzywonos for Cities Skylines 2 Lumina mod
#LogC or linear to sRGB not completely sure
TITLE "Dam_Filmstock_FJ_D65"
LUT_3D_SIZE 32
DOMAIN_MIN 0.0 0.0 0.0
DOMAIN_MAX 1.0 1.0 1.0
0.000000 0.000000 0.000000
0.000000 0.000000 0.000000
0.000000 0.000000 0.000000
0.000000 0.000000 0.000000
0.000000 0.000000 0.000000
0.000000 0.000000 0.000000
0.000000 0.000000 0.000000
0.000172 0.000000 0.000000
0.000956 0.000000 0.000000
0.001954 0.000000 0.000000
0.004011 0.000000 0.000000
0.007671 0.000000 0.000000
0.012950 0.000000 0.000000
0.019203 0.000000 0.000000
0.025801 0.000000 0.000000
0.033211 0.000000 0.000000
0.042205 0.000000 0.000000
0.053201 0.000000 0.000000
0.066690 0.000000 0.000000
0.086192 0.000000 0.000000
0.197593 0.000000 0.000000
0.314458 0.000000 0.000000
0.386054 0.000000 0.000000
0.427862 0.000000 0.000000
0.549297 0.000000 0.000000
0.595765 0.000000 0.000000
0.597191 0.000000 0.000000
0.584415 0.000000 0.000000
0.559255 0.000000 0.000000
0.522911 0.000000 0.000000
0.478417 0.000000 0.000000
0.424369 0.000000 0.000000
0.000000 0.000000 0.000000
0.000000 0.000000 0.000000
0.000000 0.000000 0.000000
0.000000 0.000000 0.000000
0.000000 0.000000 0.000000
0.000000 0.000000 0.000000
0.000000 0.000000 0.000000
0.000172 0.000000 0.000000
0.001170 0.000000 0.000000
0.003162 0.000000 0.000000
0.006549 0.000000 0.000000
0.011017 0.000000 0.000000
0.016789 0.000000 0.000000
0.023365 0.000000 0.000000
0.030762 0.000000 0.000000
0.039687 0.000000 0.000000
0.050910 0.000000 0.000000
0.066573 0.000000 0.000000
0.152102 0.000000 0.000000
0.263930 0.000000 0.000000
0.350421 0.000000 0.000000
0.423111 0.000000 0.000000
0.572716 0.000000 0.000000
0.650401 0.000000 0.000000
0.678859 0.000000 0.000000
0.694548 0.000000 0.000000
0.697930 0.000000 0.000000
0.689373 0.000000 0.000000
0.669978 0.000000 0.000000
0.641919 0.000000 0.000000
0.606253 0.000000 0.000000
0.562176 0.000000 0.000000
0.000000 0.000000 0.000000
0.000000 0.000000 0.000000
0.000000 0.000000 0.000000
0.000000 0.000000 0.000000
0.000000 0.000000 0.000000
0.000000 0.000000 0.000000
0.000032 0.000000 0.000000
0.000221 0.000000 0.000000
0.001364 0.000000 0.000000
0.003697 0.000000 0.000000
0.006772 0.000000 0.000000
0.011997 0.000000 0.000000
0.018260 0.000000 0.000000
0.024872 0.000000 0.000000
0.032605 0.000000 0.000000
0.042019 0.000000 0.000000
0.061557 0.000000 0.000000
0.128672 0.000000 0.000000
0.224242 0.000000 0.000000
0.311463 0.000000 0.000000
0.392016 0.000000 0.000000
0.485263 0.000000 0.000000
0.618646 0.000000 0.000000
0.688649 0.000000 0.000000
0.717720 0.000000 0.000000
0.734245 0.000000 0.000000
0.738075 0.000000 0.000000
0.731624 0.000000 0.000000
0.714686 0.000000 0.000000
0.690021 0.000000 0.000000
0.656432 0.000000 0.000000
0.615706 0.000000 0.000000
0.000000 0.000000 0.000000
0.000000 0.000000 0.000000
0.000000 0.000000 0.000000
0.000000 0.000000 0.000000
0.000042 0.000000 0.000000
0.000029 0.000000 0.000000
0.000148 0.000000 0.000000
0.000932 0.000000 0.000000
0.001904 0.000000 0.000000
0.003748 0.000000 0.000000
0.006792 0.000000 0.000000
0.011997 0.000000 0.000000
0.018260 0.000000 0.000000
0.025147 0.000000 0.000000
0.033304 0.000000 0.000000
0.043435 0.000000 0.000000
0.093156 0.000000 0.000000
0.174531 0.000000 0.000000
0.254621 0.000000 0.000000
0.340787 0.000000 0.000000
0.422019 0.000000 0.000000
0.554373 0.000000 0.000000
0.668988 0.000000 0.000000
0.717141 0.000000 0.000000
0.745920 0.000000 0.000000
0.763153 0.000000 0.000000
0.768449 0.000000 0.000000
0.763998 0.000000 0.000000
0.748908 0.000000 0.000000
0.725478 0.000000 0.000000
0.693806 0.000000 0.000000
0.657317 0.000000 0.000000
0.000000 0.000000 0.000000
0.000000 0.000000 0.000000
0.000000 0.000000 0.000000
0.000000 0.000042 0.000000
0.000098 0.000044 0.000000
0.000754 0.000000 0.000000
0.000403 0.000000 0.000000
0.001100 0.000000 0.000000
0.002002 0.000000 0.000000
0.004012 0.000000 0.000000
0.007448 0.000000 0.000000
0.012047 0.000000 0.000000
0.018334 0.000000 0.000000
0.025167 0.000000 0.000000
0.033384 0.000000 0.000000
0.043841 0.000000 0.000000
0.095665 0.000000 0.000000
0.185016 0.000000 0.000000
0.274467 0.000000 0.000000
0.366337 0.000000 0.000000
0.447978 0.000000 0.000000
0.512732 0.000000 0.000000
0.661215 0.000000 0.000000
0.741669 0.000000 0.000000
0.772433 0.000000 0.000000
0.790463 0.000000 0.000000
0.797102 0.000000 0.000000
0.793738 0.000000 0.000000
0.781287 0.000000 0.000000
0.759096 0.000000 0.000000
0.732686 0.000000 0.000000
0.696075 0.000000 0.000000
0.000000 0.000000 0.000000
0.000000 0.000123 0.000000
0.000000 0.000123 0.000000
0.000000 0.000196 0.000000
0.000098 0.000843 0.000000
0.000954 0.000244 0.000000
0.002076 0.000171 0.000000
0.003926 0.000045 0.000000
0.004613 0.000000 0.000000
0.007200 0.000000 0.000000
0.009674 0.000000 0.000000
0.013478 0.000000 0.000000
0.019009 0.000000 0.000000
0.026071 0.000000 0.000000
0.034235 0.000000 0.000000
0.045215 0.000000 0.000000
0.100230 0.000000 0.000000
0.196441 0.000000 0.000000
0.299447 0.000000 0.000000
0.393769 0.000000 0.000000
0.474123 0.000000 0.000000
0.536772 0.000000 0.000000
0.683819 0.000000 0.000000
0.765356 0.000000 0.000000
0.797329 0.000000 0.000000
0.817006 0.000000 0.000000
0.825318 0.000000 0.000000
0.823596 0.000000 0.000000
0.812933 0.000000 0.000000
0.794014 0.000000 0.000000
0.765285 0.000000 0.000000
0.728655 0.001710 0.000000
0.000000 0.000148 0.000000
0.000000 0.000908 0.000000
0.000000 0.000939 0.000000
0.000000 0.001129 0.000000
0.000038 0.001865 0.000000
0.000933 0.002025 0.000000
0.003207 0.001952 0.000000
0.007627 0.001086 0.000000
0.014862 0.000251 0.000000
0.022518 0.000048 0.000000
0.027864 0.000000 0.000000
0.026886 0.000000 0.000000
0.032844 0.000000 0.000000
0.042820 0.000000 0.000000
0.055198 0.000000 0.000000
0.074995 0.000000 0.000000
0.142193 0.000000 0.000000
0.252627 0.000000 0.000000
0.348429 0.000000 0.000000
0.437989 0.000000 0.000000
0.511995 0.000000 0.000000
0.568852 0.000000 0.000000
0.712234 0.000000 0.000000
0.793368 0.000000 0.000000
0.826037 0.000000 0.000000
0.847581 0.000000 0.000000
0.856484 0.000000 0.000000
0.854225 0.000000 0.000000
0.842991 0.000721 0.000000
0.821659 0.003495 0.000000
0.793813 0.006294 0.000000
0.754813 0.018523 0.000000
0.000000 0.001276 0.000000
0.000000 0.001872 0.000000
0.000000 0.002073 0.000000
0.000000 0.002908 0.000000
0.000000 0.003879 0.000000
0.000289 0.004839 0.000000
0.003729 0.005790 0.000000
0.011589 0.005258 0.000000
0.022745 0.003546 0.000000
0.037200 0.001855 0.000000
0.053036 0.000727 0.000000
0.069774 0.000147 0.000000
0.089288 0.000000 0.000000
0.113445 0.000000 0.000000
0.141273 0.000000 0.000000
0.184304 0.000000 0.000000
0.256645 0.000000 0.000000
0.350059 0.000000 0.000000
0.437967 0.000000 0.000000
0.514001 0.000000 0.000000
0.577560 0.000000 0.000000
0.628967 0.000000 0.000000
0.767206 0.000000 0.000000
0.841039 0.000000 0.000000
0.865897 0.000000 0.000000
0.880842 0.000326 0.000000
0.885483 0.004808 0.000000
0.881218 0.008632 0.000000
0.868223 0.014496 0.000000
0.846369 0.028887 0.000000
0.813492 0.043918 0.000000
0.757263 0.063660 0.000000
0.000000 0.003816 0.000000
0.000000 0.004231 0.000000
0.000000 0.005040 0.000000
0.000000 0.006110 0.000000
0.000000 0.007882 0.000000
0.000083 0.009735 0.000000
0.003122 0.011874 0.000000
0.015383 0.014497 0.000000
0.031428 0.013977 0.000000
0.051283 0.010961 0.000000
0.075509 0.008107 0.000000
0.102796 0.004906 0.000000
0.135622 0.002470 0.000000
0.173414 0.001124 0.000000
0.216900 0.000177 0.000000
0.258590 0.000000 0.000000
0.313013 0.000000 0.000000
0.384291 0.000000 0.000000
0.465925 0.000000 0.000000
0.545318 0.000000 0.000000
0.614416 0.000000 0.000000
0.675365 0.000000 0.000000
0.815367 0.000000 0.000000
0.882067 0.000546 0.000000
0.897985 0.011830 0.000000
0.905980 0.023616 0.000000
0.907436 0.040792 0.000000
0.902370 0.057818 0.000000
0.886089 0.073137 0.000000
0.858908 0.090521 0.000000
0.810943 0.107820 0.000000
0.751600 0.129103 0.000000
0.000000 0.007817 0.000000
0.000000 0.009609 0.000000
0.000000 0.010883 0.000000
0.000000 0.012702 0.000000
0.000000 0.015185 0.000000
0.000000 0.018125 0.000000
0.002249 0.021875 0.000000
0.016119 0.026423 0.000000
0.041385 0.030912 0.000000
0.067471 0.029808 0.000000
0.099295 0.026055 0.000000
0.139714 0.021988 0.000000
0.184839 0.017401 0.000000
0.230910 0.011940 0.000000
0.273606 0.006373 0.000000
0.326621 0.002666 0.000000
0.385746 0.000422 0.000000
0.446535 0.000000 0.000000
0.508656 0.000000 0.000000
0.571792 0.000000 0.000000
0.629349 0.000000 0.000000
0.681891 0.000000 0.000000
0.823906 0.000804 0.000000
0.897938 0.006233 0.000000
0.908627 0.044338 0.000000
0.911921 0.089932 0.000000
0.913795 0.123046 0.000000
0.912385 0.144362 0.000000
0.887944 0.163091 0.000000
0.849362 0.184261 0.000000
0.813033 0.221125 0.019682
0.782861 0.265099 0.082518
0.000000 0.014808 0.000000
0.000000 0.017698 0.000000
0.000000 0.020723 0.000000
0.000000 0.023177 0.000000
0.000000 0.026170 0.000000
0.000087 0.030460 0.000000
0.003002 0.035661 0.000000
0.018826 0.041832 0.000000
0.046784 0.048542 0.000000
0.089180 0.054063 0.000000
0.131375 0.052657 0.000000
0.178638 0.048392 0.000000
0.231325 0.042869 0.000000
0.280351 0.035859 0.000000
0.335500 0.027791 0.000000
0.393562 0.019032 0.000000
0.453743 0.010409 0.000000
0.510588 0.004193 0.000000
0.562544 0.001409 0.000000
0.610149 0.000138 0.000000
0.656186 0.000000 0.000000
0.701684 0.000000 0.000000
0.832512 0.008143 0.000000
0.900278 0.023685 0.000000
0.910531 0.068777 0.000000
0.913699 0.123223 0.000000
0.916340 0.174722 0.000000
0.909308 0.212539 0.000000
0.880809 0.243897 0.000000
0.842609 0.273507 0.000000
0.844120 0.352572 0.098285
0.867473 0.450750 0.315048
0.000000 0.025032 0.000000
0.000000 0.029808 0.000000
0.000000 0.034928 0.000000
0.000000 0.037882 0.000000
0.000000 0.041960 0.000000
0.000661 0.047153 0.000000
0.005732 0.053379 0.000000
0.024857 0.060996 0.000000
0.055385 0.069529 0.000000
0.104996 0.078350 0.000000
0.170555 0.085720 0.000000
0.227505 0.083494 0.000000
0.276707 0.077150 0.000000
0.335440 0.069118 0.000000
0.397095 0.059556 0.000000
0.458564 0.048121 0.000000
0.519342 0.036681 0.000000
0.573634 0.026108 0.000000
0.620732 0.016566 0.000000
0.658885 0.009515 0.000000
0.692823 0.006191 0.000000
0.729314 0.005677 0.000000
0.850322 0.023770 0.000000
0.905259 0.055077 0.000000
0.912856 0.108246 0.000000
0.915966 0.168773 0.000000
0.918570 0.213797 0.000000
0.910380 0.249774 0.000000
0.883848 0.287181 0.000000
0.853793 0.326633 0.016961
0.868317 0.416729 0.195033
0.887810 0.510866 0.402757
0.000000 0.040671 0.000000
0.000000 0.048960 0.000000
0.000000 0.054791 0.000000
0.000000 0.058812 0.000000
0.000000 0.063465 0.000000
0.001965 0.069499 0.000000
0.012891 0.077215 0.000000
0.035601 0.086427 0.000000
0.070422 0.097532 0.000000
0.124875 0.110408 0.000000
0.200329 0.124052 0.000000
0.273353 0.134222 0.000000
0.333445 0.130499 0.000000
0.394393 0.120023 0.000000
0.457282 0.107417 0.000000
0.522735 0.093194 0.000000
0.583760 0.077474 0.000000
0.635188 0.063628 0.000000
0.678089 0.051768 0.000000
0.711152 0.041138 0.000000
0.738341 0.033008 0.000000
0.804241 0.043166 0.000000
0.873154 0.061646 0.000000
0.912779 0.110127 0.000000
0.916012 0.167519 0.000000
0.918834 0.221238 0.000000
0.921778 0.263687 0.000000
0.913479 0.304427 0.000000
0.888426 0.344734 0.002005
0.875655 0.399564 0.096507
0.888819 0.482259 0.291545
0.904310 0.562865 0.470109
0.000000 0.066573 0.000000
0.000000 0.078745 0.000000
0.000000 0.084198 0.000000
0.000000 0.088982 0.000000
0.001156 0.095645 0.000000
0.007563 0.103486 0.000000
0.025899 0.113321 0.000000
0.053134 0.126135 0.000000
0.094021 0.141867 0.000000
0.152769 0.158231 0.000000
0.231230 0.174402 0.000000
0.310228 0.190732 0.000000
0.394262 0.202154 0.000000
0.455553 0.194796 0.000000
0.517982 0.181127 0.000000
0.584070 0.165353 0.000000
0.686404 0.180105 0.000000
0.745964 0.170615 0.000000
0.782533 0.151013 0.000000
0.810102 0.137010 0.000000
0.828643 0.128711 0.000000
0.878319 0.139699 0.000000
0.915856 0.161052 0.000000
0.917834 0.201228 0.000000
0.920493 0.249677 0.000000
0.923230 0.293607 0.000000
0.926683 0.338272 0.000000
0.917336 0.380977 0.000000
0.896913 0.422776 0.057393
0.898589 0.481821 0.225392
0.908246 0.551249 0.395348
0.918306 0.619800 0.536515
0.000000 0.106213 0.000000
0.000000 0.118358 0.000000
0.000000 0.126046 0.000000
0.000000 0.134148 0.000000
0.001941 0.144291 0.000000
0.017134 0.156355 0.000000
0.040221 0.167463 0.000000
0.073514 0.180634 0.000000
0.123326 0.197095 0.000000
0.191232 0.216067 0.000000
0.263652 0.232422 0.000000
0.347375 0.249199 0.000000
0.438007 0.267695 0.000000
0.518716 0.279436 0.000000
0.621335 0.319030 0.000000
0.694092 0.327013 0.000000
0.768822 0.338757 0.000000
0.860010 0.367210 0.000000
0.891079 0.344218 0.000000
0.913383 0.319182 0.000000
0.922069 0.306347 0.000000
0.923667 0.302605 0.000000
0.924161 0.310242 0.000000
0.925308 0.329362 0.000000
0.927464 0.359549 0.000000
0.930530 0.397466 0.000000
0.933857 0.437080 0.004544
0.921207 0.475240 0.071874
0.913126 0.514063 0.199287
0.918585 0.563259 0.357475
0.923050 0.619872 0.488693
0.927603 0.676494 0.599270
0.000000 0.163463 0.000000
0.000000 0.172169 0.000000
0.000000 0.180818 0.000000
0.000000 0.190124 0.000000
0.000678 0.200760 0.000000
0.013392 0.214759 0.000000
0.039314 0.227546 0.000000
0.074878 0.241342 0.000000
0.132015 0.257044 0.000000
0.213917 0.275250 0.000000
0.290578 0.295865 0.000000
0.383392 0.318799 0.000000
0.511417 0.384348 0.000000
0.615551 0.443042 0.000000
0.699202 0.484374 0.000000
0.799798 0.543956 0.000000
0.839926 0.540790 0.000000
0.875428 0.538040 0.000000
0.901888 0.524034 0.000000
0.923544 0.498241 0.000000
0.934335 0.475685 0.000000
0.934459 0.463779 0.000000
0.934678 0.463416 0.000000
0.935796 0.473616 0.000000
0.937866 0.492182 0.000000
0.940706 0.516669 0.037258
0.938535 0.544696 0.111983
0.929060 0.573891 0.240998
0.929462 0.605025 0.368598
0.932643 0.641021 0.480246
0.932608 0.684501 0.572776
0.933849 0.729302 0.658788
0.000000 0.232777 0.000000
0.000000 0.240699 0.000000
0.000000 0.247848 0.000000
0.000000 0.255619 0.000000
0.000060 0.265036 0.000000
0.003803 0.277752 0.000000
0.025148 0.292594 0.000000
0.060381 0.310049 0.000000
0.115993 0.328225 0.000000
0.202814 0.347345 0.000000
0.293484 0.368936 0.000000
0.400237 0.392481 0.000000
0.549371 0.476148 0.000000
0.702632 0.608608 0.000000
0.763900 0.661498 0.000000
0.817578 0.689948 0.000000
0.850973 0.691209 0.000000
0.878114 0.680727 0.000000
0.900104 0.665527 0.000000
0.917987 0.649094 0.000000
0.932977 0.630346 0.006255
0.941681 0.613111 0.008105
0.944894 0.606198 0.030237
0.946478 0.607912 0.073246
0.946083 0.616773 0.125988
0.943959 0.630025 0.207287
0.939335 0.647122 0.320160
0.937610 0.668063 0.430067
0.939137 0.690463 0.516813
0.940579 0.713505 0.586655
0.939991 0.743257 0.649819
0.939472 0.776965 0.714988
0.000000 0.313157 0.000000
0.000000 0.321735 0.000000
0.000000 0.327825 0.000000
0.000000 0.334527 0.000000
0.000000 0.344153 0.000000
0.001031 0.356243 0.000000
0.014864 0.370593 0.000000
0.050676 0.386537 0.000000
0.105895 0.403354 0.000000
0.190190 0.420872 0.000000
0.285640 0.439269 0.000000
0.397615 0.460515 0.000000
0.520650 0.494276 0.000000
0.692036 0.644426 0.000000
0.772473 0.738865 0.000000
0.827497 0.779141 0.000000
0.862951 0.791902 0.000000
0.881995 0.787434 0.000000
0.897711 0.777920 0.000000
0.911450 0.767986 0.032530
0.923108 0.757526 0.122683
0.932361 0.745951 0.208706
0.938933 0.736319 0.272813
0.942456 0.730490 0.325109
0.942029 0.729473 0.386721
0.941454 0.733466 0.457984
0.941331 0.742248 0.528005
0.943690 0.753635 0.589483
0.945589 0.766411 0.641793
0.946623 0.778320 0.682863
0.946177 0.795420 0.722109
0.944288 0.816145 0.765662
0.000000 0.400816 0.000000
0.000000 0.408861 0.000000
0.000000 0.413724 0.000000
0.000000 0.418315 0.000000
0.000000 0.425607 0.000000
0.001923 0.434956 0.000000
0.016500 0.446167 0.000000
0.055215 0.458707 0.000000
0.115336 0.473335 0.000000
0.198290 0.487507 0.000000
0.287172 0.502493 0.000000
0.393816 0.519156 0.000000
0.506377 0.537876 0.000000
0.656716 0.629964 0.000000
0.784261 0.778793 0.000000
0.831781 0.823940 0.000000
0.869519 0.845430 0.019716
0.892609 0.853729 0.089703
0.903496 0.851963 0.165521
0.912693 0.847576 0.236771
0.920269 0.842399 0.332897
0.926576 0.837058 0.446779
0.931485 0.833099 0.538424
0.935261 0.829142 0.600994
0.938000 0.826773 0.645801
0.941461 0.825340 0.672403
0.945359 0.826190 0.700196
0.948490 0.829260 0.728855
0.950437 0.833002 0.752476
0.951163 0.836848 0.770555
0.950852 0.843874 0.790091
0.946759 0.848281 0.806037
0.000000 0.479026 0.000000
0.000000 0.486607 0.000000
0.000000 0.490850 0.000000
0.000000 0.494881 0.000000
0.001839 0.499392 0.000000
0.013460 0.505503 0.000000
0.037520 0.513834 0.000000
0.081902 0.523068 0.000000
0.144484 0.534079 0.000000
0.226542 0.545821 0.000000
0.308772 0.558184 0.000000
0.404122 0.571187 0.000000
0.505120 0.585348 0.000000
0.624243 0.614330 0.000000
0.773759 0.767031 0.000000
0.837700 0.851956 0.000000
0.870938 0.871247 0.075727
0.897138 0.887831 0.263938
0.912270 0.894254 0.402424
0.920607 0.895023 0.493183
0.926849 0.893595 0.567823
0.931648 0.892055 0.631761
0.936135 0.890785 0.691158
0.939750 0.890431 0.743999
0.943300 0.890288 0.790034
0.946779 0.890197 0.819855
0.950595 0.888245 0.828973
0.953568 0.886609 0.835442
0.955495 0.885856 0.840832
0.956355 0.885661 0.845638
0.954959 0.884034 0.849063
0.948883 0.878036 0.846651
0.001959 0.656706 0.000000
0.024495 0.658954 0.000000
0.037028 0.663608 0.000000
0.052292 0.665314 0.000000
0.069065 0.668204 0.000000
0.101013 0.674316 0.000000
0.128682 0.653881 0.000000
0.145514 0.583824 0.000000
0.206288 0.591529 0.000000
0.277170 0.600493 0.000000
0.353334 0.609665 0.000000
0.434731 0.618938 0.000000
0.519365 0.629648 0.000000
0.619255 0.643238 0.000000
0.750670 0.744500 0.000000
0.845041 0.871286 0.000000
0.874354 0.890969 0.105227
0.897135 0.904748 0.357995
0.915764 0.916440 0.569351
0.927402 0.921546 0.648985
0.933720 0.922893 0.707437
0.938811 0.923382 0.755292
0.943005 0.923699 0.796444
0.946862 0.924346 0.832680
0.950152 0.925078 0.862888
0.953366 0.925582 0.885449
0.956203 0.925170 0.896434
0.958956 0.923149 0.896452
0.960718 0.921282 0.895999
0.960147 0.918595 0.894603
0.957523 0.912891 0.890598
0.952060 0.905805 0.884828
0.009187 0.815839 0.000000
0.020219 0.817475 0.000000
0.026691 0.819621 0.000000
0.041803 0.819669 0.000000
0.066697 0.820619 0.000000
0.103060 0.822999 0.000000
0.150365 0.823794 0.000000
0.193136 0.775648 0.000000
0.275426 0.773981 0.000000
0.368967 0.769287 0.000000
0.462783 0.767016 0.000000
0.517417 0.721137 0.000000
0.555914 0.671873 0.000000
0.637685 0.681557 0.000000
0.757504 0.772293 0.000000
0.852778 0.888362 0.000000
0.879201 0.907136 0.088817
0.899049 0.919093 0.378788
0.915166 0.927563 0.617117
0.929970 0.936633 0.733615
0.939094 0.940676 0.785372
0.944760 0.942584 0.823883
0.949046 0.943774 0.854802
0.952556 0.944723 0.878871
0.955986 0.945392 0.898664
0.958669 0.946030 0.914173
0.961158 0.946198 0.924979
0.963040 0.944690 0.927539
0.963012 0.941631 0.924934
0.961501 0.937364 0.921053
0.958665 0.932075 0.916447
0.954724 0.926270 0.911261
0.023952 0.894199 0.000000
0.053069 0.896116 0.000000
0.068335 0.896465 0.000000
0.088287 0.896588 0.000000
0.121544 0.896591 0.000000
0.165282 0.896636 0.000000
0.200675 0.897177 0.000000
0.248905 0.897432 0.000000
0.316495 0.895995 0.000000
0.404334 0.892019 0.000000
0.490848 0.886909 0.000000
0.572773 0.877963 0.000000
0.625600 0.835084 0.000000
0.705246 0.832896 0.000000
0.786073 0.851395 0.000000
0.855949 0.903707 0.000000
0.883404 0.918625 0.060510
0.902102 0.930620 0.360219
0.916458 0.937374 0.636938
0.929046 0.943783 0.760113
0.940924 0.950485 0.827578
0.948145 0.953659 0.859288
0.952770 0.955673 0.883652
0.956535 0.956881 0.902767
0.959532 0.957565 0.917089
0.961824 0.957848 0.927945
0.963397 0.957403 0.935560
0.964228 0.956078 0.940061
0.963751 0.953715 0.940858
0.962220 0.949856 0.937811
0.959807 0.945351 0.933739
0.956609 0.940578 0.929578
0.162203 0.925968 0.000000
0.197941 0.925671 0.000000
0.220957 0.925303 0.000000
0.242746 0.924921 0.000000
0.269635 0.924306 0.000000
0.304912 0.923580 0.000000
0.334038 0.922910 0.000000
0.365795 0.922308 0.000000
0.404508 0.921629 0.000000
0.457000 0.919712 0.000000
0.517706 0.916189 0.000000
0.582626 0.913398 0.000000
0.652253 0.911121 0.000000
0.727501 0.908334 0.000000
0.801137 0.906924 0.000000
0.854187 0.910750 0.000000
0.884694 0.922483 0.060950
0.904397 0.939004 0.352017
0.918739 0.946020 0.647921
0.929893 0.950568 0.774055
0.940299 0.955409 0.843196
0.949053 0.960007 0.881071
0.954218 0.962068 0.898932
0.957781 0.963353 0.913440
0.960572 0.964025 0.925228
0.962650 0.964161 0.933921
0.963804 0.963702 0.939991
0.964352 0.962594 0.944177
0.964009 0.960927 0.946834
0.963075 0.958655 0.947480
0.961270 0.955484 0.946225
0.958518 0.951598 0.942837
0.362960 0.943783 0.261667
0.389711 0.942720 0.243554
0.403483 0.942258 0.234434
0.417680 0.941660 0.226368
0.433418 0.940932 0.214863
0.451967 0.940101 0.200443
0.470393 0.939186 0.186322
0.490038 0.938257 0.171326
0.513087 0.937251 0.157498
0.541573 0.935980 0.132350
0.579416 0.932596 0.063689
0.625903 0.927916 0.004704
0.679048 0.923161 0.000000
0.737697 0.917859 0.000000
0.799430 0.913389 0.000000
0.851825 0.915047 0.000000
0.884735 0.927105 0.111828
0.905668 0.944933 0.392852
0.920731 0.953112 0.660440
0.931920 0.956702 0.787307
0.940806 0.959848 0.853320
0.948621 0.963383 0.891287
0.955070 0.966611 0.912777
0.958710 0.967783 0.923023
0.961235 0.968289 0.931501
0.962914 0.968463 0.938330
0.964230 0.967973 0.943444
0.964750 0.967110 0.947316
0.964527 0.965901 0.950025
0.963761 0.964195 0.951692
0.962433 0.961979 0.952145
0.960444 0.959525 0.951571
0.522706 0.958409 0.523987
0.540275 0.957457 0.511001
0.549143 0.956951 0.503851
0.557352 0.956373 0.496605
0.566630 0.955809 0.489505
0.577573 0.955170 0.479316
0.589062 0.954476 0.469988
0.601450 0.953717 0.459727
0.614941 0.952876 0.448796
0.632029 0.952013 0.436637
0.654028 0.949984 0.401592
0.683953 0.945800 0.330283
0.719917 0.940752 0.253598
0.762940 0.934971 0.148017
0.810362 0.929373 0.041892
0.853784 0.928452 0.039647
0.885195 0.937103 0.227142
0.906425 0.951111 0.484866
0.922062 0.958850 0.684325
0.933467 0.961753 0.799850
0.942484 0.964300 0.863770
0.949055 0.966423 0.897672
0.954998 0.969355 0.919838
0.959947 0.971414 0.932708
0.962215 0.971780 0.938350
0.963794 0.971723 0.943256
0.964849 0.971460 0.947322
0.965361 0.970893 0.950641
0.965291 0.969875 0.952947
0.964708 0.968423 0.954566
0.963552 0.966724 0.955539
0.961870 0.964720 0.955880
0.637868 0.967261 0.673596
0.648095 0.967223 0.665805
0.653661 0.967267 0.661428
0.658358 0.967039 0.657542
0.663693 0.966920 0.654275
0.670127 0.966799 0.649788
0.677568 0.966290 0.644673
0.685647 0.965727 0.638884
0.694391 0.965114 0.633146
0.704554 0.964469 0.626412
0.717576 0.963294 0.614504
0.737132 0.960613 0.583553
0.762500 0.956824 0.536067
0.794024 0.952171 0.471655
0.828979 0.947674 0.401750
0.860820 0.945681 0.372437
0.887175 0.949487 0.444227
0.907784 0.958076 0.590336
0.923070 0.963572 0.721185
0.934878 0.965764 0.814752
0.943910 0.968114 0.872676
0.950432 0.969944 0.905270
0.955335 0.971538 0.924477
0.959890 0.973434 0.937734
0.963286 0.974669 0.945116
0.964836 0.974630 0.948466
0.965719 0.974281 0.951555
0.966016 0.973801 0.954083
0.966043 0.972960 0.956199
0.965783 0.971855 0.957640
0.964850 0.970479 0.958663
0.963430 0.968944 0.959033
0.712823 0.969297 0.763090
0.720170 0.969756 0.758914
0.724255 0.969912 0.756606
0.727724 0.969826 0.754295
0.731394 0.969988 0.751358
0.735940 0.969985 0.748940
0.739995 0.970088 0.746038
0.745983 0.970022 0.742241
0.753110 0.969876 0.738268
0.761033 0.969592 0.734148
0.770560 0.969338 0.728754
0.783630 0.968654 0.713597
0.801760 0.967433 0.685623
0.823612 0.965016 0.651637
0.847348 0.961744 0.618244
0.871318 0.959804 0.598995
0.892630 0.961108 0.618274
