LUTS/Dam_Filmstock_KD_D60.cube
#Created by: Damian Krzywonos for Cities Skylines 2 Lumina mod
#LogC or linear to sRGB not completely sure
TITLE "Dam_Filmstock_KD_D60"
LUT_3D_SIZE 5
DOMAIN_MIN 0.000000 0.000000 0.000000
DOMAIN_MAX 0.903226 0.903226 0.903226
0.000000 0.000000 0.000000
0.003891 0.000000 0.000000
0.109630 0.000000 0.000000
0.529023 0.000000 0.000000
0.636356 0.000000 0.000000
0.000000 0.001855 0.000000
0.025350 0.006190 0.000000
0.252314 0.000000 0.000000
0.818932 0.000000 0.000000
0.905791 0.010218 0.000000
0.000000 0.144263 0.000000
0.151087 0.247020 0.000000
0.766159 0.407373 0.000000
0.925835 0.337436 0.000000
0.942733 0.536941 0.037262
0.010462 0.835690 0.000000
0.229623 0.851440 0.000000
0.878363 0.880135 0.000000
0.981540 0.951867 0.708801
0.990468 0.948313 0.858462
0.864285 0.966198 0.673799
0.880145 0.964776 0.660143
0.929130 0.955629 0.559903
0.981610 0.978603 0.840606
0.987292 0.979451 0.920798
0.000000 0.000172 0.002710
0.003176 0.000000 0.002466
0.189966 0.000000 0.000000
0.710523 0.000000 0.000000
0.854093 0.000000 0.000000
0.000000 0.016582 0.005503
0.032315 0.024834 0.009141
0.440518 0.010011 0.000000
0.912177 0.070455 0.000000
0.921860 0.233031 0.009586
0.000000 0.286722 0.000000
0.000000 0.220929 0.000000
0.730118 0.568533 0.000000
0.946276 0.581750 0.025633
0.968473 0.773975 0.506875
0.123545 0.928711 0.017239
0.272942 0.920691 0.000000
0.788792 0.908951 0.000000
0.983836 0.962646 0.789345
0.993396 0.964049 0.893503
0.904018 0.976583 0.786219
0.911325 0.974629 0.768379
0.934818 0.965503 0.679263
0.984001 0.981557 0.845348
0.990612 0.984581 0.935477
0.000000 0.047166 0.356704
0.026431 0.039667 0.412031
0.200363 0.001789 0.265224
0.816110 0.000000 0.228468
0.906872 0.000000 0.227602
0.000000 0.124621 0.396617
0.038151 0.150956 0.445082
0.406444 0.041425 0.441706
0.924224 0.193266 0.431272
0.941084 0.471935 0.419441
0.017148 0.728818 0.644976
0.063041 0.691563 0.603551
0.586029 0.539404 0.475241
0.979088 0.842821 0.765621
0.982793 0.874331 0.794084
0.763248 0.976351 0.776996
0.812409 0.968002 0.742983
0.789307 0.950157 0.451206
0.983516 0.969019 0.854092
0.995290 0.975187 0.923035
0.950958 0.986873 0.895868
0.951088 0.986847 0.885869
0.950719 0.980825 0.833341
0.985084 0.981216 0.842466
0.994145 0.989795 0.954541
0.276432 0.496363 0.851255
0.402998 0.509079 0.864989
0.567363 0.440718 0.878273
0.859729 0.074213 0.806539
0.925545 0.121857 0.715413
0.293371 0.584000 0.858224
0.456692 0.607661 0.868399
0.666243 0.560977 0.882747
0.931224 0.308011 0.844958
0.953785 0.554677 0.819477
0.270504 0.828717 0.892354
0.486513 0.836808 0.887845
0.790973 0.827884 0.869562
0.965519 0.786282 0.874284
0.985223 0.879704 0.896899
0.972951 0.989083 0.965000
0.978480 0.989977 0.968111
0.974639 0.986671 0.959524
0.942742 0.917275 0.846521
0.996727 0.979530 0.950361
0.989065 0.994780 0.976666
0.991096 0.995530 0.979556
0.990596 0.994723 0.975153
0.980685 0.989544 0.933921
0.994865 0.991425 0.967290
0.733385 0.776569 0.883154
0.777632 0.792193 0.892027
0.823607 0.792425 0.903574
0.903031 0.748136 0.908318
0.951886 0.525765 0.847147
0.761063 0.817725 0.893342
0.804641 0.833652 0.900525
0.859952 0.838137 0.912894
0.925056 0.796964 0.917758
0.964923 0.672346 0.878888
0.825070 0.904396 0.916330
0.853434 0.911439 0.921576
0.909500 0.920671 0.930526
0.958258 0.918152 0.940549
0.987084 0.891837 0.929668
0.940573 0.983419 0.962760
0.951196 0.985326 0.966656
0.961262 0.983411 0.965719
0.974139 0.972338 0.952689
0.989816 0.973159 0.958067
0.993057 0.994358 0.982019
0.997105 0.996754 0.989006
0.999106 0.997796 0.991875
0.995874 0.995533 0.985753
0.981008 0.973396 0.936993
