LUTS/Dam_Filmstock_KD_D65.cube
#Created by: Damian Krzywonos for Cities Skylines 2 Lumina mod
#LogC or linear to sRGB not completely sure
TITLE "Dam_Filmstock_KD_D65"
LUT_3D_SIZE 8
DOMAIN_MIN 0.000000 0.000000 0.000000
DOMAIN_MAX 0.903226 0.903226 0.903226
0.000000 0.000000 0.000000
0.000098 0.000000 0.000000
0.004761 0.000000 0.000000
0.046307 0.000000 0.000000
0.145459 0.000000 0.000000
0.406057 0.000000 0.000000
0.628804 0.000000 0.000000
0.593099 0.000000 0.000000
0.000000 0.000000 0.000000
0.000859 0.000098 0.000000
0.010453 0.000000 0.000000
0.061943 0.000000 0.000000
0.239395 0.000000 0.000000
0.583999 0.000000 0.000000
0.801931 0.000000 0.000000
0.797282 0.000000 0.000000
0.000000 0.003057 0.000000
0.000000 0.007199 0.000000
0.043350 0.013290 0.000000
0.187796 0.001546 0.000000
0.409057 0.000000 0.000000
0.758168 0.000000 0.000000
0.904129 0.008846 0.000000
0.909297 0.050625 0.000000
0.000000 0.040321 0.000000
0.000450 0.067962 0.000000
0.102113 0.115646 0.000000
0.434609 0.163060 0.000000
0.728773 0.088563 0.000000
0.892313 0.028668 0.000000
0.915608 0.159869 0.000000
0.926692 0.328527 0.000000
0.000000 0.285703 0.000000
0.000000 0.338397 0.000000
0.144161 0.424975 0.000000
0.621449 0.566104 0.000000
0.889306 0.705082 0.000000
0.950254 0.646136 0.000000
0.950650 0.632391 0.045879
0.961186 0.707144 0.425169
0.001959 0.721428 0.000000
0.003870 0.741124 0.000000
0.225460 0.732269 0.000000
0.624925 0.777289 0.000000
0.916791 0.903707 0.000000
0.966172 0.933917 0.615990
0.976973 0.933909 0.814282
0.984406 0.929766 0.857956
0.358928 0.933161 0.032841
0.442903 0.930051 0.000000
0.535122 0.926797 0.000000
0.712904 0.915400 0.000000
0.921449 0.917332 0.000000
0.966854 0.966976 0.792125
0.978990 0.973241 0.898898
0.981133 0.970170 0.926410
0.828891 0.971470 0.731268
0.839817 0.971421 0.724619
0.851980 0.970360 0.715584
0.879748 0.966070 0.674921
0.934611 0.959796 0.613454
0.968884 0.978763 0.839852
0.979220 0.980380 0.927622
0.981297 0.980176 0.943677
0.000000 0.000000 0.000000
0.000098 0.000000 0.000000
0.005067 0.000000 0.000000
0.052821 0.000000 0.000000
0.188134 0.000000 0.000000
0.524280 0.000000 0.000000
0.737024 0.000000 0.000000
0.732732 0.000000 0.000000
0.000000 0.000098 0.000000
0.001126 0.000822 0.000000
0.032759 0.000000 0.000000
0.166081 0.000000 0.000000
0.440008 0.000000 0.000000
0.760200 0.000000 0.000000
0.895990 0.000000 0.000000
0.898917 0.000000 0.000000
0.000000 0.006774 0.000000
0.000000 0.007830 0.000000
0.054985 0.019856 0.000000
0.227263 0.003218 0.000000
0.542676 0.000123 0.000000
0.900629 0.020283 0.000000
0.917568 0.171571 0.000000
0.920006 0.206299 0.001048
0.000000 0.041725 0.000000
0.000000 0.055753 0.000000
0.035524 0.090776 0.000000
0.418725 0.240141 0.000000
0.762250 0.189855 0.000000
0.917201 0.187428 0.000000
0.928493 0.363704 0.000000
0.941674 0.510404 0.144238
0.000000 0.328485 0.000000
0.000000 0.353444 0.000000
0.001161 0.396687 0.000000
0.473299 0.548849 0.000000
0.877975 0.770344 0.009768
0.958220 0.740827 0.259123
0.961498 0.721323 0.306612
0.970373 0.784296 0.576175
0.012588 0.853731 0.000000
0.013419 0.860719 0.000000
0.013862 0.866454 0.000000
0.424428 0.862127 0.000000
0.906872 0.911349 0.044771
0.968755 0.946116 0.741603
0.981565 0.948616 0.871190
0.988948 0.945444 0.884988
0.542078 0.953763 0.457253
0.582713 0.950146 0.402036
0.628583 0.946098 0.329079
0.707301 0.936425 0.136214
0.911448 0.917354 0.000000
0.969027 0.971179 0.801522
0.982123 0.977847 0.912171
0.985092 0.977536 0.941769
0.864533 0.980150 0.813233
0.869935 0.978922 0.802695
0.875608 0.977055 0.785971
0.890662 0.973415 0.752682
0.935026 0.963338 0.655045
0.971036 0.980413 0.836117
0.981588 0.983415 0.933292
0.984197 0.983699 0.950464
0.000000 0.000197 0.008047
0.000000 0.000000 0.014778
0.002515 0.000000 0.005091
0.030926 0.000000 0.000497
0.276034 0.000000 0.000000
0.664695 0.000000 0.000000
0.835478 0.000000 0.000000
0.850927 0.000000 0.000000
0.000000 0.002068 0.012795
0.000000 0.003203 0.022230
0.020983 0.000025 0.021117
0.185185 0.000000 0.009275
0.544257 0.000000 0.000450
0.869340 0.000000 0.000000
0.899860 0.000000 0.007333
0.904528 0.002181 0.014062
0.000000 0.031444 0.022331
0.000000 0.036677 0.023767
0.042626 0.042162 0.031510
0.524186 0.052312 0.039253
0.600077 0.040701 0.000288
0.903800 0.084720 0.000523
0.924035 0.249188 0.098352
0.932766 0.387416 0.156830
0.000000 0.149387 0.001065
0.000000 0.130651 0.000000
0.001387 0.128266 0.000000
0.409749 0.314361 0.010301
0.764996 0.328020 0.027728
0.928079 0.370941 0.006670
0.940135 0.495335 0.102198
0.958465 0.669497 0.496595
0.000000 0.564014 0.000000
0.000000 0.540966 0.000000
0.000000 0.543685 0.000000
0.323067 0.569718 0.000000
0.887520 0.813453 0.272630
0.965130 0.807395 0.562493
0.970649 0.791865 0.537366
0.979237 0.853352 0.710274
0.025756 0.909144 0.040230
0.023364 0.908686 0.004190
0.035580 0.903477 0.000000
0.352923 0.897112 0.000000
0.901767 0.916684 0.067173
0.970190 0.953014 0.789531
0.983824 0.956591 0.895150
0.990807 0.954673 0.902514
0.654447 0.965239 0.630570
0.672177 0.961458 0.585457
0.691661 0.955919 0.513703
0.740965 0.946850 0.371486
0.907926 0.922394 0.000000
0.970145 0.973704 0.809784
0.983302 0.980037 0.919945
0.986600 0.980225 0.947869
0.881598 0.982663 0.841194
0.886577 0.982115 0.834374
0.891156 0.980564 0.821209
0.901541 0.977176 0.790913
0.936800 0.967527 0.701183
0.972252 0.980875 0.837305
0.983195 0.985528 0.937762
0.986533 0.986494 0.956603
0.000000 0.009283 0.173546
0.000000 0.008164 0.211174
0.011571 0.004552 0.212492
0.040460 0.000000 0.069937
0.124014 0.000000 0.040984
0.717732 0.000000 0.102071
0.901359 0.000000 0.090734
0.901058 0.000000 0.075981
0.000000 0.026883 0.218942
0.000000 0.032295 0.255310
0.028344 0.018133 0.269497
0.145254 0.000751 0.214547
0.486195 0.000000 0.203521
0.893039 0.000000 0.263504
0.911113 0.013466 0.286061
0.917247 0.097278 0.259357
0.000000 0.060686 0.250148
0.000000 0.077555 0.260152
0.021493 0.081040 0.277376
0.222631 0.050494 0.298809
0.690837 0.081852 0.347480
0.917827 0.107543 0.273745
0.928890 0.297633 0.329021
0.943776 0.503492 0.444678
0.000000 0.377448 0.413191
0.000000 0.348192 0.375875
0.000000 0.324844 0.347166
0.281051 0.290750 0.328206
0.938483 0.502675 0.523744
0.962479 0.688347 0.654650
0.963737 0.708052 0.619192
0.967961 0.746058 0.665249
0.015599 0.774876 0.365006
0.013632 0.765330 0.317501
0.009616 0.738004 0.250092
0.016864 0.689246 0.011509
0.866877 0.816906 0.532540
0.978503 0.873885 0.759784
0.982909 0.881051 0.760081
0.987063 0.907677 0.839299
0.422080 0.957639 0.676731
0.419673 0.953710 0.616318
0.353232 0.948890 0.482582
0.445294 0.935940 0.212709
0.871241 0.920656 0.073305
0.969848 0.957914 0.838791
0.986777 0.966789 0.925109
0.992266 0.964602 0.922399
0.809891 0.980868 0.811988
0.801521 0.977983 0.783330
0.803054 0.974355 0.748020
0.811270 0.965992 0.661232
0.897682 0.942729 0.329177
0.970526 0.976200 0.819382
0.985105 0.983124 0.932373
0.988959 0.984423 0.958761
0.913830 0.986534 0.892841
0.916211 0.987625 0.888120
0.918268 0.986747 0.879919
0.920116 0.983473 0.851537
0.938839 0.975671 0.782926
0.972709 0.980490 0.833531
0.985708 0.988016 0.943939
0.989102 0.989439 0.965074
0.000000 0.120701 0.605138
0.010909 0.129455 0.634224
0.045088 0.109937 0.650286
0.161016 0.054446 0.630584
0.355750 0.020547 0.515676
0.601310 0.000000 0.354253
0.909395 0.000000 0.467938
0.914340 0.019019 0.457811
0.000000 0.193624 0.646992
0.016943 0.215135 0.675467
0.077448 0.195781 0.689204
0.227112 0.130343 0.680031
0.476481 0.029672 0.610250
0.844528 0.000067 0.584255
0.927314 0.197005 0.619423
0.933818 0.330283 0.566604
0.000000 0.263949 0.648946
0.000442 0.298342 0.679751
0.067318 0.295766 0.691738
0.275485 0.243715 0.710988
0.603891 0.106156 0.686337
0.922291 0.163759 0.694758
0.941198 0.423483 0.659034
0.948141 0.522864 0.641841
0.001739 0.478707 0.738199
0.001734 0.486153 0.735035
0.003040 0.487464 0.732319
0.307957 0.470330 0.722953
0.727377 0.411404 0.738990
0.961330 0.644780 0.812351
0.972141 0.762393 0.817573
0.974802 0.790760 0.814269
0.468059 0.926886 0.894466
0.521031 0.922266 0.888024
0.540055 0.908787 0.871328
0.520713 0.860757 0.819821
0.730847 0.718650 0.698385
0.980328 0.872286 0.839968
0.989427 0.919806 0.898349
0.990474 0.928009 0.909217
0.759158 0.987434 0.908609
0.768818 0.985715 0.901938
0.776598 0.981733 0.889086
0.793690 0.967537 0.851752
0.774870 0.929520 0.650926
0.959155 0.949469 0.869096
0.987496 0.970019 0.938177
0.993399 0.973287 0.941855
0.912267 0.991419 0.935131
0.921253 0.990429 0.933779
0.927404 0.989157 0.929302
0.916546 0.987242 0.900441
0.906370 0.980055 0.818946
0.964426 0.978016 0.824988
0.986310 0.985684 0.949359
0.991005 0.988084 0.970891
0.958306 0.991306 0.955160
0.960273 0.991705 0.954610
0.958274 0.992059 0.949566
0.953759 0.992042 0.933791
0.950554 0.988692 0.901218
0.968950 0.983166 0.857048
0.987255 0.990038 0.950180
0.991665 0.992166 0.974214
0.101492 0.410671 0.869710
0.182208 0.422792 0.881350
0.254776 0.422213 0.890615
0.365262 0.373609 0.899646
0.544024 0.277955 0.887326
0.763387 0.057808 0.816995
0.910834 0.009633 0.719551
0.924519 0.097802 0.723948
0.116577 0.479288 0.883301
0.222796 0.496911 0.894801
0.299677 0.497437 0.900388
0.435614 0.460335 0.910562
0.619658 0.369874 0.899189
0.831044 0.102791 0.848074
0.924696 0.067282 0.814148
0.944189 0.425779 0.814701
0.082077 0.535353 0.884845
0.215623 0.559325 0.895884
0.316899 0.562339 0.899935
0.478016 0.544442 0.910925
0.691126 0.472970 0.907387
0.892925 0.292019 0.880107
0.940368 0.347641 0.862024
0.959225 0.611325 0.857746
0.033259 0.679384 0.905169
0.155051 0.697042 0.907867
0.303474 0.705973 0.908190
0.544832 0.708284 0.905932
0.774907 0.666198 0.907478
0.935481 0.607654 0.900355
0.966049 0.680644 0.894986
0.979185 0.818181 0.904786
0.224580 0.932018 0.967608
0.284257 0.931743 0.965219
0.382353 0.926451 0.958567
0.589998 0.902862 0.936007
0.806314 0.842125 0.888971
0.928273 0.836030 0.895085
0.985115 0.901923 0.924177
0.992137 0.937174 0.944437
0.945388 0.987993 0.973867
0.951503 0.988394 0.975028
0.955346 0.988310 0.975264
0.953959 0.986348 0.971765
0.914879 0.963271 0.937365
0.907080 0.896948 0.864841
0.986560 0.958105 0.938414
0.995610 0.976559 0.963232
0.973657 0.994436 0.981817
0.975622 0.994789 0.982689
0.976555 0.994975 0.982742
0.974221 0.994485 0.979656
0.960171 0.989510 0.959934
0.937653 0.975220 0.895907
0.980798 0.980432 0.950533
0.991474 0.988472 0.975921
0.980427 0.995825 0.984148
0.982528 0.996160 0.985500
0.983692 0.996355 0.985863
0.984100 0.995760 0.983829
0.979482 0.994000 0.973578
0.971684 0.991365 0.948574
0.985026 0.990256 0.949820
0.992056 0.992954 0.979665
0.436740 0.642861 0.943340
0.494765 0.654264 0.946950
0.540520 0.659252 0.949245
0.592037 0.648391 0.953977
0.713140 0.612976 0.960332
0.837290 0.531461 0.950345
0.919731 0.271365 0.911964
0.933206 0.226873 0.835137
0.470540 0.684510 0.945186
0.532567 0.695854 0.947853
0.572094 0.700906 0.949672
0.637337 0.691017 0.954343
0.754917 0.655720 0.959536
0.863007 0.576616 0.950385
0.941256 0.368203 0.922519
0.944890 0.415284 0.882508
0.476998 0.719744 0.945211
0.544605 0.735391 0.947369
0.588845 0.740631 0.948424
0.672300 0.739441 0.951679
0.792750 0.713704 0.957710
0.890022 0.648277 0.950191
0.953623 0.523699 0.934076
0.958419 0.589268 0.907560
0.521918 0.815780 0.948762
0.590588 0.827318 0.948875
0.637834 0.831520 0.948240
0.735983 0.838088 0.947342
0.850225 0.828619 0.952798
0.915948 0.794021 0.948592
0.970947 0.735584 0.941282
0.975365 0.774502 0.926064
0.627562 0.928145 0.966778
0.663879 0.929252 0.965149
0.712946 0.928784 0.962681
0.800998 0.923657 0.955590
0.888680 0.917289 0.949092
0.935307 0.909503 0.950514
0.971870 0.905621 0.951378
0.988917 0.916428 0.949232
0.909502 0.986206 0.980275
0.918445 0.986929 0.981093
0.925438 0.987276 0.981772
0.929518 0.985887 0.980927
0.923475 0.972511 0.969489
0.937573 0.945438 0.945966
0.969056 0.945911 0.950812
0.987982 0.968301 0.965935
0.984400 0.994689 0.988818
0.987277 0.995507 0.990781
0.989195 0.996161 0.992196
0.990793 0.996551 0.993129
0.988684 0.995295 0.990530
0.971212 0.985734 0.972582
0.955982 0.953113 0.930692
0.989104 0.980833 0.968139
0.990168 0.996764 0.992028
0.992228 0.997466 0.993839
0.993554 0.997998 0.995082
0.994214 0.998232 0.995503
0.992425 0.997587 0.993398
0.984796 0.994262 0.982981
0.972101 0.986674 0.953774
0.987837 0.989012 0.974209
0.671515 0.772181 0.933484
0.711636 0.783172 0.936914
0.733555 0.789861 0.940128
0.758334 0.789962 0.945067
0.809944 0.781288 0.954155
0.862773 0.754599 0.953677
0.909373 0.660992 0.943596
0.929311 0.507616 0.899981
0.703918 0.797346 0.936566
0.732963 0.807316 0.940562
0.753917 0.813189 0.943192
0.777833 0.811967 0.948693
0.831666 0.804987 0.957237
0.882121 0.777661 0.956089
0.923673 0.690438 0.947371
0.952469 0.578788 0.914242
0.714156 0.824215 0.941719
0.746744 0.835197 0.944357
0.769171 0.840715 0.947100
0.805468 0.845543 0.950952
0.859969 0.841180 0.959356
0.900121 0.819666 0.959272
0.936541 0.750708 0.951177
0.965661 0.688467 0.929294
0.753957 0.878495 0.948394
0.784694 0.886254 0.950633
0.806178 0.889485 0.952154
0.846131 0.895838 0.955622
0.890985 0.899204 0.962273
0.926842 0.890931 0.964519
0.953348 0.858507 0.959390
0.975981 0.827005 0.947392
0.805993 0.933409 0.961517
0.820853 0.936109 0.962563
0.840499 0.938249 0.963577
0.876820 0.940424 0.964449
0.918600 0.942922 0.965807
0.948388 0.942242 0.970021
0.966960 0.937137 0.969025
0.982195 0.932365 0.966902
0.890969 0.980098 0.978942
0.900615 0.981312 0.980019
0.912359 0.981970 0.980646
0.927654 0.980478 0.979783
0.942895 0.975465 0.975864
0.959934 0.970263 0.972037
0.973134 0.967254 0.972228
0.984487 0.969993 0.974586
0.973244 0.992816 0.987069
0.978912 0.993961 0.989329
0.982921 0.995026 0.991346
0.986344 0.995688 0.992856
0.985407 0.995048 0.991907
0.975346 0.989518 0.984308
0.970410 0.975132 0.968378
0.981504 0.976034 0.970963
0.989641 0.995719 0.991508
0.992883 0.997138 0.994482
0.995309 0.998226 0.996668
0.996998 0.998869 0.997990
0.997136 0.998873 0.998005
0.994684 0.997573 0.995511
0.984257 0.991123 0.982763
0.973757 0.974186 0.958364
