LUTS/Dam_Filmstock_KD_D55.cube
#Created by: Damian Krzywonos for Cities Skylines 2 Lumina mod
#LogC or linear to sRGB not completely sure
TITLE "Dam_Filmstock_KD_D55"
LUT_3D_SIZE 32
DOMAIN_MIN 0.0 0.0 0.0
DOMAIN_MAX 1.0 1.0 1.0
0.000000 0.000000 0.000000
0.000000 0.000000 0.000000
0.000049 0.000000 0.000000
0.000763 0.000000 0.000000
0.000859 0.000000 0.000000
0.001634 0.000000 0.000000
0.002566 0.000000 0.000000
0.004639 0.000000 0.000000
0.009136 0.000000 0.000000
0.016720 0.000000 0.000000
0.028888 0.000000 0.000000
0.045090 0.000000 0.000000
0.065035 0.000000 0.000000
0.088202 0.000000 0.000000
0.117676 0.000000 0.000000
0.160565 0.000000 0.000000
0.205071 0.000000 0.000000
0.251351 0.000000 0.000000
0.315386 0.000000 0.000000
0.395840 0.000000 0.000000
0.479741 0.000000 0.000000
0.573227 0.000000 0.000000
0.641585 0.000000 0.000000
0.680924 0.000000 0.000000
0.704299 0.000000 0.000000
0.713942 0.000000 0.000000
0.709728 0.000000 0.000000
0.692647 0.000000 0.000000
0.661178 0.000000 0.000000
0.618791 0.000000 0.000000
0.567574 0.000000 0.000000
0.507561 0.000000 0.000000
0.000000 0.000000 0.000000
0.000000 0.000000 0.000000
0.000049 0.000000 0.000000
0.000763 0.000000 0.000000
0.000874 0.000000 0.000000
0.001766 0.000000 0.000000
0.003477 0.000000 0.000000
0.006506 0.000000 0.000000
0.013149 0.000000 0.000000
0.024658 0.000000 0.000000
0.041021 0.000000 0.000000
0.061986 0.000000 0.000000
0.087304 0.000000 0.000000
0.120098 0.000000 0.000000
0.166665 0.000000 0.000000
0.214266 0.000000 0.000000
0.260793 0.000000 0.000000
0.324147 0.000000 0.000000
0.398798 0.000000 0.000000
0.481217 0.000000 0.000000
0.583932 0.000000 0.000000
0.665976 0.000000 0.000000
0.720422 0.000000 0.000000
0.756229 0.000000 0.000000
0.778686 0.000000 0.000000
0.789808 0.000000 0.000000
0.788459 0.000000 0.000000
0.776395 0.000000 0.000000
0.751577 0.000000 0.000000
0.718106 0.000000 0.000000
0.676047 0.000000 0.000000
0.624676 0.000000 0.000000
0.000000 0.000000 0.000000
0.000000 0.000000 0.000000
0.000049 0.000000 0.000000
0.000790 0.000000 0.000000
0.000978 0.000000 0.000000
0.002426 0.000000 0.000000
0.003525 0.000000 0.000000
0.006522 0.000000 0.000000
0.013115 0.000000 0.000000
0.024812 0.000000 0.000000
0.042125 0.000000 0.000000
0.064838 0.000000 0.000000
0.092737 0.000000 0.000000
0.130257 0.000000 0.000000
0.179155 0.000000 0.000000
0.228453 0.000000 0.000000
0.283039 0.000000 0.000000
0.350272 0.000000 0.000000
0.431115 0.000000 0.000000
0.518615 0.000000 0.000000
0.619545 0.000000 0.000000
0.699897 0.000000 0.000000
0.752537 0.000000 0.000000
0.788212 0.000000 0.000000
0.811022 0.000000 0.000000
0.822384 0.000000 0.000000
0.822590 0.000000 0.000000
0.813134 0.000000 0.000000
0.793099 0.000000 0.000000
0.762675 0.000000 0.000000
0.723079 0.000000 0.000000
0.675496 0.000000 0.000000
0.000000 0.000000 0.000000
0.000000 0.000000 0.000000
0.000049 0.000000 0.000000
0.000835 0.000000 0.000000
0.001651 0.000000 0.000000
0.002591 0.000000 0.000000
0.004390 0.000000 0.000000
0.007401 0.000000 0.000000
0.013218 0.000000 0.000000
0.024111 0.000000 0.000000
0.040972 0.000000 0.000000
0.063016 0.000000 0.000000
0.091018 0.000000 0.000000
0.130356 0.000000 0.000000
0.182098 0.000000 0.000000
0.234481 0.000000 0.000000
0.295946 0.000000 0.000000
0.369877 0.000000 0.000000
0.455308 0.000000 0.000000
0.546182 0.000000 0.000000
0.648490 0.000000 0.000000
0.727124 0.000000 0.000000
0.777151 0.000000 0.000000
0.812433 0.000000 0.000000
0.834724 0.000000 0.000000
0.846647 0.000000 0.000000
0.849253 0.000000 0.000000
0.842837 0.000000 0.000000
0.825203 0.000000 0.000000
0.798898 0.000000 0.000000
0.763392 0.000000 0.000000
0.718948 0.000000 0.000000
0.000000 0.000000 0.000000
0.000000 0.000015 0.000000
0.000049 0.000098 0.000000
0.000835 0.000098 0.000000
0.001761 0.000098 0.000000
0.003492 0.000041 0.000000
0.005754 0.000000 0.000000
0.010475 0.000000 0.000000
0.017423 0.000000 0.000000
0.026595 0.000000 0.000000
0.040504 0.000000 0.000000
0.060096 0.000000 0.000000
0.086238 0.000000 0.000000
0.124284 0.000000 0.000000
0.177974 0.000000 0.000000
0.234694 0.000000 0.000000
0.301453 0.000000 0.000000
0.383904 0.000000 0.000000
0.475781 0.000000 0.000000
0.570844 0.000000 0.000000
0.676778 0.000000 0.000000
0.752991 0.000000 0.000000
0.800378 0.000000 0.000000
0.834381 0.000000 0.000000
0.858141 0.000000 0.000000
0.871861 0.000000 0.000000
0.875334 0.000000 0.000000
0.870569 0.000000 0.000000
0.857426 0.000000 0.000000
0.833912 0.000000 0.000000
0.803961 0.000000 0.000000
0.762486 0.000000 0.000000
0.000000 0.000123 0.000000
0.000000 0.000132 0.000000
0.000019 0.000793 0.000000
0.000757 0.000884 0.000000
0.001804 0.000941 0.000000
0.004484 0.000884 0.000000
0.008581 0.000171 0.000000
0.015956 0.000045 0.000000
0.025702 0.000000 0.000000
0.037065 0.000000 0.000000
0.050519 0.000000 0.000000
0.067389 0.000000 0.000000
0.090677 0.000000 0.000000
0.126517 0.000000 0.000000
0.178038 0.000000 0.000000
0.238669 0.000000 0.000000
0.310127 0.000000 0.000000
0.401554 0.000000 0.000000
0.501401 0.000000 0.000000
0.598059 0.000000 0.000000
0.700546 0.000000 0.000000
0.777009 0.000000 0.000000
0.821158 0.000000 0.000000
0.856169 0.000000 0.000000
0.879740 0.000000 0.000000
0.892879 0.000000 0.000000
0.895827 0.000000 0.000000
0.894951 0.000000 0.000000
0.886699 0.000000 0.000000
0.871156 0.000000 0.000000
0.842401 0.000000 0.000000
0.800577 0.000000 0.000000
0.000000 0.000908 0.000000
0.000000 0.000924 0.000000
0.000000 0.001104 0.000000
0.000101 0.001806 0.000000
0.001659 0.001964 0.000000
0.004790 0.002739 0.000000
0.011579 0.002100 0.000000
0.022051 0.001142 0.000000
0.037115 0.000155 0.000000
0.054066 0.000000 0.000000
0.073432 0.000000 0.000000
0.096259 0.000000 0.000000
0.124700 0.000000 0.000000
0.163232 0.000000 0.000000
0.211302 0.000000 0.000000
0.267785 0.000000 0.000000
0.351401 0.000000 0.000000
0.449503 0.000000 0.000000
0.549720 0.000000 0.000000
0.642918 0.000000 0.000000
0.723001 0.000000 0.000000
0.800650 0.000000 0.000000
0.849587 0.000000 0.000000
0.878442 0.000000 0.000000
0.893486 0.000000 0.000000
0.897189 0.000000 0.000000
0.898704 0.000000 0.000000
0.900179 0.000000 0.000000
0.901596 0.000000 0.000000
0.897809 0.000436 0.000000
0.875557 0.002193 0.000000
0.833150 0.005573 0.000000
0.000000 0.001855 0.000000
0.000000 0.002049 0.000000
0.000000 0.002868 0.000000
0.000025 0.003815 0.000000
0.000821 0.004256 0.000000
0.004113 0.005851 0.000000
0.014541 0.006894 0.000000
0.029856 0.006190 0.000000
0.050661 0.003693 0.000000
0.077167 0.001316 0.000000
0.108470 0.000320 0.000000
0.143326 0.000000 0.000000
0.183328 0.000000 0.000000
0.227678 0.000000 0.000000
0.271870 0.000000 0.000000
0.331321 0.000000 0.000000
0.422103 0.000000 0.000000
0.534540 0.000000 0.000000
0.631618 0.000000 0.000000
0.717742 0.000000 0.000000
0.788292 0.000000 0.000000
0.852557 0.000000 0.000000
0.889342 0.000000 0.000000
0.898278 0.000000 0.000000
0.899792 0.000000 0.000000
0.901378 0.000000 0.000000
0.903008 0.004467 0.000000
0.904499 0.008123 0.000000
0.905710 0.010904 0.000000
0.906528 0.014598 0.000000
0.898532 0.022882 0.000000
0.840298 0.040598 0.000000
0.000000 0.004013 0.000000
0.000000 0.004999 0.000000
0.000000 0.006045 0.000000
0.000000 0.007818 0.000000
0.000064 0.009656 0.000000
0.002748 0.011772 0.000000
0.014850 0.014537 0.000000
0.039392 0.017207 0.000000
0.068275 0.015953 0.000000
0.105584 0.011991 0.000000
0.150434 0.007640 0.000000
0.201827 0.003260 0.000000
0.246815 0.001456 0.000000
0.294655 0.000243 0.000000
0.349500 0.000000 0.000000
0.412208 0.000000 0.000000
0.482969 0.000000 0.000000
0.565739 0.000000 0.000000
0.659256 0.000000 0.000000
0.751038 0.000000 0.000000
0.828487 0.000000 0.000000
0.884611 0.000000 0.000000
0.901027 0.000000 0.000000
0.902852 0.001817 0.000000
0.904995 0.013197 0.000000
0.907042 0.025443 0.000000
0.908599 0.043539 0.000000
0.909752 0.059563 0.000000
0.910524 0.070813 0.000000
0.911065 0.078902 0.000000
0.898987 0.086511 0.000000
0.839077 0.105509 0.000000
0.000000 0.008801 0.000000
0.000000 0.010617 0.000000
0.000000 0.012664 0.000000
0.000000 0.015249 0.000000
0.000000 0.017996 0.000000
0.002046 0.021722 0.000000
0.016281 0.026199 0.000000
0.044903 0.031154 0.000000
0.094780 0.036454 0.000000
0.145135 0.034227 0.000000
0.202601 0.029224 0.000000
0.256727 0.022990 0.000000
0.314279 0.015252 0.000000
0.372713 0.007767 0.000000
0.429996 0.002199 0.000000
0.493090 0.000281 0.000000
0.563193 0.000000 0.000000
0.635099 0.000000 0.000000
0.708153 0.000000 0.000000
0.781881 0.000000 0.000000
0.845730 0.000000 0.000000
0.888776 0.000000 0.000000
0.902818 0.000000 0.000000
0.905763 0.011524 0.000000
0.909344 0.051178 0.000000
0.912612 0.101675 0.000000
0.914541 0.139726 0.000000
0.915500 0.156260 0.000000
0.916175 0.166835 0.000000
0.916802 0.175653 0.000000
0.904596 0.207318 0.000000
0.869586 0.255545 0.000000
0.000000 0.016816 0.000000
0.000000 0.019976 0.000000
0.000000 0.023815 0.000000
0.000000 0.027261 0.000000
0.000352 0.031031 0.000000
0.003769 0.036192 0.000000
0.021543 0.042440 0.000000
0.054459 0.049817 0.000000
0.113778 0.058489 0.000000
0.198856 0.065786 0.000000
0.258527 0.062680 0.000000
0.318605 0.055387 0.000000
0.383732 0.046357 0.000000
0.448218 0.034907 0.000000
0.511568 0.021869 0.000000
0.576731 0.009133 0.000000
0.646607 0.001759 0.000000
0.712947 0.000131 0.000000
0.773248 0.000000 0.000000
0.826708 0.000000 0.000000
0.872468 0.000000 0.000000
0.896787 0.000000 0.000000
0.904164 0.003106 0.000000
0.907602 0.031653 0.000000
0.911303 0.081527 0.000000
0.914614 0.142830 0.000000
0.917183 0.195162 0.000000
0.918961 0.224666 0.000000
0.920709 0.248658 0.000000
0.922579 0.272815 0.000000
0.928843 0.362884 0.000000
0.937700 0.472457 0.021505
0.000000 0.028589 0.000000
0.000000 0.034978 0.000000
0.000000 0.041149 0.000000
0.000000 0.045472 0.000000
0.001361 0.050835 0.000000
0.010328 0.057211 0.000000
0.032429 0.065505 0.000000
0.072116 0.075708 0.000000
0.137141 0.088047 0.000000
0.232550 0.102006 0.000000
0.321231 0.113490 0.000000
0.389040 0.107828 0.000000
0.453635 0.095809 0.000000
0.520447 0.080906 0.000000
0.590658 0.063558 0.000000
0.660645 0.045168 0.000000
0.728697 0.026438 0.000000
0.790352 0.012782 0.000000
0.842169 0.007170 0.000000
0.875422 0.004391 0.000000
0.896353 0.003332 0.000000
0.905268 0.016108 0.000000
0.906940 0.024785 0.000000
0.910302 0.066214 0.000000
0.913870 0.129215 0.000000
0.917093 0.191888 0.000000
0.919642 0.236041 0.000000
0.921577 0.266636 0.000000
0.923766 0.299271 0.000000
0.926574 0.335501 0.000000
0.934328 0.436649 0.000000
0.943418 0.537688 0.088444
0.000000 0.048139 0.000000
0.000000 0.059823 0.000000
0.000000 0.067532 0.000000
0.000854 0.072993 0.000000
0.006512 0.080117 0.000000
0.023507 0.088955 0.000000
0.052332 0.100860 0.000000
0.101978 0.116079 0.000000
0.174474 0.135278 0.000000
0.264078 0.155162 0.000000
0.363169 0.173851 0.000000
0.458596 0.186616 0.000000
0.526273 0.177963 0.000000
0.593907 0.160741 0.000000
0.665739 0.141744 0.000000
0.739853 0.118779 0.000000
0.806714 0.093700 0.000000
0.859044 0.071475 0.000000
0.891465 0.056112 0.000000
0.907940 0.064227 0.000000
0.909219 0.053384 0.000000
0.910015 0.062700 0.000000
0.911677 0.089699 0.000000
0.914154 0.134139 0.000000
0.917407 0.194939 0.000000
0.920366 0.248054 0.000000
0.922993 0.293352 0.000000
0.925350 0.328657 0.000000
0.928068 0.364966 0.000000
0.932570 0.420200 0.000000
0.940366 0.509234 0.014555
0.948781 0.595338 0.161996
0.000000 0.085043 0.000000
0.000179 0.103959 0.000000
0.003491 0.112258 0.000000
0.009333 0.121130 0.000000
0.023916 0.132423 0.000000
0.047219 0.145772 0.000000
0.086067 0.159795 0.000000
0.144419 0.176932 0.000000
0.226247 0.199129 0.000000
0.309127 0.225112 0.000000
0.406531 0.244752 0.000000
0.505769 0.266379 0.000000
0.598615 0.280354 0.000000
0.668418 0.272503 0.000000
0.738000 0.257637 0.000000
0.813852 0.257404 0.000000
0.873168 0.237230 0.000000
0.905597 0.211815 0.000000
0.917606 0.191980 0.000000
0.917572 0.193152 0.000000
0.917622 0.194966 0.000000
0.917076 0.183286 0.000000
0.917737 0.196428 0.000000
0.919706 0.235774 0.000000
0.922591 0.285481 0.000000
0.925304 0.330418 0.000000
0.928027 0.373757 0.000000
0.931045 0.411895 0.000000
0.934359 0.449203 0.000000
0.940017 0.510631 0.000000
0.947201 0.584378 0.073854
0.954810 0.655855 0.250490
0.000000 0.151225 0.000000
0.000098 0.168549 0.000000
0.005751 0.177987 0.000000
0.020544 0.188979 0.000000
0.040503 0.202795 0.000000
0.072564 0.220653 0.000000
0.122786 0.237488 0.000000
0.196325 0.254976 0.000000
0.272870 0.275930 0.000000
0.362444 0.299648 0.000000
0.455690 0.325417 0.000000
0.550385 0.351982 0.000000
0.651068 0.379837 0.000000
0.740419 0.414982 0.000000
0.802121 0.414812 0.000000
0.864313 0.412454 0.000000
0.915544 0.424768 0.000000
0.930719 0.412034 0.000000
0.929406 0.391812 0.000000
0.928034 0.371284 0.000000
0.927080 0.357090 0.000000
0.926597 0.350278 0.000000
0.926889 0.354548 0.000000
0.928014 0.371702 0.000000
0.930083 0.404092 0.000000
0.932622 0.439836 0.000000
0.935550 0.474628 0.000000
0.938894 0.509085 0.000000
0.942805 0.547424 0.000000
0.948119 0.598675 0.040681
0.954244 0.655422 0.174810
0.960747 0.712008 0.337984
0.000000 0.229647 0.000000
0.000011 0.242160 0.000000
0.001333 0.253777 0.000000
0.011440 0.265479 0.000000
0.034801 0.279956 0.000000
0.070539 0.297865 0.000000
0.126981 0.318799 0.000000
0.210385 0.340836 0.000000
0.293265 0.363814 0.000000
0.392495 0.389556 0.000000
0.492640 0.415803 0.000000
0.593805 0.444471 0.000000
0.688280 0.489096 0.000000
0.775662 0.540307 0.000000
0.848858 0.588492 0.000000
0.893600 0.587060 0.000000
0.930247 0.584356 0.000000
0.943294 0.578334 0.000000
0.942199 0.565244 0.000000
0.940430 0.543343 0.000000
0.938908 0.524211 0.000000
0.937981 0.512276 0.000000
0.937783 0.510206 0.000000
0.938528 0.519214 0.000000
0.940124 0.535965 0.000000
0.942384 0.558223 0.000000
0.945242 0.584062 0.000000
0.948477 0.611977 0.001055
0.952192 0.643906 0.053060
0.956249 0.678494 0.158850
0.961051 0.718884 0.294110
0.966157 0.760246 0.423325
0.000000 0.320201 0.000000
0.000000 0.335484 0.000000
0.000000 0.346240 0.000000
0.000612 0.358668 0.000000
0.016171 0.374034 0.000000
0.050933 0.392533 0.000000
0.103694 0.412004 0.000000
0.188776 0.433756 0.000000
0.279657 0.455529 0.000000
0.388923 0.479057 0.000000
0.501143 0.504570 0.000000
0.616537 0.531505 0.000000
0.716378 0.581076 0.000000
0.792454 0.652023 0.000000
0.863757 0.698928 0.000000
0.915063 0.722913 0.000000
0.943594 0.724217 0.000000
0.955313 0.715919 0.000000
0.954258 0.702707 0.000000
0.952909 0.686743 0.000000
0.951846 0.671077 0.000000
0.950611 0.656545 0.000000
0.950119 0.649548 0.000000
0.950436 0.650099 0.000000
0.951599 0.657576 0.000000
0.953364 0.669539 0.000000
0.955582 0.685486 0.037636
0.958296 0.705370 0.105443
0.961112 0.726291 0.201686
0.963910 0.747243 0.311001
0.967397 0.774279 0.408432
0.971339 0.804129 0.498876
0.000000 0.431824 0.000000
0.000000 0.444335 0.000000
0.000000 0.451620 0.000000
0.000047 0.460739 0.000000
0.005704 0.472858 0.000000
0.040286 0.487972 0.000000
0.095498 0.504659 0.000000
0.179444 0.522802 0.000000
0.276828 0.541868 0.000000
0.387205 0.562295 0.000000
0.499984 0.583813 0.000000
0.619526 0.606542 0.000000
0.736979 0.657331 0.000000
0.814462 0.723162 0.000000
0.875874 0.767425 0.000000
0.926509 0.802488 0.000000
0.954158 0.815216 0.000000
0.963908 0.811701 0.000000
0.964033 0.803110 0.000000
0.963629 0.793892 0.000000
0.963456 0.784692 0.000000
0.963376 0.776242 0.000000
0.963181 0.768165 0.041103
0.963120 0.763369 0.070704
0.963419 0.762207 0.107643
0.964388 0.766040 0.144910
0.965847 0.774158 0.213961
0.967595 0.784343 0.308157
0.969436 0.795960 0.389735
0.971036 0.806277 0.451576
0.973146 0.821180 0.507587
0.975716 0.839498 0.565456
0.000000 0.536052 0.000000
0.000000 0.546330 0.000000
0.000262 0.552211 0.000000
0.004395 0.558012 0.000000
0.018780 0.566098 0.000000
0.055803 0.577337 0.000000
0.117833 0.590306 0.000000
0.207522 0.604281 0.000000
0.302476 0.619683 0.000000
0.406968 0.635948 0.000000
0.510910 0.652911 0.000000
0.621252 0.670131 0.000000
0.736701 0.695388 0.000000
0.831483 0.759888 0.000000
0.885235 0.808047 0.000000
0.930378 0.841881 0.000000
0.958796 0.862203 0.000000
0.970125 0.869952 0.000000
0.971815 0.868389 0.000000
0.972216 0.865111 0.000000
0.972655 0.861000 0.028517
0.973159 0.857114 0.108236
0.973740 0.853459 0.204950
0.974233 0.849626 0.300791
0.974638 0.847138 0.374341
0.974917 0.845954 0.420219
0.975472 0.847144 0.466900
0.976231 0.850145 0.513094
0.976991 0.853527 0.550439
0.977662 0.857024 0.574788
0.978514 0.862080 0.601472
0.979154 0.865577 0.623067
0.002319 0.624045 0.000000
0.023816 0.633044 0.000000
0.037023 0.638048 0.000000
0.053022 0.642619 0.000000
0.080297 0.647437 0.000000
0.124466 0.654027 0.000000
0.187420 0.663156 0.000000
0.272139 0.673331 0.000000
0.358373 0.684968 0.000000
0.451428 0.697022 0.000000
0.543792 0.709301 0.000000
0.638039 0.722321 0.000000
0.738069 0.738217 0.000000
0.835870 0.778728 0.000000
0.896060 0.836538 0.000000
0.934034 0.869009 0.000000
0.958365 0.885591 0.000000
0.973254 0.900679 0.000000
0.977811 0.907528 0.051993
0.978848 0.908555 0.144905
0.979600 0.907434 0.230830
0.980320 0.905887 0.327195
0.981111 0.904667 0.432944
0.981935 0.903489 0.523096
0.982730 0.902816 0.594683
0.983280 0.902363 0.639060
0.983335 0.900845 0.654270
0.983302 0.899463 0.664096
0.983381 0.898927 0.673349
0.983486 0.898783 0.679918
0.983357 0.897210 0.684883
0.982651 0.891191 0.680025
0.004276 0.737290 0.000000
0.030784 0.743611 0.000000
0.053489 0.746785 0.000000
0.077363 0.749758 0.000000
0.107924 0.753091 0.000000
0.156419 0.756824 0.000000
0.220867 0.761445 0.000000
0.307691 0.767733 0.000000
0.418431 0.777773 0.000000
0.516659 0.772789 0.000000
0.596954 0.758937 0.000000
0.675154 0.769039 0.000000
0.756167 0.780621 0.000000
0.845481 0.817455 0.000000
0.908025 0.866380 0.000000
0.937935 0.890649 0.000000
0.960038 0.905682 0.000000
0.972698 0.916332 0.024329
0.981008 0.928043 0.194980
0.983292 0.933148 0.339302
0.984383 0.934471 0.447779
0.985285 0.934655 0.531238
0.986085 0.934534 0.596833
0.986841 0.934441 0.653018
0.987561 0.934474 0.701751
0.988131 0.934409 0.738468
0.988364 0.933666 0.757391
0.988194 0.932007 0.758287
0.988040 0.930534 0.757957
0.987748 0.928007 0.755175
0.987058 0.922645 0.748202
0.986126 0.915773 0.737330
0.038421 0.838042 0.000000
0.079226 0.841842 0.000000
0.112173 0.843470 0.000000
0.148161 0.844517 0.000000
0.178912 0.845677 0.000000
0.221373 0.847439 0.000000
0.274324 0.849194 0.000000
0.340932 0.850634 0.000000
0.433765 0.852836 0.000000
0.527794 0.852237 0.000000
0.609690 0.836468 0.000000
0.691222 0.841110 0.000000
0.774117 0.849998 0.000000
0.851324 0.863136 0.000000
0.911550 0.891771 0.000000
0.940787 0.902692 0.000000
0.960976 0.912078 0.000000
0.972489 0.924459 0.050791
0.980442 0.937195 0.268945
0.985739 0.946498 0.487244
0.987475 0.950336 0.574096
0.988411 0.951637 0.634909
0.989191 0.952329 0.684536
0.989847 0.952401 0.725760
0.990417 0.952589 0.760104
0.990869 0.952462 0.787872
0.991175 0.952093 0.808522
0.991146 0.950780 0.813954
0.990729 0.947919 0.808791
0.990233 0.944264 0.800891
0.989564 0.939432 0.791900
0.988773 0.933969 0.782016
0.207554 0.898807 0.000000
0.257197 0.900747 0.000000
0.285820 0.901455 0.000000
0.314307 0.901780 0.000000
0.341845 0.902003 0.000000
0.374488 0.902569 0.000000
0.410971 0.903117 0.000000
0.450194 0.903697 0.000000
0.502552 0.903742 0.000000
0.565959 0.902421 0.000000
0.632730 0.901008 0.000000
0.701640 0.900269 0.000000
0.773493 0.901387 0.000000
0.844602 0.903067 0.000000
0.905282 0.904985 0.000000
0.941746 0.908172 0.000000
0.961200 0.911415 0.000000
0.972058 0.924427 0.057699
0.979783 0.940350 0.299484
0.985168 0.951887 0.529567
0.988908 0.958507 0.638144
0.990231 0.961306 0.690133
0.990994 0.962435 0.731784
0.991642 0.963002 0.766237
0.992105 0.963109 0.793399
0.992444 0.962853 0.814287
0.992629 0.962206 0.829477
0.992655 0.960816 0.838152
0.992373 0.958269 0.839301
0.991903 0.955006 0.832955
0.991338 0.950805 0.824416
0.990678 0.946329 0.815655
0.431609 0.916392 0.000000
0.465150 0.916535 0.000000
0.482514 0.916516 0.000000
0.498988 0.916439 0.000000
0.516674 0.916337 0.000000
0.537630 0.916201 0.000000
0.558214 0.916161 0.000000
0.582594 0.915965 0.000000
0.610569 0.915833 0.000000
0.647584 0.915286 0.000000
0.693573 0.914489 0.000000
0.743488 0.913496 0.000000
0.794588 0.912428 0.000000
0.848740 0.911093 0.000000
0.903560 0.909617 0.000000
0.941535 0.908534 0.000000
0.960633 0.911273 0.000000
0.971737 0.924137 0.058539
0.979379 0.941350 0.315600
0.984516 0.954112 0.551452
0.988237 0.962175 0.662275
0.991094 0.966248 0.726344
0.991996 0.967577 0.758815
0.992507 0.968194 0.786174
0.992939 0.968361 0.808810
0.993206 0.968136 0.826294
0.993345 0.967488 0.838761
0.993405 0.966475 0.846923
0.993287 0.964701 0.851618
0.993056 0.962576 0.852495
0.992707 0.959504 0.849402
0.992173 0.955896 0.841808
0.616229 0.923531 0.000000
0.635220 0.922611 0.000000
0.644813 0.922233 0.000000
0.654561 0.921789 0.000000
0.664156 0.921263 0.000000
0.675138 0.920657 0.000000
0.687948 0.920015 0.000000
0.702795 0.919247 0.000000
0.718660 0.918451 0.000000
0.736385 0.917563 0.000000
0.761057 0.915598 0.000000
0.791914 0.913097 0.000000
0.826983 0.911599 0.000000
0.866986 0.910611 0.000000
0.908522 0.909482 0.000000
0.940640 0.908561 0.000000
0.959735 0.912444 0.000000
0.971380 0.925431 0.078626
0.979095 0.942345 0.336177
0.984197 0.955772 0.572505
0.987751 0.964442 0.678685
0.990516 0.968649 0.743821
0.992224 0.970969 0.784503
0.993138 0.971594 0.804365
0.993517 0.971777 0.821901
0.993733 0.971572 0.835560
0.993861 0.971076 0.846214
0.993931 0.970193 0.853846
0.993876 0.968976 0.858592
0.993756 0.967276 0.861273
0.993527 0.965247 0.861703
0.993244 0.962956 0.859520
0.741830 0.933346 0.076369
0.752615 0.932406 0.060740
0.757921 0.931894 0.051217
0.762394 0.931414 0.041911
0.767739 0.930968 0.033740
0.773876 0.930329 0.022673
0.781048 0.929749 0.012739
0.789264 0.929007 0.003135
0.798793 0.928251 0.000000
0.809126 0.927479 0.000000
0.822031 0.925819 0.000000
0.840777 0.922481 0.000000
0.863651 0.918849 0.000000
0.889265 0.915253 0.000000
0.916187 0.911931 0.000000
0.941432 0.911433 0.000000
0.959494 0.917068 0.000000
0.970976 0.929331 0.126453
0.978941 0.944389 0.381550
0.984197 0.957234 0.591342
0.987811 0.966105 0.695824
0.990164 0.970683 0.755393
0.991715 0.972783 0.797793
0.992814 0.974300 0.823991
0.993496 0.974501 0.835913
0.993914 0.974321 0.846095
0.994136 0.973860 0.854630
0.994248 0.973088 0.860940
0.994297 0.972064 0.865544
0.994112 0.970756 0.868295
0.993799 0.969220 0.869596
0.993356 0.967395 0.869376
0.821494 0.943362 0.324432
0.827542 0.942628 0.310142
0.831393 0.942157 0.302227
0.834150 0.941823 0.294970
0.837832 0.941467 0.288299
0.841195 0.941085 0.279927
0.845341 0.940583 0.268841
0.850751 0.939968 0.256196
0.856364 0.939375 0.246154
0.862282 0.938704 0.236573
0.869146 0.937664 0.217238
0.879038 0.935253 0.170141
0.892498 0.931899 0.097012
0.909435 0.927921 0.025318
0.927995 0.924236 0.000000
0.946210 0.922673 0.000000
0.960772 0.926490 0.039115
0.971283 0.936019 0.220068
0.978882 0.948035 0.453663
0.984172 0.959157 0.615666
0.987912 0.967547 0.711182
0.990223 0.972854 0.769235
0.991386 0.974571 0.806591
0.992425 0.975732 0.834124
0.993341 0.976493 0.850182
0.993775 0.976425 0.857100
0.993991 0.976060 0.863426
0.994116 0.975526 0.868672
0.994136 0.974678 0.872858
0.993977 0.973547 0.875172
0.993828 0.972211 0.876625
0.993434 0.970862 0.876862
0.868909 0.952118 0.496822
0.872836 0.951622 0.489913
0.874886 0.951305 0.486283
0.876832 0.951055 0.482581
0.878665 0.950748 0.478333
0.880921 0.950440 0.474819
0.883646 0.950086 0.468927
0.886564 0.949734 0.463179
0.889936 0.949322 0.457036
0.893840 0.948842 0.451343
0.898464 0.948286 0.443588
0.905214 0.946771 0.418031
0.914684 0.943953 0.367873
0.926660 0.940617 0.301962
0.939893 0.937564 0.242968
0.952449 0.936043 0.218215
0.963247 0.937832 0.262414
