LUTS/Dam_Filmstock_FJ_D60.cube
#Created by: Damian Krzywonos for Cities Skylines 2 Lumina mod
#LogC or linear to sRGB not completely sure
TITLE "Dam_Filmstock_FJ_D60"
LUT_3D_SIZE 5
DOMAIN_MIN 0.000000 0.000000 0.000000
DOMAIN_MAX 0.903226 0.903226 0.903226
0.000000 0.000000 0.000000
0.000172 0.000000 0.000000
0.027327 0.000000 0.000000
0.330585 0.000000 0.000000
0.577628 0.000000 0.000000
0.000000 0.001276 0.000000
0.013547 0.005324 0.000000
0.154475 0.000000 0.000000
0.650311 0.000000 0.000000
0.886524 0.012604 0.000000
0.000000 0.109168 0.000000
0.094397 0.184322 0.000000
0.652082 0.320478 0.000000
0.923963 0.307076 0.000000
0.931982 0.519106 0.105150
0.041133 0.819289 0.000000
0.290415 0.775194 0.000000
0.794971 0.769729 0.000000
0.958393 0.941947 0.779523
0.973532 0.941146 0.893737
0.808529 0.965526 0.768586
0.828845 0.967880 0.757726
0.891114 0.966306 0.679221
0.964509 0.973630 0.887389
0.975957 0.976124 0.942641
0.000000 0.000000 0.001617
0.001104 0.000000 0.002537
0.083250 0.000000 0.000000
0.644957 0.000000 0.000000
0.819698 0.000000 0.000000
0.000000 0.018508 0.006634
0.038378 0.026247 0.011168
0.464092 0.007555 0.000000
0.911241 0.070932 0.000000
0.921526 0.220647 0.024682
0.000000 0.312531 0.000000
0.000000 0.184294 0.000000
0.697045 0.565000 0.000538
0.943735 0.559390 0.081244
0.966829 0.748106 0.573841
0.125816 0.935498 0.172599
0.282791 0.925765 0.009390
0.758154 0.904557 0.000000
0.964460 0.954835 0.844758
0.982484 0.958590 0.920939
0.856295 0.976687 0.854617
0.866663 0.978066 0.841563
0.899464 0.975044 0.772712
0.969654 0.978307 0.891819
0.982282 0.982193 0.953145
0.000000 0.050393 0.425655
0.031790 0.039076 0.472237
0.152581 0.001238 0.216183
0.770851 0.000000 0.235103
0.906959 0.000000 0.242726
0.000000 0.154328 0.471485
0.043268 0.170844 0.503233
0.427824 0.037585 0.474000
0.922904 0.185139 0.462221
0.939277 0.439927 0.463770
0.021129 0.745412 0.715999
0.052325 0.704594 0.673415
0.554542 0.544144 0.539186
0.977709 0.821993 0.805649
0.981703 0.857035 0.831652
0.689947 0.975765 0.851322
0.746903 0.966094 0.822111
0.727655 0.949688 0.597658
0.966446 0.963253 0.894042
0.987840 0.971392 0.943058
0.923231 0.985005 0.929653
0.923481 0.986340 0.923173
0.922534 0.984941 0.887286
0.972039 0.982822 0.891342
0.988717 0.988147 0.967087
0.260515 0.508185 0.891032
0.372769 0.518173 0.903174
0.523537 0.449911 0.913592
0.806597 0.084822 0.834677
0.925366 0.108884 0.736450
0.261173 0.595191 0.898468
0.408775 0.615478 0.907092
0.603237 0.566570 0.918144
0.874875 0.307532 0.872734
0.951949 0.524807 0.844865
0.195570 0.838459 0.930968
0.402987 0.844823 0.926092
0.714718 0.828643 0.908359
0.917831 0.773223 0.904362
0.984521 0.868772 0.917604
0.958329 0.988333 0.975360
0.966403 0.989292 0.977270
0.960016 0.985491 0.971308
0.900427 0.911413 0.886387
0.991805 0.976724 0.962952
0.982997 0.994118 0.983203
0.986242 0.994958 0.985035
0.985248 0.993963 0.982159
0.968250 0.987651 0.953735
0.990618 0.990323 0.976305
0.654382 0.780883 0.919669
0.699700 0.794333 0.926603
0.747172 0.793080 0.935501
0.836058 0.741420 0.936397
0.889388 0.516525 0.878604
0.680933 0.820005 0.928594
0.725860 0.834709 0.933953
0.787605 0.836679 0.941706
0.866362 0.790150 0.942198
0.924926 0.653619 0.906246
0.748049 0.906878 0.946153
0.785130 0.912936 0.948851
0.856099 0.919871 0.953297
0.922943 0.915227 0.957241
0.962275 0.885622 0.946581
0.911075 0.983271 0.975710
0.926199 0.985340 0.977777
0.940396 0.982815 0.976322
0.956133 0.970262 0.965762
0.979524 0.970740 0.968535
0.989185 0.993812 0.986224
0.995752 0.996431 0.990449
0.998629 0.997515 0.992401
0.993637 0.995043 0.988372
0.966500 0.970600 0.953723
