LUTS/Dam_Filmstock_KD_D55.cube
#Created by: Damian Krzywonos for Cities Skylines 2 Lumina mod
#LogC or linear to sRGB not completely sure
TITLE "Dam_Filmstock_KD_D55"
LUT_3D_SIZE 5
DOMAIN_MIN 0.000000 0.000000 0.000000
DOMAIN_MAX 0.903226 0.903226 0.903226
0.000000 0.000000 0.000000
0.004639 0.000000 0.000000
0.117676 0.000000 0.000000
0.573227 0.000000 0.000000
0.661178 0.000000 0.000000
0.000000 0.001855 0.000000
0.029856 0.006190 0.000000
0.271870 0.000000 0.000000
0.852557 0.000000 0.000000
0.905710 0.010904 0.000000
0.000000 0.151225 0.000000
0.196325 0.254976 0.000000
0.802121 0.414812 0.000000
0.926597 0.350278 0.000000
0.942805 0.547424 0.000000
0.038421 0.838042 0.000000
0.340932 0.850634 0.000000
0.911550 0.891771 0.000000
0.988411 0.951637 0.634909
0.990729 0.947919 0.808791
0.897517 0.958960 0.595781
0.910821 0.957429 0.580463
0.949168 0.948965 0.469295
0.990007 0.975540 0.791798
0.994150 0.978567 0.887464
0.000000 0.000172 0.003300
0.002580 0.000000 0.002259
0.199462 0.000000 0.000000
0.732741 0.000000 0.000000
0.875134 0.000000 0.000000
0.000000 0.016923 0.006015
0.039013 0.024900 0.007939
0.469728 0.007441 0.000000
0.911942 0.072560 0.000000
0.921696 0.239424 0.000000
0.000000 0.296764 0.000000
0.000000 0.249383 0.000000
0.773813 0.574685 0.000000
0.946371 0.591572 0.000000
0.967838 0.778919 0.404154
0.270690 0.924158 0.000000
0.429117 0.917159 0.000000
0.838049 0.907500 0.000000
0.990968 0.962443 0.728345
0.993212 0.963931 0.852273
0.929375 0.969823 0.723904
0.934762 0.967826 0.704227
0.953599 0.958958 0.608798
0.991793 0.976309 0.799093
0.996078 0.983118 0.905825
0.002054 0.048274 0.320635
0.040117 0.040460 0.370578
0.208886 0.000382 0.225309
0.838219 0.000000 0.163020
0.906088 0.000000 0.153223
0.000000 0.129288 0.354286
0.064275 0.154763 0.398323
0.445750 0.037894 0.388597
0.923556 0.199783 0.348242
0.940848 0.482636 0.318467
0.052977 0.734761 0.571156
0.122205 0.697290 0.528126
0.643127 0.544373 0.385661
0.978157 0.844959 0.696240
0.981798 0.875212 0.730357
0.821227 0.969861 0.706124
0.859478 0.963772 0.668913
0.840050 0.943248 0.327569
0.992093 0.968187 0.805019
0.995076 0.974602 0.889844
0.966106 0.983145 0.856513
0.966103 0.981892 0.845369
0.966157 0.975257 0.783944
0.992571 0.976191 0.797948
0.997324 0.988214 0.930717
0.369872 0.502305 0.785407
0.484188 0.513949 0.797557
0.626590 0.445620 0.810597
0.891011 0.065164 0.739773
0.924546 0.129644 0.647619
0.396136 0.588895 0.789968
0.537123 0.611406 0.798746
0.723923 0.565078 0.814108
0.936879 0.316428 0.777999
0.953240 0.563871 0.750752
0.421720 0.825957 0.825564
0.590399 0.833603 0.821016
0.838038 0.826430 0.804819
0.974219 0.789164 0.815524
0.984338 0.879648 0.849691
0.982660 0.986803 0.941280
0.986204 0.987939 0.945755
0.983734 0.984610 0.934230
0.960459 0.915672 0.788329
0.996176 0.978675 0.924066
0.994087 0.992986 0.959492
0.995601 0.993856 0.963797
0.995309 0.992972 0.957677
0.988839 0.987516 0.904607
0.997827 0.989902 0.947109
0.786366 0.776986 0.817567
0.826185 0.792574 0.828256
0.865543 0.792744 0.843229
0.928034 0.750421 0.850192
0.951548 0.536193 0.780152
0.812339 0.817272 0.830431
0.850397 0.832906 0.840739
0.891960 0.837331 0.858536
0.947626 0.799155 0.864273
0.964445 0.680220 0.817293
0.864492 0.900786 0.864930
0.886825 0.908187 0.872585
0.932839 0.918051 0.886917
0.972864 0.916448 0.901654
0.986264 0.891115 0.889293
0.957652 0.980498 0.934534
0.966058 0.982668 0.940572
0.973405 0.980978 0.939867
0.983306 0.970616 0.923625
0.995386 0.971890 0.930521
0.996983 0.992675 0.966574
0.999010 0.995254 0.976574
0.999185 0.996323 0.980590
0.998722 0.994022 0.971829
0.988911 0.972012 0.904257
