LUTS/Dam_Filmstock_FJ_D60.cube
#Created by: Damian Krzywonos for Cities Skylines 2 Lumina mod
#LogC or linear to sRGB not completely sure
TITLE "Dam_Filmstock_FJ_D60"
LUT_3D_SIZE 32
DOMAIN_MIN 0.0 0.0 0.0
DOMAIN_MAX 1.0 1.0 1.0
0.000000 0.000000 0.000000
0.000000 0.000000 0.000000
0.000000 0.000000 0.000000
0.000000 0.000000 0.000000
0.000000 0.000000 0.000000
0.000000 0.000000 0.000000
0.000000 0.000000 0.000000
0.000172 0.000000 0.000000
0.000956 0.000000 0.000000
0.002171 0.000000 0.000000
0.004764 0.000000 0.000000
0.008700 0.000000 0.000000
0.014171 0.000000 0.000000
0.020286 0.000000 0.000000
0.027327 0.000000 0.000000
0.035099 0.000000 0.000000
0.044872 0.000000 0.000000
0.057066 0.000000 0.000000
0.071680 0.000000 0.000000
0.092428 0.000000 0.000000
0.209463 0.000000 0.000000
0.330585 0.000000 0.000000
0.403155 0.000000 0.000000
0.446105 0.000000 0.000000
0.571241 0.000000 0.000000
0.616125 0.000000 0.000000
0.616424 0.000000 0.000000
0.603523 0.000000 0.000000
0.577628 0.000000 0.000000
0.540964 0.000000 0.000000
0.496528 0.000000 0.000000
0.443046 0.000000 0.000000
0.000000 0.000000 0.000000
0.000000 0.000000 0.000000
0.000000 0.000000 0.000000
0.000000 0.000000 0.000000
0.000000 0.000000 0.000000
0.000000 0.000000 0.000000
0.000016 0.000000 0.000000
0.000349 0.000000 0.000000
0.001904 0.000000 0.000000
0.003714 0.000000 0.000000
0.006797 0.000000 0.000000
0.012021 0.000000 0.000000
0.018304 0.000000 0.000000
0.025196 0.000000 0.000000
0.033036 0.000000 0.000000
0.041982 0.000000 0.000000
0.053539 0.000000 0.000000
0.070779 0.000000 0.000000
0.160474 0.000000 0.000000
0.278533 0.000000 0.000000
0.368301 0.000000 0.000000
0.445072 0.000000 0.000000
0.593273 0.000000 0.000000
0.670479 0.000000 0.000000
0.698714 0.000000 0.000000
0.713804 0.000000 0.000000
0.717679 0.000000 0.000000
0.708469 0.000000 0.000000
0.689291 0.000000 0.000000
0.661122 0.000000 0.000000
0.625958 0.000000 0.000000
0.582076 0.000000 0.000000
0.000000 0.000000 0.000000
0.000000 0.000000 0.000000
0.000000 0.000000 0.000000
0.000000 0.000000 0.000000
0.000000 0.000000 0.000000
0.000000 0.000000 0.000000
0.000148 0.000000 0.000000
0.000932 0.000000 0.000000
0.001904 0.000000 0.000000
0.003914 0.000000 0.000000
0.007525 0.000000 0.000000
0.012755 0.000000 0.000000
0.019303 0.000000 0.000000
0.026664 0.000000 0.000000
0.034870 0.000000 0.000000
0.044662 0.000000 0.000000
0.064277 0.000000 0.000000
0.138218 0.000000 0.000000
0.241251 0.000000 0.000000
0.329367 0.000000 0.000000
0.411290 0.000000 0.000000
0.557780 0.000000 0.000000
0.663445 0.000000 0.000000
0.708896 0.000000 0.000000
0.736938 0.000000 0.000000
0.752526 0.000000 0.000000
0.756663 0.000000 0.000000
0.750387 0.000000 0.000000
0.734643 0.000000 0.000000
0.708845 0.000000 0.000000
0.675962 0.000000 0.000000
0.634879 0.000000 0.000000
0.000000 0.000000 0.000000
0.000000 0.000000 0.000000
0.000000 0.000000 0.000000
0.000000 0.000000 0.000000
0.000042 0.000000 0.000000
0.000029 0.000000 0.000000
0.000148 0.000000 0.000000
0.000980 0.000000 0.000000
0.001977 0.000000 0.000000
0.003987 0.000000 0.000000
0.007545 0.000000 0.000000
0.012755 0.000000 0.000000
0.019303 0.000000 0.000000
0.026664 0.000000 0.000000
0.035228 0.000000 0.000000
0.046089 0.000000 0.000000
0.099775 0.000000 0.000000
0.184981 0.000000 0.000000
0.269594 0.000000 0.000000
0.359585 0.000000 0.000000
0.441605 0.000000 0.000000
0.585507 0.000000 0.000000
0.693954 0.000000 0.000000
0.736993 0.000000 0.000000
0.765839 0.000000 0.000000
0.782605 0.000000 0.000000
0.787796 0.000000 0.000000
0.782710 0.000000 0.000000
0.767421 0.000000 0.000000
0.744219 0.000000 0.000000
0.714374 0.000000 0.000000
0.678352 0.000000 0.000000
0.000000 0.000000 0.000000
0.000000 0.000000 0.000000
0.000000 0.000000 0.000000
0.000000 0.000042 0.000000
0.000098 0.000044 0.000000
0.000754 0.000000 0.000000
0.000463 0.000000 0.000000
0.001306 0.000000 0.000000
0.002762 0.000000 0.000000
0.004763 0.000000 0.000000
0.008209 0.000000 0.000000
0.012878 0.000000 0.000000
0.019326 0.000000 0.000000
0.026664 0.000000 0.000000
0.035512 0.000000 0.000000
0.046853 0.000000 0.000000
0.102434 0.000000 0.000000
0.197458 0.000000 0.000000
0.291489 0.000000 0.000000
0.385742 0.000000 0.000000
0.467997 0.000000 0.000000
0.543537 0.000000 0.000000
0.686755 0.000000 0.000000
0.761972 0.000000 0.000000
0.790920 0.000000 0.000000
0.808418 0.000000 0.000000
0.815173 0.000000 0.000000
0.812355 0.000000 0.000000
0.800086 0.000000 0.000000
0.778883 0.000000 0.000000
0.752428 0.000000 0.000000
0.717252 0.000000 0.000000
0.000000 0.000000 0.000000
0.000000 0.000123 0.000000
0.000000 0.000123 0.000000
0.000000 0.000196 0.000000
0.000098 0.000843 0.000000
0.000954 0.000244 0.000000
0.002221 0.000171 0.000000
0.004753 0.000045 0.000000
0.005578 0.000000 0.000000
0.008204 0.000000 0.000000
0.010408 0.000000 0.000000
0.014464 0.000000 0.000000
0.020322 0.000000 0.000000
0.027274 0.000000 0.000000
0.036123 0.000000 0.000000
0.047953 0.000000 0.000000
0.107440 0.000000 0.000000
0.209298 0.000000 0.000000
0.316348 0.000000 0.000000
0.413320 0.000000 0.000000
0.494599 0.000000 0.000000
0.557743 0.000000 0.000000
0.705956 0.000000 0.000000
0.785110 0.000000 0.000000
0.815302 0.000000 0.000000
0.834896 0.000000 0.000000
0.843023 0.000000 0.000000
0.841478 0.000000 0.000000
0.831946 0.000000 0.000000
0.813279 0.000000 0.000000
0.786172 0.000000 0.000000
0.751099 0.000977 0.000000
0.000000 0.000148 0.000000
0.000000 0.000908 0.000000
0.000000 0.000939 0.000000
0.000000 0.001129 0.000000
0.000038 0.001865 0.000000
0.001007 0.002025 0.000000
0.003499 0.001952 0.000000
0.008694 0.001086 0.000000
0.016813 0.000251 0.000000
0.025184 0.000048 0.000000
0.030356 0.000000 0.000000
0.028383 0.000000 0.000000
0.035455 0.000000 0.000000
0.046274 0.000000 0.000000
0.059925 0.000000 0.000000
0.079594 0.000000 0.000000
0.153334 0.000000 0.000000
0.269893 0.000000 0.000000
0.366958 0.000000 0.000000
0.457620 0.000000 0.000000
0.532255 0.000000 0.000000
0.589531 0.000000 0.000000
0.735773 0.000000 0.000000
0.813218 0.000000 0.000000
0.843740 0.000000 0.000000
0.864205 0.000000 0.000000
0.872545 0.000000 0.000000
0.871869 0.000000 0.000000
0.861970 0.000288 0.000000
0.842252 0.002908 0.000000
0.814858 0.005268 0.000000
0.776465 0.013683 0.000000
0.000000 0.001276 0.000000
0.000000 0.001872 0.000000
0.000000 0.002073 0.000000
0.000000 0.002908 0.000000
0.000000 0.003879 0.000000
0.000412 0.004916 0.000000
0.004728 0.005959 0.000000
0.013547 0.005324 0.000000
0.025860 0.003546 0.000000
0.041843 0.001741 0.000000
0.058874 0.000673 0.000000
0.077299 0.000147 0.000000
0.098025 0.000000 0.000000
0.123595 0.000000 0.000000
0.154475 0.000000 0.000000
0.199278 0.000000 0.000000
0.272494 0.000000 0.000000
0.369848 0.000000 0.000000
0.458373 0.000000 0.000000
0.534724 0.000000 0.000000
0.597930 0.000000 0.000000
0.650311 0.000000 0.000000
0.789722 0.000000 0.000000
0.859780 0.000000 0.000000
0.879677 0.000000 0.000000
0.893434 0.000000 0.000000
0.898489 0.004630 0.000000
0.896412 0.008127 0.000000
0.886524 0.012604 0.000000
0.866255 0.025393 0.000000
0.834841 0.038850 0.000000
0.779376 0.057602 0.000000
0.000000 0.003816 0.000000
0.000000 0.004231 0.000000
0.000000 0.005040 0.000000
0.000000 0.006110 0.000000
0.000000 0.007882 0.000000
0.000286 0.009857 0.000000
0.004372 0.012625 0.000000
0.018411 0.015078 0.000000
0.036386 0.013977 0.000000
0.058368 0.010867 0.000000
0.084940 0.007654 0.000000
0.116323 0.004768 0.000000
0.150892 0.002132 0.000000
0.190526 0.000879 0.000000
0.232222 0.000133 0.000000
0.275926 0.000000 0.000000
0.333741 0.000000 0.000000
0.405483 0.000000 0.000000
0.487041 0.000000 0.000000
0.566710 0.000000 0.000000
0.635408 0.000000 0.000000
0.696469 0.000000 0.000000
0.834086 0.000000 0.000000
0.895709 0.000363 0.000000
0.904298 0.011819 0.000000
0.906869 0.023145 0.000000
0.908452 0.040506 0.000000
0.909620 0.056706 0.000000
0.902914 0.070802 0.000000
0.879056 0.085833 0.000000
0.832580 0.103055 0.000000
0.775108 0.124021 0.000000
0.000000 0.007817 0.000000
0.000000 0.009609 0.000000
0.000000 0.010883 0.000000
0.000000 0.012755 0.000000
0.000000 0.015406 0.000000
0.000244 0.018301 0.000000
0.004155 0.022515 0.000000
0.020171 0.027128 0.000000
0.048850 0.031131 0.000000
0.078045 0.029886 0.000000
0.113492 0.026055 0.000000
0.157239 0.021717 0.000000
0.206434 0.016349 0.000000
0.249512 0.010582 0.000000
0.294838 0.005569 0.000000
0.347143 0.002057 0.000000
0.407477 0.000296 0.000000
0.468880 0.000000 0.000000
0.530748 0.000000 0.000000
0.594001 0.000000 0.000000
0.651366 0.000000 0.000000
0.703881 0.000000 0.000000
0.844291 0.000000 0.000000
0.902963 0.005606 0.000000
0.908813 0.043962 0.000000
0.912036 0.091565 0.000000
0.913849 0.125224 0.000000
0.915045 0.145742 0.000000
0.903804 0.160698 0.000000
0.870394 0.181242 0.000000
0.836294 0.217194 0.000436
0.805989 0.264797 0.056089
0.000000 0.014808 0.000000
0.000000 0.017698 0.000000
0.000000 0.020759 0.000000
0.000000 0.023439 0.000000
0.000000 0.026931 0.000000
0.000504 0.031184 0.000000
0.005441 0.035952 0.000000
0.023964 0.042592 0.000000
0.056018 0.049301 0.000000
0.105087 0.054596 0.000000
0.150923 0.052496 0.000000
0.201601 0.048043 0.000000
0.251656 0.041813 0.000000
0.304973 0.034343 0.000000
0.360868 0.026093 0.000000
0.417295 0.016910 0.000000
0.476617 0.008483 0.000000
0.533715 0.003011 0.000000
0.586010 0.000390 0.000000
0.633445 0.000000 0.000000
0.679161 0.000000 0.000000
0.724158 0.000000 0.000000
0.854621 0.006654 0.000000
0.906277 0.022177 0.000000
0.910501 0.068469 0.000000
0.913855 0.126240 0.000000
0.916408 0.178360 0.000000
0.918640 0.213672 0.000000
0.898892 0.243944 0.000000
0.865304 0.273333 0.000000
0.867301 0.353108 0.022351
0.889685 0.454514 0.221404
0.000000 0.024761 0.000000
0.000000 0.030073 0.000000
0.000000 0.035210 0.000000
0.000000 0.038691 0.000000
0.000000 0.042992 0.000000
0.001418 0.048083 0.000000
0.010002 0.054249 0.000000
0.032062 0.061906 0.000000
0.067544 0.070280 0.000000
0.124429 0.079040 0.000000
0.197779 0.086075 0.000000
0.250161 0.083177 0.000000
0.303073 0.076362 0.000000
0.362611 0.067475 0.000000
0.424096 0.057224 0.000000
0.484844 0.045360 0.000000
0.543589 0.033435 0.000000
0.597631 0.022388 0.000000
0.644624 0.012719 0.000000
0.682218 0.006890 0.000000
0.715759 0.004347 0.000000
0.750813 0.004269 0.000000
0.863869 0.023099 0.000000
0.909550 0.054500 0.000000
0.912934 0.110301 0.000000
0.916212 0.173164 0.000000
0.918609 0.217432 0.000000
0.921026 0.250481 0.000000
0.902700 0.285706 0.000000
0.875718 0.327550 0.000000
0.889377 0.420007 0.093893
0.909978 0.513346 0.305746
0.000000 0.040493 0.000000
0.000000 0.049709 0.000000
0.000000 0.055593 0.000000
0.000000 0.059886 0.000000
0.000599 0.064985 0.000000
0.004704 0.071073 0.000000
0.019732 0.078601 0.000000
0.045593 0.088197 0.000000
0.086564 0.099019 0.000000
0.147139 0.111724 0.000000
0.229586 0.125173 0.000000
0.302605 0.135009 0.000000
0.363311 0.129912 0.000000
0.422697 0.118333 0.000000
0.485688 0.104597 0.000000
0.550106 0.089843 0.000000
0.609387 0.074517 0.000000
0.659987 0.060015 0.000000
0.702089 0.047567 0.000000
0.734539 0.037135 0.000000
0.760894 0.028823 0.000000
0.818635 0.040806 0.000000
0.878344 0.061001 0.000000
0.912869 0.111910 0.000000
0.916197 0.171362 0.000000
0.919163 0.226873 0.000000
0.921636 0.266228 0.000000
0.924528 0.305703 0.000000
0.907247 0.345986 0.000000
0.896039 0.401722 0.025701
0.909231 0.486570 0.185518
0.924673 0.566986 0.379572
0.000000 0.067960 0.000000
0.000000 0.080433 0.000000
0.000000 0.085644 0.000000
0.000526 0.091083 0.000000
0.004413 0.097476 0.000000
0.015330 0.105534 0.000000
0.036122 0.116228 0.000000
0.067913 0.128911 0.000000
0.116509 0.144505 0.000000
0.181762 0.160703 0.000000
0.258527 0.175929 0.000000
0.343129 0.192044 0.000000
0.425784 0.201902 0.000000
0.485825 0.193770 0.000000
0.547406 0.179363 0.000000
0.612725 0.163488 0.000000
0.712406 0.180327 0.000000
0.770055 0.168852 0.000000
0.804890 0.148233 0.000000
0.827434 0.134996 0.000000
0.842051 0.127675 0.000000
0.884208 0.140413 0.000000
0.916007 0.163513 0.000000
0.917970 0.204465 0.000000
0.920740 0.254661 0.000000
0.923439 0.299598 0.000000
0.926551 0.341963 0.000000
0.930000 0.383808 0.000000
0.915714 0.427147 0.013305
0.918931 0.486421 0.120328
0.927606 0.556392 0.293955
0.936105 0.625224 0.453828
0.000000 0.109168 0.000000
0.000000 0.121769 0.000000
0.000000 0.129619 0.000000
0.000840 0.137635 0.000000
0.010081 0.147935 0.000000
0.027837 0.159696 0.000000
0.054683 0.170915 0.000000
0.094397 0.184322 0.000000
0.150826 0.200160 0.000000
0.226340 0.218985 0.000000
0.297531 0.234201 0.000000
0.383209 0.250842 0.000000
0.471590 0.268398 0.000000
0.551161 0.279979 0.000000
0.652082 0.320478 0.000000
0.722820 0.328276 0.000000
0.795160 0.340999 0.000000
0.883002 0.370752 0.000000
0.911457 0.345014 0.000000
0.922518 0.322157 0.000000
0.924203 0.310310 0.000000
0.923963 0.307076 0.000000
0.924493 0.315210 0.000000
0.925640 0.334720 0.000000
0.927677 0.366105 0.000000
0.930543 0.403737 0.000000
0.934060 0.442520 0.000000
0.936616 0.479814 0.020061
0.931982 0.519106 0.105150
0.937124 0.568460 0.254865
0.940890 0.625047 0.399718
0.944116 0.681633 0.523600
0.000000 0.166679 0.000000
0.000000 0.175556 0.000000
0.000000 0.185117 0.000000
0.000144 0.193741 0.000000
0.006798 0.205391 0.000000
0.026094 0.219475 0.000000
0.056345 0.231511 0.000000
0.099415 0.245570 0.000000
0.165453 0.260168 0.000000
0.244413 0.278498 0.000000
0.329360 0.299191 0.000000
0.420972 0.321012 0.000000
0.548035 0.388168 0.000000
0.650261 0.446066 0.000000
0.731857 0.487636 0.000000
0.829048 0.548017 0.000000
0.865528 0.545504 0.000000
0.898413 0.543057 0.000000
0.922481 0.529417 0.000000
0.936134 0.504687 0.000000
0.935743 0.483528 0.000000
0.934845 0.471318 0.000000
0.934961 0.470413 0.000000
0.936009 0.480210 0.000000
0.937840 0.498011 0.000000
0.940521 0.522651 0.000000
0.943735 0.550376 0.046481
0.944618 0.578974 0.136055
0.947061 0.610812 0.265839
0.948989 0.646590 0.387860
0.949817 0.689468 0.492770
0.950336 0.733312 0.588657
0.000000 0.236560 0.000000
0.000000 0.244927 0.000000
0.000000 0.251794 0.000000
0.000000 0.259877 0.000000
0.001060 0.270084 0.000000
0.015395 0.282997 0.000000
0.044551 0.297981 0.000000
0.087304 0.315115 0.000000
0.153617 0.331857 0.000000
0.241110 0.350905 0.000000
0.337482 0.372717 0.000000
0.441490 0.395083 0.000000
0.587813 0.481106 0.000000
0.739949 0.615140 0.000000
0.797677 0.664756 0.000000
0.847690 0.693252 0.000000
0.878234 0.694980 0.000000
0.901859 0.685636 0.000000
0.921547 0.669935 0.000000
0.936380 0.653815 0.000000
0.944940 0.635759 0.000000
0.947569 0.619180 0.000000
0.947711 0.612185 0.000000
0.948350 0.613172 0.012986
0.949820 0.621430 0.059499
0.951627 0.635275 0.118616
0.951286 0.652806 0.210326
0.953481 0.673364 0.327544
0.955446 0.695548 0.427248
0.956800 0.717383 0.507287
0.956383 0.746969 0.579382
0.955313 0.779637 0.651442
0.000000 0.319019 0.000000
0.000000 0.327760 0.000000
0.000000 0.333433 0.000000
0.000000 0.340439 0.000000
0.000458 0.350326 0.000000
0.009109 0.362291 0.000000
0.038765 0.375910 0.000000
0.083042 0.391362 0.000000
0.149996 0.407453 0.000000
0.238982 0.424591 0.000000
0.334553 0.442467 0.000000
0.444435 0.462088 0.000000
0.561707 0.495509 0.000000
0.730483 0.648330 0.000000
0.806803 0.740503 0.000000
0.857495 0.780749 0.000000
0.889622 0.792636 0.000000
0.906188 0.788912 0.000000
0.918932 0.779825 0.000000
0.931103 0.769556 0.000000
0.940891 0.759832 0.047271
0.948320 0.748885 0.131945
0.951811 0.739135 0.199961
0.953521 0.733393 0.230431
0.954084 0.732309 0.282074
0.956375 0.736703 0.358722
0.957341 0.745690 0.438512
0.959583 0.756997 0.510256
0.961220 0.769501 0.570193
0.961634 0.780985 0.616128
0.961056 0.798017 0.660672
0.959073 0.818949 0.707234
0.000000 0.406749 0.000000
0.000000 0.414618 0.000000
0.000000 0.419400 0.000000
0.000000 0.424024 0.000000
0.001854 0.430927 0.000000
0.015233 0.439584 0.000000
0.047471 0.450485 0.000000
0.096615 0.462797 0.000000
0.167946 0.476371 0.000000
0.252285 0.490190 0.000000
0.342866 0.505017 0.000000
0.445118 0.520177 0.000000
0.551714 0.537520 0.000000
0.696263 0.629456 0.000000
0.818855 0.779484 0.000000
0.861485 0.823315 0.000000
0.894533 0.844359 0.000000
0.914728 0.852734 0.016815
0.924202 0.851568 0.089596
0.931843 0.847420 0.157163
0.939021 0.842211 0.233510
0.944387 0.837572 0.341540
0.948657 0.833043 0.449715
0.951596 0.829166 0.524712
0.954055 0.826776 0.574836
0.957251 0.825429 0.605258
0.960799 0.826587 0.635667
0.963328 0.829775 0.667556
0.965022 0.833571 0.694343
0.965414 0.837674 0.714577
0.965238 0.844264 0.736468
0.961294 0.849068 0.753429
0.000000 0.483502 0.000000
0.000335 0.491162 0.000000
0.007589 0.495114 0.000000
0.014790 0.499014 0.000000
0.025245 0.503498 0.000000
0.046189 0.509386 0.000000
0.082191 0.517496 0.000000
0.136745 0.526482 0.000000
0.208993 0.536677 0.000000
0.285311 0.547662 0.000000
0.370326 0.559607 0.000000
0.458158 0.571661 0.000000
0.553735 0.584743 0.000000
0.666662 0.612443 0.000000
0.809414 0.765056 0.000000
0.867800 0.850328 0.000000
0.896060 0.869232 0.008996
0.918032 0.886397 0.164245
0.931596 0.892938 0.291666
0.938613 0.893907 0.399147
0.944004 0.892645 0.484546
0.948281 0.891286 0.560424
0.951993 0.890094 0.627781
0.955005 0.889465 0.686869
0.958036 0.889528 0.738890
0.961184 0.889508 0.771547
0.964516 0.887806 0.781231
0.966898 0.886453 0.788114
0.968600 0.885539 0.794200
0.969461 0.885193 0.799245
0.968392 0.883627 0.803138
0.962949 0.877806 0.800671
0.038128 0.664201 0.000000
0.067737 0.668300 0.000000
0.089112 0.671540 0.000000
0.115462 0.673914 0.000000
0.145314 0.676764 0.000000
0.170538 0.681183 0.000000
0.196379 0.658206 0.000000
0.213217 0.585129 0.000000
0.276275 0.592470 0.000000
0.343430 0.600396 0.000000
0.415543 0.608996 0.000000
0.489871 0.617708 0.000000
0.569971 0.627563 0.000000
0.664495 0.640574 0.000000
0.787676 0.741552 0.000000
0.874959 0.869573 0.000000
0.899565 0.889243 0.027743
0.918033 0.903140 0.239942
0.934024 0.915032 0.487949
0.944025 0.920306 0.581352
0.949468 0.921987 0.647992
0.953827 0.922617 0.701021
0.957343 0.923045 0.747208
0.960319 0.923613 0.787651
0.963108 0.924231 0.820875
0.965748 0.924990 0.846824
0.968246 0.924547 0.859509
0.970471 0.922883 0.859720
0.972064 0.920864 0.858999
0.971683 0.918010 0.856768
0.969387 0.912541 0.852048
0.964893 0.905382 0.844534
0.041133 0.819289 0.000000
0.081529 0.821432 0.000000
0.108084 0.822659 0.000000
0.140441 0.823069 0.000000
0.183348 0.823994 0.000000
0.218519 0.825177 0.000000
0.258156 0.825049 0.000000
0.290415 0.775194 0.000000
0.363018 0.772891 0.000000
0.444018 0.767552 0.000000
0.525657 0.764817 0.000000
0.572682 0.719654 0.000000
0.606026 0.668778 0.000000
0.683312 0.678268 0.000000
0.794971 0.769729 0.000000
0.882342 0.887134 0.000000
0.903959 0.905753 0.013032
0.919822 0.917371 0.264473
0.933418 0.926347 0.544179
0.945883 0.935662 0.677170
0.953872 0.940008 0.735817
0.958393 0.941947 0.779523
0.961903 0.943069 0.813023
0.964744 0.943994 0.840632
0.967447 0.944751 0.863519
0.969850 0.945337 0.881298
0.971906 0.945608 0.893918
0.973482 0.944197 0.897048
0.973532 0.941146 0.893737
0.972400 0.936686 0.888587
0.969828 0.931579 0.883072
0.966583 0.925376 0.876385
0.125057 0.893241 0.000000
0.171534 0.894724 0.000000
0.195656 0.894848 0.000000
0.222792 0.894880 0.000000
0.253709 0.894738 0.000000
0.287819 0.894872 0.000000
0.326295 0.894962 0.000000
0.367569 0.895479 0.000000
0.421329 0.893681 0.000000
0.490814 0.889411 0.000000
0.563107 0.883566 0.000000
0.634085 0.875534 0.000000
0.677693 0.831878 0.000000
0.750331 0.829740 0.000000
0.823259 0.848478 0.000000
0.885547 0.902104 0.000000
0.907947 0.917291 0.001218
0.922639 0.928949 0.256897
0.934653 0.936163 0.567928
0.945096 0.942863 0.707081
0.954914 0.949610 0.783727
0.960908 0.952935 0.819498
0.964667 0.954816 0.846902
0.967875 0.956088 0.868988
0.970357 0.956712 0.885855
0.972346 0.956959 0.898401
0.973690 0.956622 0.907398
0.974328 0.955230 0.912729
0.973959 0.952842 0.913503
0.972731 0.949170 0.909375
0.970714 0.944869 0.904055
0.967933 0.939917 0.898700
0.299831 0.922321 0.000000
0.338976 0.921874 0.000000
0.357841 0.921494 0.000000
0.374397 0.921124 0.000000
0.395661 0.920404 0.000000
0.418456 0.919851 0.000000
0.444380 0.919090 0.000000
0.471303 0.918549 0.000000
0.498936 0.917967 0.000000
0.540400 0.916139 0.000000
0.592229 0.913487 0.000000
0.648418 0.911807 0.000000
0.708920 0.909491 0.000000
0.773646 0.906784 0.000000
0.838266 0.905553 0.000000
0.883293 0.909451 0.000000
0.908739 0.919534 0.000000
0.924621 0.936584 0.255366
0.936565 0.944795 0.581143
0.945815 0.949417 0.723366
0.954212 0.954384 0.801640
0.961394 0.959223 0.844819
0.965809 0.961275 0.865108
0.968709 0.962610 0.882468
0.971182 0.963263 0.895848
0.972869 0.963405 0.905981
0.973706 0.962883 0.913444
0.974067 0.961759 0.918474
0.973893 0.959996 0.921440
0.973204 0.957750 0.921970
0.971789 0.954637 0.920130
0.969424 0.950740 0.915447
0.474411 0.938155 0.163510
0.495327 0.937218 0.150165
0.507604 0.936508 0.131474
0.517178 0.935961 0.117237
0.530572 0.935277 0.101009
0.544379 0.934362 0.083187
0.559826 0.933522 0.067354
0.577325 0.932610 0.051029
0.594798 0.931688 0.034659
0.616856 0.930516 0.016723
0.649431 0.927545 0.000000
0.689150 0.923675 0.000000
0.733209 0.919287 0.000000
0.782056 0.914544 0.000000
0.836128 0.911450 0.000000
0.880345 0.912735 0.000000
0.907470 0.922961 0.037524
0.925321 0.941337 0.289652
0.938120 0.951609 0.596365
0.947592 0.955541 0.738962
0.954512 0.958877 0.813051
0.960928 0.962694 0.856556
0.966476 0.966023 0.881989
0.969553 0.967138 0.893911
0.971602 0.967732 0.903811
0.972883 0.967754 0.911920
0.973630 0.967391 0.918297
0.973964 0.966495 0.922906
0.973847 0.965222 0.926080
0.973443 0.963416 0.927660
0.972430 0.961145 0.928016
0.970987 0.958525 0.926780
0.609328 0.951612 0.429626
0.622079 0.950735 0.417129
0.629797 0.950156 0.406624
0.636281 0.949672 0.396864
0.643938 0.949155 0.387937
0.652420 0.948482 0.377257
0.661285 0.947797 0.365860
0.671322 0.947045 0.353418
0.682326 0.946255 0.340213
0.694483 0.945458 0.327245
0.712126 0.943687 0.297478
0.737574 0.939789 0.236112
0.767965 0.934941 0.142679
0.804728 0.929482 0.043167
0.845382 0.924406 0.000000
0.881530 0.923997 0.000000
0.907711 0.931793 0.136944
0.925807 0.946117 0.389313
0.939106 0.956559 0.624382
0.948849 0.960742 0.753970
0.955967 0.963485 0.824952
0.961238 0.965788 0.864000
0.966339 0.968643 0.890174
0.970404 0.970590 0.905520
0.972181 0.970995 0.912391
0.973243 0.971053 0.918508
0.973888 0.970786 0.923582
0.974106 0.970199 0.927622
0.974064 0.969215 0.930185
0.973695 0.967697 0.931749
0.972974 0.965798 0.932487
0.971968 0.963713 0.932449
0.702123 0.961885 0.602770
0.709627 0.961784 0.594675
0.714171 0.961328 0.590466
0.717971 0.961045 0.586842
0.723130 0.960671 0.583022
0.728506 0.960214 0.577858
0.734547 0.959663 0.572118
0.741209 0.959060 0.565515
0.748966 0.958428 0.558253
0.757646 0.957765 0.550840
0.768568 0.956713 0.537759
0.784448 0.954098 0.502645
0.805742 0.950363 0.447023
0.832103 0.945883 0.372996
0.860407 0.941678 0.302534
0.887373 0.939780 0.282307
0.910012 0.943612 0.353326
0.927178 0.953064 0.515288
0.939956 0.961129 0.666640
0.949901 0.964842 0.771460
0.957235 0.967318 0.835425
0.962548 0.969177 0.873054
0.966684 0.970672 0.895641
0.970397 0.972360 0.911682
0.972801 0.973403 0.921076
0.973717 0.973435 0.925455
0.974115 0.973238 0.929114
0.974411 0.972801 0.932096
0.974478 0.972063 0.934270
0.974119 0.971070 0.935697
0.973635 0.969675 0.936313
0.972813 0.967886 0.936538
0.764756 0.964723 0.705195
0.771449 0.965083 0.700548
0.774861 0.965217 0.698096
0.777678 0.965350 0.695831
0.781361 0.965451 0.692957
0.785360 0.965505 0.690114
0.789183 0.965570 0.686383
0.793621 0.965548 0.682666
0.799342 0.965503 0.679272
0.806118 0.965357 0.674998
0.813198 0.965130 0.668718
0.823019 0.964360 0.651788
0.837282 0.962120 0.621490
0.855430 0.958875 0.584585
0.875951 0.955769 0.547429
0.896531 0.953898 0.525250
0.914177 0.955323 0.548708
