LUTS/Dam_Filmstock_KD_D65.cube
#Created by: Damian Krzywonos for Cities Skylines 2 Lumina mod
#LogC or linear to sRGB not completely sure
TITLE "Dam_Filmstock_KD_D65"
LUT_3D_SIZE 5
DOMAIN_MIN 0.000000 0.000000 0.000000
DOMAIN_MAX 0.903226 0.903226 0.903226
0.000000 0.000000 0.000000
0.002615 0.000000 0.000000
0.082384 0.000000 0.000000
0.480962 0.000000 0.000000
0.593099 0.000000 0.000000
0.000000 0.001104 0.000000
0.017332 0.004573 0.000000
0.215289 0.000000 0.000000
0.777509 0.000000 0.000000
0.896992 0.007147 0.000000
0.000000 0.123096 0.000000
0.102815 0.229771 0.000000
0.722517 0.383218 0.000000
0.924182 0.310039 0.000000
0.941808 0.517886 0.100062
0.009187 0.826683 0.000000
0.114711 0.826695 0.000000
0.838787 0.864899 0.000000
0.971712 0.951591 0.760009
0.983535 0.948101 0.893579
0.828891 0.971470 0.731268
0.847940 0.970692 0.718212
0.907972 0.960880 0.621002
0.972838 0.979366 0.875490
0.981297 0.980176 0.943677
0.000000 0.000000 0.001790
0.001066 0.000000 0.001545
0.136236 0.000000 0.000000
0.668498 0.000000 0.000000
0.822064 0.000000 0.000000
0.000000 0.012282 0.005435
0.022280 0.019982 0.010526
0.398108 0.008155 0.000000
0.911328 0.052298 0.000000
0.920786 0.200000 0.042084
0.000000 0.260488 0.000000
0.000000 0.195175 0.000000
0.682400 0.554781 0.000370
0.945310 0.562678 0.075057
0.968470 0.764421 0.578095
0.030075 0.931012 0.075085
0.110361 0.922829 0.000000
0.734820 0.909400 0.000000
0.975139 0.962639 0.832500
0.988883 0.964007 0.921935
0.875702 0.981933 0.831761
0.884539 0.979927 0.814209
0.915602 0.970754 0.730222
0.976672 0.983524 0.878365
0.985788 0.985654 0.954758
0.000000 0.038636 0.379232
0.011433 0.031690 0.437259
0.157241 0.003498 0.267646
0.780856 0.000000 0.264935
0.906430 0.000000 0.274369
0.000000 0.107536 0.423216
0.013709 0.132927 0.477148
0.355434 0.034904 0.478275
0.923581 0.164823 0.489842
0.940190 0.447463 0.490187
0.017397 0.714983 0.700713
0.014005 0.677646 0.661690
0.523399 0.525558 0.542300
0.979456 0.837750 0.815424
0.983268 0.871050 0.839267
0.690617 0.980910 0.829802
0.759692 0.971248 0.797845
0.730076 0.955105 0.535174
0.975372 0.969227 0.888465
0.991752 0.975579 0.945139
0.935272 0.988857 0.923833
0.935226 0.990239 0.914425
0.934386 0.985187 0.868684
0.977960 0.985023 0.874611
0.990459 0.990905 0.969481
0.178474 0.478893 0.902172
0.311917 0.493036 0.916618
0.500594 0.425728 0.930246
0.824954 0.071371 0.855634
0.925131 0.091932 0.767145
0.177074 0.570368 0.910192
0.361832 0.594681 0.921444
0.604589 0.548100 0.935846
0.911981 0.285891 0.896454
0.953160 0.533595 0.871001
0.118512 0.825214 0.943206
0.354710 0.835113 0.938572
0.741152 0.824700 0.918017
0.950686 0.778890 0.918094
0.985661 0.877596 0.929920
0.963791 0.990912 0.980244
0.970412 0.991808 0.982214
0.965903 0.988307 0.975979
0.925623 0.917241 0.887610
0.994230 0.979974 0.967588
0.984334 0.996203 0.987392
0.986989 0.996977 0.989322
0.986414 0.996048 0.986008
0.973341 0.990894 0.953166
0.991755 0.992720 0.979869
0.671515 0.772181 0.933484
0.727615 0.788290 0.939440
0.780344 0.787776 0.949155
0.875639 0.739672 0.952440
0.929311 0.507616 0.899981
0.707628 0.813873 0.940358
0.756768 0.830576 0.945365
0.822773 0.834674 0.953874
0.904219 0.791131 0.956890
0.962007 0.656049 0.925444
0.776628 0.906063 0.954234
0.817062 0.912935 0.956537
0.884904 0.921752 0.961470
0.944451 0.918526 0.967168
0.979686 0.891091 0.958372
0.923760 0.985582 0.981321
0.936063 0.987700 0.983684
0.949084 0.985327 0.982467
0.964911 0.973358 0.972227
0.984474 0.973842 0.975122
0.989641 0.995719 0.991508
0.994706 0.997958 0.996107
0.997261 0.998985 0.998135
0.993203 0.996693 0.993825
0.973757 0.974186 0.958364
