LUTS/Dam_Filmstock_FJ_D60.cube
#Created by: Damian Krzywonos for Cities Skylines 2 Lumina mod
#LogC or linear to sRGB not completely sure
TITLE "Dam_Filmstock_FJ_D60"
LUT_3D_SIZE 8
DOMAIN_MIN 0.000000 0.000000 0.000000
DOMAIN_MAX 0.903226 0.903226 0.903226
0.000000 0.000000 0.000000
0.000000 0.000000 0.000000
0.000956 0.000000 0.000000
0.014171 0.000000 0.000000
0.044872 0.000000 0.000000
0.209463 0.000000 0.000000
0.571241 0.000000 0.000000
0.577628 0.000000 0.000000
0.000000 0.000000 0.000000
0.000098 0.000044 0.000000
0.002762 0.000000 0.000000
0.019326 0.000000 0.000000
0.102434 0.000000 0.000000
0.467997 0.000000 0.000000
0.790920 0.000000 0.000000
0.800086 0.000000 0.000000
0.000000 0.003816 0.000000
0.000000 0.007882 0.000000
0.036386 0.013977 0.000000
0.150892 0.002132 0.000000
0.333741 0.000000 0.000000
0.635408 0.000000 0.000000
0.904298 0.011819 0.000000
0.902914 0.070802 0.000000
0.000000 0.040493 0.000000
0.000599 0.064985 0.000000
0.086564 0.099019 0.000000
0.363311 0.129912 0.000000
0.609387 0.074517 0.000000
0.760894 0.028823 0.000000
0.916197 0.171362 0.000000
0.907247 0.345986 0.000000
0.000000 0.236560 0.000000
0.001060 0.270084 0.000000
0.153617 0.331857 0.000000
0.587813 0.481106 0.000000
0.878234 0.694980 0.000000
0.944940 0.635759 0.000000
0.949820 0.621430 0.059499
0.955446 0.695548 0.427248
0.038128 0.664201 0.000000
0.145314 0.676764 0.000000
0.276275 0.592470 0.000000
0.569971 0.627563 0.000000
0.899565 0.889243 0.027743
0.949468 0.921987 0.647992
0.963108 0.924231 0.820875
0.972064 0.920864 0.858999
0.474411 0.938155 0.163510
0.530572 0.935277 0.101009
0.594798 0.931688 0.034659
0.733209 0.919287 0.000000
0.907470 0.922961 0.037524
0.954512 0.958877 0.813051
0.971602 0.967732 0.903811
0.973847 0.965222 0.926080
0.808529 0.965526 0.768586
0.819641 0.967011 0.763550
0.832751 0.968084 0.755831
0.861717 0.968213 0.724237
0.919672 0.965306 0.673436
0.959045 0.972390 0.858247
0.972936 0.975961 0.929630
0.975957 0.976124 0.942641
0.000000 0.000000 0.000000
0.000000 0.000000 0.000000
0.001742 0.000000 0.000000
0.018550 0.000000 0.000000
0.055434 0.000000 0.000000
0.474681 0.000000 0.000000
0.724703 0.000000 0.000000
0.733939 0.000000 0.000000
0.000000 0.000098 0.000000
0.001087 0.000213 0.000000
0.023715 0.000000 0.000000
0.126427 0.000000 0.000000
0.457955 0.000000 0.000000
0.767318 0.000000 0.000000
0.894840 0.000000 0.000000
0.899784 0.000000 0.000000
0.000000 0.007623 0.000000
0.000000 0.008536 0.000000
0.052090 0.021745 0.000000
0.196621 0.004935 0.000000
0.472110 0.000432 0.000000
0.897450 0.033992 0.000000
0.918304 0.189146 0.000000
0.920820 0.228013 0.000523
0.000000 0.041822 0.000000
0.000000 0.054605 0.000000
0.032105 0.082655 0.000000
0.476074 0.249529 0.000000
0.767206 0.208476 0.000000
0.915078 0.206270 0.000000
0.928797 0.368406 0.000000
0.941563 0.509344 0.141839
0.000000 0.282116 0.000000
0.000000 0.286602 0.000000
0.012721 0.315620 0.000000
0.467635 0.469687 0.000000
0.858875 0.764453 0.037895
0.934544 0.730665 0.286572
0.960038 0.707533 0.317822
0.968834 0.768768 0.574752
0.014143 0.864884 0.000000
0.015150 0.868149 0.000000
0.136261 0.868454 0.000000
0.535067 0.849036 0.000000
0.889853 0.898489 0.117471
0.954001 0.936085 0.761204
0.971105 0.940931 0.874271
0.980017 0.937996 0.885223
0.589017 0.959167 0.544301
0.618701 0.955972 0.502042
0.654271 0.952371 0.450990
0.717648 0.943288 0.288508
0.898247 0.923774 0.014364
0.957937 0.963541 0.822550
0.975788 0.972834 0.916214
0.980053 0.973342 0.940444
0.845039 0.975022 0.839371
0.851387 0.976211 0.831539
0.857729 0.976388 0.817373
0.873030 0.975498 0.790663
0.920456 0.968713 0.710782
0.962432 0.975564 0.857238
0.976369 0.979312 0.935216
0.980006 0.980057 0.949317
0.000000 0.000000 0.007871
0.000066 0.000000 0.012097
0.003521 0.000000 0.008674
0.043825 0.000000 0.001583
0.167728 0.000000 0.000000
0.651374 0.000000 0.000000
0.820989 0.000000 0.000000
0.845820 0.000000 0.000000
0.000000 0.002457 0.015935
0.000044 0.004458 0.027776
0.028517 0.000025 0.022082
0.229387 0.000000 0.006171
0.581253 0.000000 0.000000
0.865485 0.000000 0.000000
0.900417 0.000000 0.002334
0.905314 0.004119 0.008251
0.000000 0.047278 0.029840
0.000000 0.053028 0.030144
0.073539 0.055339 0.034133
0.575944 0.061004 0.026845
0.638679 0.049354 0.000121
0.894887 0.109324 0.000000
0.924640 0.262867 0.078119
0.933007 0.392845 0.141481
0.000000 0.213874 0.001225
0.000000 0.175733 0.000000
0.002600 0.155032 0.000000
0.471537 0.340452 0.007901
0.764862 0.349199 0.028994
0.914544 0.385191 0.007013
0.939997 0.493878 0.099849
0.957051 0.654907 0.487157
0.000318 0.613957 0.000000
0.000000 0.581975 0.000000
0.000000 0.568786 0.000000
0.386182 0.522301 0.000000
0.864050 0.806436 0.323597
0.940550 0.796221 0.570246
0.968969 0.775541 0.539656
0.977659 0.837751 0.709351
0.033498 0.913813 0.113232
0.070146 0.911681 0.034260
0.182642 0.903469 0.000000
0.477714 0.890539 0.000000
0.885449 0.905658 0.139936
0.956815 0.943903 0.805243
0.975144 0.950013 0.896511
0.983510 0.948246 0.902368
0.667737 0.970065 0.686597
0.683035 0.966792 0.651061
0.700202 0.961857 0.594305
0.742128 0.953455 0.485363
0.894230 0.930341 0.082604
0.959487 0.966576 0.831133
0.977793 0.975396 0.923437
0.982385 0.976277 0.946181
0.862740 0.977567 0.862143
0.868748 0.978559 0.857382
0.873810 0.978972 0.847614
0.884512 0.978236 0.823071
0.923157 0.972482 0.749436
0.964213 0.977564 0.859369
0.978877 0.981652 0.939317
0.983118 0.983030 0.955036
0.000000 0.012437 0.218504
0.000768 0.010383 0.247443
0.022496 0.005542 0.239142
0.053924 0.000000 0.084072
0.184082 0.000000 0.058874
0.714782 0.000000 0.079531
0.899304 0.000000 0.063560
0.900664 0.000000 0.051623
0.000000 0.036417 0.259878
0.000632 0.042357 0.298258
0.051992 0.022544 0.301386
0.199013 0.000301 0.219006
0.533273 0.000000 0.183081
0.887456 0.001441 0.238801
0.911632 0.019012 0.251495
0.917692 0.110201 0.228630
0.000000 0.092457 0.304953
0.000000 0.111848 0.306526
0.048211 0.108096 0.306904
0.297302 0.058313 0.304859
0.707379 0.100106 0.329814
0.918377 0.126205 0.246277
0.929021 0.304280 0.299276
0.942951 0.495842 0.423763
0.000000 0.447086 0.455606
0.000000 0.412114 0.413376
0.004646 0.380451 0.376321
0.356486 0.324486 0.330196
0.920551 0.507113 0.509932
0.960717 0.671622 0.639203
0.961860 0.689869 0.605439
0.965949 0.726553 0.653460
0.021335 0.812956 0.433442
0.018152 0.797505 0.377649
0.017265 0.762143 0.296487
0.109729 0.710557 0.020924
0.841471 0.811744 0.549595
0.960790 0.861384 0.761490
0.981390 0.866708 0.759913
0.985834 0.896378 0.836918
0.489488 0.952838 0.711328
0.491471 0.948785 0.658782
0.449359 0.943794 0.545192
0.520915 0.931086 0.320880
0.856996 0.912192 0.146963
0.957566 0.950265 0.849226
0.980313 0.961478 0.924081
0.986863 0.959195 0.921415
0.793669 0.977447 0.838697
0.787221 0.977867 0.816131
0.789226 0.977472 0.787460
0.797992 0.971279 0.716025
0.881651 0.950040 0.462090
0.960819 0.969953 0.840247
0.980637 0.978948 0.934246
0.985757 0.981003 0.956274
0.897792 0.982112 0.904871
0.900996 0.983183 0.901837
0.903784 0.983963 0.895401
0.905622 0.983248 0.873113
0.926247 0.979582 0.818327
0.965429 0.980423 0.857930
0.982230 0.984273 0.945314
0.986768 0.986395 0.962871
0.008600 0.160142 0.633477
0.044191 0.165132 0.656418
0.094226 0.140346 0.668427
0.237359 0.059512 0.641033
0.398365 0.015420 0.490501
0.463691 0.000000 0.246924
0.905524 0.000000 0.434789
0.914815 0.028870 0.424284
0.004647 0.241564 0.669766
0.059745 0.254860 0.690449
0.150109 0.234252 0.697907
0.299268 0.154374 0.682152
0.528067 0.025032 0.600213
0.834965 0.000226 0.560578
0.927596 0.212262 0.589414
0.933566 0.333846 0.536041
0.000000 0.320056 0.674307
0.028579 0.345967 0.694179
0.140453 0.336847 0.698529
0.347568 0.272032 0.708723
0.627969 0.126532 0.672781
0.907074 0.188148 0.669826
0.940602 0.421630 0.631777
0.946688 0.509709 0.615505
0.004203 0.539712 0.763460
0.003850 0.536629 0.751937
0.020721 0.527332 0.740276
0.377558 0.497101 0.717555
0.717987 0.433815 0.724381
0.952592 0.638296 0.794420
0.970158 0.744582 0.801921
0.972691 0.771652 0.799954
0.502819 0.927857 0.894637
0.544427 0.923126 0.888199
0.558518 0.910327 0.871701
0.541178 0.864936 0.820152
0.715797 0.724391 0.696394
0.965489 0.861117 0.834693
0.988393 0.911048 0.892802
0.989549 0.920237 0.903855
0.747703 0.983418 0.917538
0.756015 0.981745 0.912021
0.761597 0.977657 0.900538
0.775024 0.963130 0.865924
0.759887 0.924286 0.683192
0.943863 0.942477 0.873527
0.981882 0.965468 0.935937
0.989451 0.969000 0.939801
0.898735 0.987926 0.939656
0.908481 0.986845 0.938158
0.914824 0.985395 0.934149
0.901803 0.982954 0.910955
0.888802 0.976210 0.844120
0.954056 0.972315 0.846258
0.982637 0.982008 0.948822
0.989038 0.985149 0.967352
0.951243 0.988105 0.955425
0.953479 0.988432 0.955010
0.951369 0.988749 0.951349
0.945679 0.988566 0.939209
0.941075 0.986549 0.913522
0.961740 0.983744 0.878484
0.984221 0.986686 0.951367
0.990263 0.989560 0.971545
0.189028 0.444744 0.863358
0.262625 0.453839 0.872697
0.326143 0.451411 0.880098
0.417506 0.402900 0.886612
0.565917 0.304614 0.871908
0.758700 0.055587 0.797820
0.891022 0.006694 0.693416
0.924860 0.116272 0.693921
0.204816 0.510780 0.874953
0.298047 0.523591 0.883599
0.365270 0.522184 0.887707
0.470242 0.484989 0.895825
0.624104 0.395514 0.881930
0.809808 0.125413 0.826896
0.924808 0.081226 0.784021
0.943488 0.423638 0.786447
0.176482 0.564700 0.876538
0.293413 0.584471 0.884217
0.375248 0.585164 0.887283
0.503102 0.565503 0.895671
0.679802 0.493002 0.889339
0.857722 0.316021 0.857768
0.940030 0.352853 0.832716
0.957679 0.598249 0.834438
0.106649 0.703010 0.895648
0.245232 0.716460 0.896770
0.362548 0.722812 0.895715
0.551034 0.721569 0.892550
0.745146 0.675284 0.892513
0.895649 0.609851 0.881905
0.964473 0.668779 0.874091
0.977647 0.805529 0.889682
0.259092 0.936320 0.958767
0.321044 0.935394 0.956333
0.429224 0.929246 0.949847
0.587351 0.905717 0.928941
0.774972 0.842772 0.882587
0.897065 0.830820 0.886252
0.970776 0.894545 0.915357
0.989517 0.931466 0.936792
0.936523 0.985143 0.969479
0.943569 0.985542 0.970556
0.947869 0.985573 0.970769
0.945785 0.983398 0.967383
0.895570 0.959555 0.935488
0.878565 0.891427 0.864096
0.979153 0.952937 0.934098
0.993256 0.972954 0.958646
0.970461 0.992046 0.977891
0.972722 0.992439 0.978793
0.973593 0.992603 0.978917
0.970938 0.991961 0.976192
0.953162 0.986309 0.958345
0.922781 0.970206 0.902699
0.975424 0.976559 0.948430
0.989811 0.985763 0.971667
0.978359 0.993547 0.980492
0.980800 0.993964 0.981715
0.982211 0.994193 0.982088
0.982484 0.993533 0.980346
0.976558 0.991331 0.971369
0.966241 0.988073 0.950453
0.981588 0.986893 0.951165
0.991035 0.990588 0.976239
0.463079 0.661136 0.926927
0.511098 0.670821 0.929586
0.545011 0.674741 0.932075
0.589536 0.662994 0.936068
0.690350 0.628307 0.941329
0.799786 0.544389 0.929889
0.882217 0.292531 0.887027
0.918335 0.248329 0.808582
0.491641 0.700204 0.928380
0.539461 0.710005 0.931265
0.571801 0.713808 0.933050
0.625857 0.703165 0.937163
0.724031 0.667353 0.941543
0.823563 0.586780 0.930451
0.907226 0.383840 0.897228
0.944497 0.417851 0.855934
0.493301 0.734158 0.929350
0.547749 0.748126 0.931453
0.582913 0.752424 0.932730
0.652189 0.749357 0.936218
0.757564 0.721033 0.941334
0.849692 0.652613 0.931651
0.927212 0.527509 0.910371
0.957260 0.581511 0.882932
0.527321 0.824812 0.935496
0.584552 0.835063 0.936144
0.623173 0.838203 0.935858
0.707915 0.842086 0.935960
0.813147 0.829634 0.940507
0.879244 0.792398 0.934369
0.941617 0.729300 0.923546
0.972025 0.763452 0.908605
0.615467 0.929871 0.958366
0.648105 0.930311 0.957380
0.691704 0.929490 0.955299
0.771152 0.923440 0.948906
0.859679 0.914891 0.941923
0.910823 0.905470 0.941623
0.954415 0.900388 0.941232
0.977792 0.910721 0.939653
0.895558 0.983992 0.975032
0.905384 0.984612 0.975793
0.913448 0.984908 0.976263
0.917550 0.983487 0.975379
0.907340 0.969680 0.963894
0.918651 0.941414 0.940295
0.956229 0.941435 0.943900
0.982794 0.964678 0.959660
0.982927 0.992534 0.983652
0.986314 0.993567 0.985574
0.988845 0.994270 0.986827
0.990808 0.994769 0.987692
0.987952 0.993316 0.985369
0.965454 0.982867 0.967864
0.941115 0.948166 0.927361
0.985688 0.977621 0.963427
0.990127 0.994911 0.986961
0.992678 0.995778 0.988562
0.994485 0.996322 0.989620
0.995240 0.996573 0.990052
0.992895 0.995892 0.988311
0.982979 0.991925 0.978981
0.966072 0.983209 0.952586
0.985488 0.986266 0.970307
0.654382 0.780883 0.919669
0.683685 0.790590 0.924047
0.704808 0.796078 0.927367
0.726143 0.795601 0.931849
0.773491 0.785940 0.939547
0.824059 0.756328 0.937960
0.868252 0.664089 0.925840
0.889388 0.516525 0.878604
0.677161 0.804003 0.924338
0.704296 0.812915 0.928485
0.722301 0.817828 0.931330
0.745262 0.816335 0.936016
0.795324 0.807760 0.943413
0.842188 0.778718 0.941324
0.882728 0.690580 0.930028
0.911259 0.579650 0.893483
0.688537 0.829383 0.930106
0.716449 0.839040 0.933348
0.737707 0.844426 0.935709
0.771441 0.847780 0.939515
0.822050 0.841928 0.947262
0.863240 0.818904 0.945717
0.899493 0.748587 0.934848
0.930477 0.683795 0.911478
0.724952 0.880788 0.939057
0.754063 0.887484 0.941573
0.774188 0.890222 0.943299
0.812045 0.895531 0.946930
0.860277 0.897368 0.952593
0.898486 0.888179 0.953611
0.925943 0.853977 0.946712
0.951103 0.820095 0.933200
0.776110 0.932945 0.954975
0.790405 0.935430 0.956208
0.810592 0.937261 0.956974
0.849888 0.938484 0.957340
0.895825 0.940219 0.958288
0.931111 0.939046 0.961538
0.952691 0.933463 0.959867
0.970923 0.928321 0.957411
0.873030 0.977910 0.973368
0.883729 0.979194 0.974342
0.897075 0.979693 0.974878
0.914120 0.978045 0.973677
0.930435 0.972793 0.969436
0.949615 0.967137 0.965259
0.965001 0.964089 0.965136
0.978885 0.966791 0.967732
0.970039 0.990457 0.981601
0.976461 0.991826 0.983755
0.981497 0.993012 0.985714
0.985410 0.993808 0.987130
0.984254 0.993079 0.986153
0.971633 0.986995 0.978477
0.963042 0.971977 0.962451
0.976112 0.972763 0.964978
0.989185 0.993812 0.986224
0.993381 0.995449 0.988947
0.996516 0.996721 0.990951
0.998356 0.997438 0.992224
0.998487 0.997431 0.992272
0.995663 0.996039 0.989872
0.981801 0.988702 0.977741
0.966500 0.970600 0.953723
