LUTS/Dam_Filmstock_KD_D65.cube
#Created by: Damian Krzywonos for Cities Skylines 2 Lumina mod
#LogC or linear to sRGB not completely sure
TITLE "Dam_Filmstock_KD_D65"
LUT_3D_SIZE 32
DOMAIN_MIN 0.0 0.0 0.0
DOMAIN_MAX 1.0 1.0 1.0
0.000000 0.000000 0.000000
0.000000 0.000000 0.000000
0.000000 0.000000 0.000000
0.000000 0.000000 0.000000
0.000098 0.000000 0.000000
0.000763 0.000000 0.000000
0.001055 0.000000 0.000000
0.002615 0.000000 0.000000
0.004761 0.000000 0.000000
0.009770 0.000000 0.000000
0.018819 0.000000 0.000000
0.031355 0.000000 0.000000
0.046307 0.000000 0.000000
0.063369 0.000000 0.000000
0.082384 0.000000 0.000000
0.106750 0.000000 0.000000
0.145459 0.000000 0.000000
0.193740 0.000000 0.000000
0.246550 0.000000 0.000000
0.321002 0.000000 0.000000
0.406057 0.000000 0.000000
0.480962 0.000000 0.000000
0.541037 0.000000 0.000000
0.581873 0.000000 0.000000
0.628804 0.000000 0.000000
0.645717 0.000000 0.000000
0.642318 0.000000 0.000000
0.623735 0.000000 0.000000
0.593099 0.000000 0.000000
0.550970 0.000000 0.000000
0.500398 0.000000 0.000000
0.439445 0.000000 0.000000
0.000000 0.000000 0.000000
0.000000 0.000000 0.000000
0.000000 0.000000 0.000000
0.000014 0.000000 0.000000
0.000108 0.000000 0.000000
0.000884 0.000000 0.000000
0.001790 0.000000 0.000000
0.003542 0.000000 0.000000
0.007263 0.000000 0.000000
0.015975 0.000000 0.000000
0.028187 0.000000 0.000000
0.043902 0.000000 0.000000
0.062923 0.000000 0.000000
0.085840 0.000000 0.000000
0.113764 0.000000 0.000000
0.156555 0.000000 0.000000
0.205794 0.000000 0.000000
0.256735 0.000000 0.000000
0.325437 0.000000 0.000000
0.408623 0.000000 0.000000
0.492024 0.000000 0.000000
0.565595 0.000000 0.000000
0.642499 0.000000 0.000000
0.689721 0.000000 0.000000
0.714525 0.000000 0.000000
0.726712 0.000000 0.000000
0.725724 0.000000 0.000000
0.711785 0.000000 0.000000
0.687425 0.000000 0.000000
0.651213 0.000000 0.000000
0.608855 0.000000 0.000000
0.557656 0.000000 0.000000
0.000000 0.000000 0.000000
0.000000 0.000000 0.000000
0.000000 0.000000 0.000000
0.000074 0.000000 0.000000
0.000763 0.000000 0.000000
0.000884 0.000000 0.000000
0.001690 0.000000 0.000000
0.002976 0.000000 0.000000
0.007229 0.000000 0.000000
0.016130 0.000000 0.000000
0.029291 0.000000 0.000000
0.046540 0.000000 0.000000
0.067087 0.000000 0.000000
0.091942 0.000000 0.000000
0.125259 0.000000 0.000000
0.173890 0.000000 0.000000
0.225886 0.000000 0.000000
0.279272 0.000000 0.000000
0.356482 0.000000 0.000000
0.446536 0.000000 0.000000
0.529640 0.000000 0.000000
0.621832 0.000000 0.000000
0.686136 0.000000 0.000000
0.724286 0.000000 0.000000
0.748679 0.000000 0.000000
0.760729 0.000000 0.000000
0.761170 0.000000 0.000000
0.751344 0.000000 0.000000
0.728893 0.000000 0.000000
0.697808 0.000000 0.000000
0.656967 0.000000 0.000000
0.608026 0.000000 0.000000
0.000000 0.000000 0.000000
0.000000 0.000000 0.000000
0.000000 0.000000 0.000000
0.000074 0.000000 0.000000
0.000804 0.000000 0.000000
0.000957 0.000000 0.000000
0.001879 0.000000 0.000000
0.003767 0.000000 0.000000
0.007260 0.000000 0.000000
0.015356 0.000000 0.000000
0.028064 0.000000 0.000000
0.044933 0.000000 0.000000
0.065991 0.000000 0.000000
0.091697 0.000000 0.000000
0.127878 0.000000 0.000000
0.179433 0.000000 0.000000
0.235356 0.000000 0.000000
0.297524 0.000000 0.000000
0.381781 0.000000 0.000000
0.474355 0.000000 0.000000
0.557813 0.000000 0.000000
0.647658 0.000000 0.000000
0.712238 0.000000 0.000000
0.749503 0.000000 0.000000
0.775518 0.000000 0.000000
0.789266 0.000000 0.000000
0.791150 0.000000 0.000000
0.782249 0.000000 0.000000
0.762939 0.000000 0.000000
0.733419 0.000000 0.000000
0.696142 0.000000 0.000000
0.651678 0.000000 0.000000
0.000000 0.000000 0.000000
0.000000 0.000000 0.000000
0.000000 0.000029 0.000000
0.000074 0.000098 0.000000
0.000859 0.000098 0.000000
0.001692 0.000041 0.000000
0.002784 0.000000 0.000000
0.005230 0.000000 0.000000
0.010453 0.000000 0.000000
0.017008 0.000000 0.000000
0.026823 0.000000 0.000000
0.041597 0.000000 0.000000
0.061943 0.000000 0.000000
0.087908 0.000000 0.000000
0.124427 0.000000 0.000000
0.178565 0.000000 0.000000
0.239395 0.000000 0.000000
0.311602 0.000000 0.000000
0.403884 0.000000 0.000000
0.498827 0.000000 0.000000
0.583999 0.000000 0.000000
0.660876 0.000000 0.000000
0.730507 0.000000 0.000000
0.774404 0.000000 0.000000
0.801931 0.000000 0.000000
0.816847 0.000000 0.000000
0.820736 0.000000 0.000000
0.814313 0.000000 0.000000
0.797282 0.000000 0.000000
0.770922 0.000000 0.000000
0.737164 0.000000 0.000000
0.692598 0.000000 0.000000
0.000000 0.000000 0.000000
0.000000 0.000123 0.000000
0.000000 0.000142 0.000000
0.000029 0.000806 0.000000
0.000794 0.000884 0.000000
0.001826 0.000831 0.000000
0.004037 0.000171 0.000000
0.008345 0.000045 0.000000
0.015691 0.000000 0.000000
0.025021 0.000000 0.000000
0.035405 0.000000 0.000000
0.047707 0.000000 0.000000
0.065385 0.000000 0.000000
0.088889 0.000000 0.000000
0.126398 0.000000 0.000000
0.181171 0.000000 0.000000
0.246881 0.000000 0.000000
0.329358 0.000000 0.000000
0.429203 0.000000 0.000000
0.526039 0.000000 0.000000
0.612436 0.000000 0.000000
0.681338 0.000000 0.000000
0.752560 0.000000 0.000000
0.799315 0.000000 0.000000
0.827264 0.000000 0.000000
0.844331 0.000000 0.000000
0.850452 0.000000 0.000000
0.845706 0.000000 0.000000
0.833142 0.000000 0.000000
0.809238 0.000000 0.000000
0.776540 0.000000 0.000000
0.732553 0.000000 0.000000
0.000000 0.000148 0.000000
0.000000 0.000908 0.000000
0.000000 0.000908 0.000000
0.000000 0.000981 0.000000
0.000135 0.001719 0.000000
0.001880 0.001879 0.000000
0.005364 0.001806 0.000000
0.013028 0.000939 0.000000
0.024096 0.000103 0.000000
0.037252 0.000000 0.000000
0.051839 0.000000 0.000000
0.069063 0.000000 0.000000
0.089254 0.000000 0.000000
0.116920 0.000000 0.000000
0.155256 0.000000 0.000000
0.211299 0.000000 0.000000
0.283540 0.000000 0.000000
0.375597 0.000000 0.000000
0.477591 0.000000 0.000000
0.571352 0.000000 0.000000
0.651256 0.000000 0.000000
0.714344 0.000000 0.000000
0.785127 0.000000 0.000000
0.829609 0.000000 0.000000
0.857952 0.000000 0.000000
0.875367 0.000000 0.000000
0.882654 0.000000 0.000000
0.881444 0.000000 0.000000
0.868436 0.000000 0.000000
0.844699 0.000000 0.000000
0.811906 0.002335 0.000000
0.763934 0.006158 0.000000
0.000000 0.001104 0.000000
0.000000 0.001855 0.000000
0.000000 0.001887 0.000000
0.000000 0.002146 0.000000
0.000035 0.003120 0.000000
0.001125 0.004167 0.000000
0.006453 0.005201 0.000000
0.017332 0.004573 0.000000
0.033378 0.002786 0.000000
0.053318 0.001086 0.000000
0.075276 0.000266 0.000000
0.101469 0.000000 0.000000
0.132717 0.000000 0.000000
0.170283 0.000000 0.000000
0.215289 0.000000 0.000000
0.266163 0.000000 0.000000
0.351787 0.000000 0.000000
0.462296 0.000000 0.000000
0.559107 0.000000 0.000000
0.645350 0.000000 0.000000
0.718339 0.000000 0.000000
0.777509 0.000000 0.000000
0.838946 0.000000 0.000000
0.874106 0.000000 0.000000
0.892600 0.000000 0.000000
0.900194 0.000000 0.000000
0.902348 0.001819 0.000000
0.903713 0.004886 0.000000
0.896992 0.007147 0.000000
0.875581 0.009725 0.000000
0.837156 0.022498 0.000000
0.770127 0.042765 0.000000
0.000000 0.003057 0.000000
0.000000 0.004030 0.000000
0.000000 0.004289 0.000000
0.000000 0.005352 0.000000
0.000000 0.007199 0.000000
0.000328 0.009222 0.000000
0.005378 0.011874 0.000000
0.022032 0.014434 0.000000
0.043350 0.013290 0.000000
0.069613 0.010114 0.000000
0.103359 0.006537 0.000000
0.142953 0.002947 0.000000
0.187796 0.001546 0.000000
0.233780 0.000292 0.000000
0.281470 0.000000 0.000000
0.339788 0.000000 0.000000
0.409057 0.000000 0.000000
0.491997 0.000000 0.000000
0.585303 0.000000 0.000000
0.677797 0.000000 0.000000
0.758168 0.000000 0.000000
0.829482 0.000000 0.000000
0.886469 0.000000 0.000000
0.901982 0.000000 0.000000
0.904129 0.008846 0.000000
0.906033 0.019271 0.000000
0.907498 0.028809 0.000000
0.908494 0.040777 0.000000
0.909297 0.050625 0.000000
0.893101 0.062583 0.000000
0.837206 0.079642 0.000000
0.768532 0.101226 0.000000
0.000000 0.006847 0.000000
0.000000 0.008640 0.000000
0.000000 0.009939 0.000000
0.000000 0.012006 0.000000
0.000000 0.014617 0.000000
0.000244 0.017990 0.000000
0.004692 0.021875 0.000000
0.023519 0.026537 0.000000
0.056742 0.031190 0.000000
0.092481 0.029705 0.000000
0.137655 0.025710 0.000000
0.190562 0.020749 0.000000
0.243112 0.014639 0.000000
0.295491 0.008260 0.000000
0.353335 0.003261 0.000000
0.416886 0.000562 0.000000
0.486097 0.000000 0.000000
0.559471 0.000000 0.000000
0.633384 0.000000 0.000000
0.708612 0.000000 0.000000
0.776501 0.000000 0.000000
0.837726 0.000000 0.000000
0.888669 0.000000 0.000000
0.904840 0.003258 0.000000
0.908062 0.034356 0.000000
0.911081 0.076175 0.000000
0.912871 0.106859 0.000000
0.913960 0.126775 0.000000
0.914357 0.137850 0.000000
0.884350 0.153659 0.000000
0.845705 0.187681 0.000220
0.810893 0.236542 0.055429
0.000000 0.013293 0.000000
0.000000 0.016201 0.000000
0.000000 0.019502 0.000000
0.000000 0.022690 0.000000
0.000000 0.026143 0.000000
0.000504 0.030163 0.000000
0.006028 0.036255 0.000000
0.028080 0.042854 0.000000
0.065941 0.050873 0.000000
0.125685 0.057432 0.000000
0.182136 0.056042 0.000000
0.241730 0.051081 0.000000
0.300322 0.044013 0.000000
0.365104 0.034588 0.000000
0.430386 0.024155 0.000000
0.496489 0.012564 0.000000
0.567686 0.003614 0.000000
0.635459 0.000482 0.000000
0.698038 0.000000 0.000000
0.755177 0.000000 0.000000
0.809526 0.000000 0.000000
0.861524 0.000000 0.000000
0.895870 0.003548 0.000000
0.906585 0.017409 0.000000
0.909830 0.058297 0.000000
0.912976 0.108684 0.000000
0.915424 0.158232 0.000000
0.917552 0.197077 0.000000
0.918328 0.221118 0.000000
0.882570 0.249187 0.000000
0.889284 0.332516 0.021627
0.918335 0.442160 0.220326
0.000000 0.023506 0.000000
0.000000 0.029094 0.000000
0.000000 0.034718 0.000000
0.000000 0.038263 0.000000
0.000000 0.042840 0.000000
0.001508 0.048384 0.000000
0.010966 0.056067 0.000000
0.036710 0.065203 0.000000
0.079629 0.076529 0.000000
0.147872 0.089566 0.000000
0.236856 0.100236 0.000000
0.297542 0.097964 0.000000
0.364832 0.089322 0.000000
0.434236 0.077235 0.000000
0.504303 0.063332 0.000000
0.577788 0.046902 0.000000
0.649147 0.029554 0.000000
0.713500 0.015774 0.000000
0.769105 0.007525 0.000000
0.813645 0.003280 0.000000
0.852584 0.000348 0.000000
0.886277 0.001672 0.000000
0.904134 0.017036 0.000000
0.909039 0.047418 0.000000
0.912302 0.098628 0.000000
0.915361 0.156864 0.000000
0.917625 0.201832 0.000000
0.920010 0.234388 0.000000
0.922412 0.262629 0.000000
0.897376 0.305657 0.000000
0.915835 0.407941 0.091561
0.939032 0.507802 0.307645
0.000000 0.040321 0.000000
0.000000 0.050338 0.000000
0.000000 0.056840 0.000000
0.000000 0.061776 0.000000
0.000450 0.067962 0.000000
0.004333 0.075372 0.000000
0.020932 0.085508 0.000000
0.051505 0.098921 0.000000
0.102113 0.115646 0.000000
0.175739 0.136835 0.000000
0.268577 0.156253 0.000000
0.362941 0.169050 0.000000
0.434609 0.163060 0.000000
0.503741 0.150781 0.000000
0.578128 0.134368 0.000000
0.657154 0.112398 0.000000
0.728773 0.088563 0.000000
0.788241 0.067907 0.000000
0.837599 0.051308 0.000000
0.871550 0.037371 0.000000
0.892313 0.028668 0.000000
0.905152 0.035129 0.000000
0.909648 0.058043 0.000000
0.912466 0.104683 0.000000
0.915608 0.159869 0.000000
0.918335 0.212957 0.000000
0.920668 0.250849 0.000000
0.923661 0.291036 0.000000
0.926692 0.328527 0.000000
0.920836 0.387656 0.023101
0.935620 0.478976 0.183405
0.948239 0.567352 0.382560
0.000000 0.070944 0.000000
0.000000 0.085875 0.000000
0.000000 0.093570 0.000000
0.000234 0.101091 0.000000
0.002938 0.110547 0.000000
0.014029 0.122245 0.000000
0.037715 0.137713 0.000000
0.075894 0.155507 0.000000
0.133960 0.174361 0.000000
0.215774 0.198306 0.000000
0.304083 0.225949 0.000000
0.407518 0.246018 0.000000
0.503868 0.260846 0.000000
0.575719 0.255198 0.000000
0.650560 0.241371 0.000000
0.729965 0.222178 0.000000
0.801526 0.211961 0.000000
0.855997 0.189481 0.000000
0.890487 0.165002 0.000000
0.909155 0.149027 0.000000
0.914491 0.139544 0.000000
0.914843 0.144717 0.000000
0.915913 0.162218 0.000000
0.917722 0.198774 0.000000
0.920278 0.245985 0.000000
0.922838 0.289757 0.000000
0.925857 0.331298 0.000000
0.929452 0.376001 0.000000
0.933164 0.417231 0.010519
0.939013 0.479743 0.116305
0.946429 0.554774 0.295682
0.954481 0.630382 0.456983
0.000000 0.123096 0.000000
0.000000 0.141818 0.000000
0.000000 0.154554 0.000000
0.000054 0.162987 0.000000
0.004095 0.174358 0.000000
0.023881 0.189310 0.000000
0.055172 0.207746 0.000000
0.102815 0.229771 0.000000
0.172318 0.249408 0.000000
0.256011 0.272488 0.000000
0.347086 0.299101 0.000000
0.448409 0.327976 0.000000
0.551505 0.356642 0.000000
0.647131 0.374771 0.000000
0.722517 0.383218 0.000000
0.790551 0.376962 0.000000
0.852168 0.373673 0.000000
0.901376 0.377466 0.000000
0.922742 0.353529 0.000000
0.925407 0.329456 0.000000
0.924586 0.316277 0.000000
0.924182 0.310039 0.000000
0.924487 0.315155 0.000000
0.925559 0.333184 0.000000
0.927454 0.362454 0.000000
0.930344 0.401081 0.000000
0.933770 0.439119 0.000000
0.937523 0.477030 0.017756
0.941808 0.517886 0.100062
0.947325 0.569575 0.253768
0.953872 0.630127 0.400832
0.960781 0.690659 0.526736
0.000000 0.193456 0.000000
0.000000 0.209114 0.000000
0.000000 0.225210 0.000000
0.000000 0.236524 0.000000
0.000437 0.249581 0.000000
0.014821 0.265424 0.000000
0.048611 0.284599 0.000000
0.097847 0.307871 0.000000
0.177688 0.333387 0.000000
0.270856 0.360755 0.000000
0.377114 0.389845 0.000000
0.484599 0.420260 0.000000
0.595269 0.469681 0.000000
0.690523 0.513035 0.000000
0.770685 0.542231 0.000000
0.831635 0.562392 0.000000
0.876751 0.555984 0.000000
0.915376 0.548720 0.000000
0.936448 0.533417 0.000000
0.937808 0.510171 0.000000
0.936156 0.488721 0.000000
0.935236 0.476156 0.000000
0.935224 0.474664 0.000000
0.936259 0.484622 0.000000
0.938108 0.502765 0.000000
0.940806 0.527048 0.000000
0.943957 0.553705 0.040934
0.947488 0.583156 0.129123
0.951500 0.617136 0.262878
0.955934 0.654474 0.387635
0.961195 0.699412 0.494959
0.966685 0.744336 0.591354
0.000000 0.285703 0.000000
0.000000 0.297916 0.000000
0.000000 0.309647 0.000000
0.000000 0.323374 0.000000
0.000000 0.338397 0.000000
0.000934 0.356070 0.000000
0.022043 0.376573 0.000000
0.068235 0.400336 0.000000
0.144161 0.424975 0.000000
0.251577 0.451471 0.000000
0.373318 0.479549 0.000000
0.497205 0.510821 0.000000
0.621449 0.566104 0.000000
0.718535 0.639206 0.000000
0.788361 0.679537 0.000000
0.851348 0.705319 0.000000
0.889306 0.705082 0.000000
0.918726 0.694645 0.000000
0.941078 0.678842 0.000000
0.950456 0.663159 0.000000
0.950254 0.646136 0.000000
0.948858 0.629342 0.000000
0.948424 0.621990 0.000000
0.949085 0.623257 0.001407
0.950650 0.632391 0.045879
0.952740 0.646250 0.111245
0.955099 0.662152 0.201887
0.958125 0.684262 0.320541
0.961186 0.707144 0.425169
0.964233 0.729618 0.508285
0.968008 0.759726 0.580942
0.972261 0.792471 0.653303
0.000000 0.397068 0.000000
0.000000 0.409091 0.000000
0.000000 0.417090 0.000000
0.000000 0.426458 0.000000
0.000000 0.439168 0.000000
0.000035 0.454884 0.000000
0.005317 0.473531 0.000000
0.043397 0.494016 0.000000
0.117763 0.515870 0.000000
0.231503 0.538881 0.000000
0.354171 0.562399 0.000000
0.489246 0.590133 0.000000
0.623707 0.623751 0.000000
0.729978 0.699194 0.000000
0.799297 0.754291 0.000000
0.865985 0.792198 0.000000
0.904285 0.804889 0.000000
0.924291 0.801270 0.000000
0.940002 0.791937 0.000000
0.952890 0.782105 0.000000
0.959916 0.773165 0.018077
0.963085 0.762591 0.105832
0.963230 0.752665 0.184015
0.963176 0.747388 0.213132
0.963596 0.746194 0.261833
0.964751 0.751125 0.344807
0.966288 0.758935 0.431062
0.968278 0.771326 0.506348
0.970230 0.783629 0.569075
0.971968 0.794702 0.616138
0.974319 0.812026 0.660440
0.977065 0.832314 0.707991
0.000000 0.504562 0.000000
0.000000 0.515658 0.000000
0.000000 0.521623 0.000000
0.000000 0.527329 0.000000
0.000000 0.536087 0.000000
0.000000 0.548065 0.000000
0.004740 0.563276 0.000000
0.037635 0.580216 0.000000
0.114538 0.598204 0.000000
0.230610 0.616778 0.000000
0.347787 0.636116 0.000000
0.479921 0.657151 0.000000
0.614040 0.680687 0.000000
0.733559 0.727923 0.000000
0.810002 0.799405 0.000000
0.870844 0.835793 0.000000
0.912081 0.857598 0.000000
0.934200 0.866132 0.000000
0.944667 0.865258 0.032542
0.953010 0.861210 0.110062
0.960413 0.856372 0.190252
0.966384 0.851819 0.296314
0.969897 0.847376 0.420418
0.971576 0.842919 0.506182
0.972764 0.840312 0.562679
0.975073 0.839093 0.596504
0.976731 0.840227 0.630834
0.977617 0.843666 0.664533
0.978404 0.847473 0.693484
0.979108 0.851185 0.713419
0.980089 0.857650 0.735795
0.980162 0.861647 0.752967
0.000000 0.598395 0.000000
0.000000 0.608446 0.000000
0.000000 0.613818 0.000000
0.000000 0.618446 0.000000
0.000000 0.624323 0.000000
0.000762 0.632406 0.000000
0.012626 0.643223 0.000000
0.062175 0.655954 0.000000
0.145091 0.669316 0.000000
0.257459 0.683813 0.000000
0.370220 0.699223 0.000000
0.487562 0.715209 0.000000
0.609893 0.732350 0.000000
0.737404 0.757074 0.000000
0.823690 0.820413 0.000000
0.875516 0.864841 0.000000
0.913292 0.882412 0.000000
0.938026 0.899609 0.115008
0.951273 0.906522 0.225324
0.958188 0.907476 0.331021
0.963038 0.906087 0.437734
0.967301 0.904411 0.526601
0.970558 0.903111 0.605787
0.973425 0.901901 0.672902
0.975686 0.901217 0.729914
0.978313 0.900798 0.766808
0.980908 0.899243 0.778580
0.982413 0.898217 0.786318
0.983440 0.897221 0.793249
0.983983 0.896922 0.798722
0.983596 0.895130 0.802737
0.980522 0.889114 0.800106
0.001959 0.721428 0.000000
0.002464 0.729168 0.000000
0.002934 0.733604 0.000000
0.003001 0.737127 0.000000
0.003870 0.741124 0.000000
0.010147 0.746237 0.000000
0.049203 0.742691 0.000000
0.142652 0.723107 0.000000
0.225460 0.732269 0.000000
0.322725 0.742959 0.000000
0.423749 0.754103 0.000000
0.522204 0.765019 0.000000
0.624925 0.777289 0.000000
0.738762 0.793671 0.000000
0.833230 0.836343 0.000000
0.881308 0.887673 0.000000
0.916791 0.903707 0.000000
0.937653 0.916063 0.178769
0.952793 0.927750 0.424389
0.961626 0.932701 0.537906
0.966172 0.933917 0.615990
0.969519 0.934051 0.677805
0.972548 0.933874 0.730714
0.974899 0.933888 0.776493
0.976973 0.933909 0.814282
0.978870 0.933997 0.843582
0.981040 0.933239 0.857892
0.982981 0.931712 0.858371
0.984406 0.929766 0.857956
0.984396 0.927061 0.856235
0.983022 0.921859 0.851709
0.980031 0.915078 0.844361
0.009187 0.826683 0.000000
0.009946 0.831324 0.000000
0.010191 0.833492 0.000000
0.010196 0.835113 0.000000
0.010475 0.837083 0.000000
0.012935 0.839470 0.000000
0.034260 0.841741 0.000000
0.114711 0.826695 0.000000
0.215177 0.828228 0.000000
0.333077 0.828863 0.000000
0.453345 0.833242 0.000000
0.569316 0.827507 0.000000
0.666127 0.818992 0.000000
0.757681 0.830568 0.000000
0.838787 0.864899 0.000000
0.886731 0.901733 0.000000
0.919580 0.915474 0.000000
0.938894 0.928899 0.201132
0.951640 0.938422 0.485541
0.962062 0.946542 0.643617
0.968339 0.950248 0.710052
0.971712 0.951591 0.760009
0.974188 0.952190 0.799874
0.976553 0.952315 0.831314
0.978327 0.952566 0.857577
0.980084 0.952560 0.878493
0.981753 0.952328 0.893139
0.983048 0.950936 0.896964
0.983535 0.948101 0.893579
0.982848 0.944045 0.888847
0.981560 0.939080 0.883011
0.979350 0.933674 0.876767
0.017498 0.895634 0.000000
0.018261 0.897968 0.000000
0.018768 0.898968 0.000000
0.026654 0.899708 0.000000
0.047639 0.900171 0.000000
0.074041 0.900919 0.000000
0.111345 0.902004 0.000000
0.169642 0.903057 0.000000
0.246690 0.903210 0.000000
0.351419 0.902244 0.000000
0.458421 0.900638 0.000000
0.561080 0.900824 0.000000
0.658061 0.889352 0.000000
0.749223 0.891035 0.000000
0.835093 0.896227 0.000000
0.888790 0.908816 0.000000
0.921271 0.916141 0.000000
0.939743 0.933786 0.204395
0.952057 0.946801 0.507587
0.960753 0.953247 0.674228
0.968271 0.958633 0.761698
0.972574 0.961348 0.803052
0.975343 0.962583 0.834796
0.977538 0.963180 0.860585
0.979393 0.963311 0.880532
0.980708 0.963160 0.895574
0.981768 0.962504 0.906698
0.982343 0.961108 0.913035
0.982324 0.958754 0.914399
0.981663 0.955334 0.910388
0.980620 0.951344 0.905227
0.978870 0.946581 0.899644
0.107948 0.920450 0.000000
0.155873 0.920172 0.000000
0.172250 0.920019 0.000000
0.191839 0.919778 0.000000
0.223310 0.919228 0.000000
0.255277 0.918817 0.000000
0.291645 0.918530 0.000000
0.337470 0.918459 0.000000
0.382939 0.918298 0.000000
0.443147 0.918015 0.000000
0.515760 0.917135 0.000000
0.590521 0.916040 0.000000
0.666778 0.914659 0.000000
0.749809 0.912901 0.000000
0.830174 0.911561 0.000000
0.888478 0.910028 0.000000
0.921781 0.915899 0.000000
0.940261 0.933687 0.204405
0.952916 0.952266 0.517013
0.960599 0.959195 0.690269
0.967069 0.962986 0.780217
0.972369 0.966596 0.830242
0.975323 0.968212 0.854454
0.977531 0.968980 0.874419
0.979125 0.969248 0.890856
0.980441 0.969005 0.903080
0.981296 0.968193 0.912045
0.981701 0.967039 0.918482
0.981666 0.965259 0.922195
0.981172 0.963054 0.923195
0.980253 0.960057 0.921860
0.978960 0.956606 0.917247
0.358928 0.933161 0.032841
0.394346 0.932089 0.012404
0.410713 0.931306 0.000543
0.425282 0.930779 0.000000
0.442903 0.930051 0.000000
0.461148 0.929286 0.000000
0.483326 0.928406 0.000000
0.508323 0.927607 0.000000
0.535122 0.926797 0.000000
0.565325 0.925664 0.000000
0.606910 0.923162 0.000000
0.657527 0.919313 0.000000
0.712904 0.915400 0.000000
0.773980 0.912863 0.000000
0.837355 0.911377 0.000000
0.888647 0.910025 0.000000
0.921449 0.917332 0.000000
0.940327 0.935133 0.217367
0.953140 0.953820 0.530609
0.961331 0.964165 0.704398
0.966854 0.966976 0.792125
0.971546 0.969632 0.842763
0.975320 0.972181 0.872679
0.977448 0.972917 0.886889
0.978990 0.973241 0.898898
0.980192 0.973018 0.908755
0.980831 0.972449 0.916795
0.981150 0.971450 0.922399
0.981133 0.970170 0.926410
0.980991 0.968319 0.928848
0.980206 0.966052 0.929729
0.979055 0.963749 0.928872
0.567794 0.946029 0.316368
0.586198 0.944984 0.298019
0.594950 0.944461 0.288273
0.604372 0.943894 0.279933
0.613640 0.943273 0.271344
0.622713 0.942624 0.259956
0.635465 0.941763 0.246093
0.649743 0.940916 0.233164
0.665022 0.940040 0.220161
0.681239 0.939121 0.204331
0.701693 0.937164 0.170646
0.731132 0.933095 0.090113
0.766156 0.928111 0.018080
0.807714 0.922739 0.000000
0.853502 0.918164 0.000000
0.893945 0.917415 0.000000
0.922004 0.924477 0.039245
0.940539 0.939539 0.271535
0.953317 0.955919 0.561169
0.962009 0.967422 0.718861
0.967440 0.971106 0.804086
0.971271 0.972438 0.851062
0.974856 0.974395 0.881715
0.977745 0.975975 0.899944
0.979270 0.976128 0.908167
0.980051 0.975922 0.915779
0.980546 0.975605 0.922052
0.980767 0.974878 0.926954
0.980785 0.973890 0.930575
0.980688 0.972293 0.932785
0.980200 0.970680 0.934129
0.979520 0.968594 0.934419
0.695978 0.957252 0.533964
0.706508 0.956369 0.522693
0.711436 0.955914 0.517387
0.716119 0.955554 0.511929
0.722178 0.955055 0.506022
0.727772 0.954520 0.498663
0.733816 0.953948 0.490226
0.742023 0.953219 0.480866
0.751159 0.952475 0.471595
0.761395 0.951682 0.460903
0.774160 0.950482 0.443510
0.791968 0.947710 0.397421
0.815592 0.943566 0.322714
0.844650 0.938735 0.239442
0.874537 0.934169 0.154940
0.902017 0.932161 0.126051
0.924876 0.936345 0.225813
0.941517 0.946720 0.411989
0.953478 0.959522 0.609602
0.962341 0.970439 0.737477
0.968046 0.974501 0.814781
0.971718 0.975526 0.860178
0.974758 0.976245 0.887767
0.977585 0.977483 0.906939
0.979333 0.978251 0.918212
0.980106 0.978127 0.923251
0.980502 0.977766 0.928003
0.980790 0.977222 0.931755
0.980781 0.976505 0.934709
0.980580 0.975515 0.936716
0.980280 0.974144 0.938131
0.979808 0.972467 0.938668
0.775527 0.965917 0.655198
0.781845 0.965348 0.649216
0.785456 0.965041 0.646803
0.788556 0.964754 0.643806
0.792337 0.964435 0.640722
0.796741 0.964083 0.637108
0.801282 0.963566 0.632318
0.806756 0.963049 0.627294
0.813196 0.962587 0.622260
0.820174 0.961965 0.616600
0.828537 0.961216 0.608667
0.840096 0.959404 0.588262
0.854113 0.956236 0.549865
0.872287 0.952577 0.501375
0.892456 0.949183 0.452484
0.912027 0.947131 0.421707
0.929304 0.948785 0.453458
