LUTS/Dam_Filmstock_KD_D60.cube
#Created by: Damian Krzywonos for Cities Skylines 2 Lumina mod
#LogC or linear to sRGB not completely sure
TITLE "Dam_Filmstock_KD_D60"
LUT_3D_SIZE 8
DOMAIN_MIN 0.000000 0.000000 0.000000
DOMAIN_MAX 0.903226 0.903226 0.903226
0.000000 0.000000 0.000000
0.000859 0.000000 0.000000
0.008384 0.000000 0.000000
0.061241 0.000000 0.000000
0.191802 0.000000 0.000000
0.456639 0.000000 0.000000
0.680042 0.000000 0.000000
0.636356 0.000000 0.000000
0.000000 0.000000 0.000000
0.001664 0.000098 0.000000
0.016476 0.000000 0.000000
0.081198 0.000000 0.000000
0.280401 0.000000 0.000000
0.628468 0.000000 0.000000
0.835833 0.000000 0.000000
0.832477 0.000000 0.000000
0.000000 0.004013 0.000000
0.000032 0.009656 0.000000
0.058262 0.015879 0.000000
0.226334 0.001849 0.000000
0.454000 0.000000 0.000000
0.799084 0.000000 0.000000
0.905021 0.012818 0.000000
0.910279 0.066801 0.000000
0.000000 0.047259 0.000000
0.002997 0.077020 0.000000
0.141412 0.130187 0.000000
0.485772 0.175859 0.000000
0.771713 0.096188 0.000000
0.907624 0.052548 0.000000
0.916938 0.186157 0.000000
0.927914 0.355127 0.000000
0.000000 0.309873 0.000000
0.002206 0.362733 0.000000
0.223489 0.446197 0.000000
0.669394 0.576416 0.000000
0.916844 0.718124 0.000000
0.951371 0.662156 0.000000
0.951574 0.649239 0.001785
0.961464 0.719261 0.334450
0.002441 0.733393 0.000000
0.030795 0.750363 0.000000
0.345300 0.762906 0.000000
0.695239 0.781170 0.000000
0.939239 0.905676 0.000000
0.977949 0.934697 0.548216
0.986201 0.934496 0.767378
0.989040 0.930424 0.816427
0.504960 0.928694 0.000000
0.568159 0.925824 0.000000
0.636348 0.922880 0.000000
0.773818 0.913398 0.000000
0.940722 0.915222 0.000000
0.976989 0.966993 0.744498
0.986197 0.972804 0.866882
0.987256 0.970083 0.899000
0.864285 0.966198 0.673799
0.873578 0.965385 0.666578
0.883487 0.964461 0.657655
0.906305 0.960439 0.615943
0.950144 0.954858 0.553618
0.978273 0.976606 0.799949
0.985626 0.979803 0.901768
0.987292 0.979451 0.920798
0.000000 0.000000 0.000000
0.000762 0.000000 0.000000
0.011149 0.000000 0.000000
0.073266 0.000000 0.000000
0.236516 0.000000 0.000000
0.571474 0.000000 0.000000
0.775361 0.000000 0.000000
0.769637 0.000000 0.000000
0.000000 0.000817 0.000000
0.003295 0.000969 0.000000
0.045677 0.000004 0.000000
0.227539 0.000000 0.000000
0.483086 0.000000 0.000000
0.796873 0.000000 0.000000
0.897276 0.000000 0.000000
0.899596 0.000000 0.000000
0.000000 0.008645 0.000000
0.000000 0.010315 0.000000
0.073582 0.024247 0.000000
0.264101 0.004240 0.000000
0.596612 0.000308 0.000000
0.907778 0.030151 0.000000
0.918668 0.202402 0.000000
0.920981 0.235478 0.000000
0.000000 0.048954 0.000000
0.000000 0.063349 0.000000
0.057460 0.103053 0.000000
0.464818 0.257216 0.000000
0.799038 0.207641 0.000000
0.918514 0.215210 0.000000
0.929860 0.391068 0.000000
0.942596 0.530595 0.064417
0.000000 0.357843 0.000000
0.000000 0.384851 0.000000
0.011733 0.427695 0.000000
0.528735 0.562535 0.000000
0.906537 0.778147 0.000000
0.963218 0.752081 0.166507
0.961871 0.733783 0.203851
0.970301 0.792760 0.504484
0.013518 0.861627 0.000000
0.014183 0.867767 0.000000
0.080633 0.871994 0.000000
0.521319 0.866333 0.000000
0.931184 0.911835 0.006118
0.979277 0.946554 0.688236
0.989532 0.948737 0.832282
0.991227 0.945887 0.848671
0.649740 0.947362 0.360852
0.678027 0.943938 0.294142
0.709996 0.940310 0.217917
0.770811 0.931332 0.045584
0.932352 0.914747 0.000000
0.978542 0.970439 0.755537
0.988265 0.977152 0.883640
0.990657 0.976788 0.918473
0.894446 0.974669 0.766203
0.899228 0.973549 0.755842
0.903989 0.971673 0.737830
0.915796 0.968024 0.702597
0.950778 0.958293 0.599115
0.979846 0.976338 0.797302
0.987563 0.982882 0.909132
0.989684 0.983077 0.930148
0.000000 0.000763 0.009947
0.000000 0.000131 0.016681
0.005281 0.000000 0.006629
0.036058 0.000000 0.000497
0.327379 0.000000 0.000000
0.706259 0.000000 0.000000
0.863805 0.000000 0.000000
0.879262 0.000000 0.000000
0.000000 0.003055 0.014631
0.000075 0.004981 0.023804
0.030335 0.000066 0.023097
0.222609 0.000000 0.007985
0.584947 0.000000 0.000064
0.885633 0.000000 0.000000
0.900496 0.000000 0.001808
0.905275 0.004218 0.005643
0.000000 0.038488 0.021819
0.000000 0.044131 0.022783
0.060371 0.049438 0.028564
0.569297 0.057154 0.021882
0.641790 0.044533 0.000000
0.913997 0.103404 0.000000
0.925025 0.276422 0.040177
0.933897 0.413937 0.079237
0.000000 0.178069 0.000746
0.000000 0.151372 0.000000
0.001830 0.152603 0.000000
0.463666 0.329819 0.003383
0.803233 0.344137 0.006912
0.931137 0.396419 0.000000
0.941105 0.516069 0.027380
0.958981 0.685067 0.416218
0.000000 0.586534 0.000000
0.000000 0.565613 0.000000
0.000000 0.569654 0.000000
0.393054 0.587716 0.000000
0.914525 0.818200 0.162650
0.971933 0.813625 0.486976
0.970576 0.800057 0.460948
0.978750 0.857528 0.651632
0.028229 0.910557 0.014746
0.052050 0.909852 0.000000
0.160284 0.904660 0.000000
0.479446 0.898130 0.000000
0.926759 0.915830 0.015297
0.980134 0.953137 0.740710
0.990589 0.956702 0.861052
0.992585 0.955098 0.870126
0.733656 0.958669 0.559716
0.747189 0.954931 0.509864
0.761976 0.949586 0.426480
0.798926 0.941095 0.263269
0.929335 0.919211 0.000000
0.979360 0.972301 0.766469
0.989201 0.979436 0.893324
0.991718 0.979539 0.926448
0.908588 0.977595 0.797019
0.912909 0.976857 0.790223
0.916227 0.975320 0.776133
0.923840 0.972159 0.745727
0.952266 0.962365 0.648153
0.980833 0.976580 0.799183
0.989114 0.984590 0.914838
0.991052 0.985296 0.937801
0.000000 0.013658 0.168072
0.000715 0.012189 0.201367
0.019707 0.003793 0.203125
0.070523 0.000000 0.092100
0.144318 0.000000 0.036471
0.756486 0.000000 0.073512
0.900690 0.000000 0.058759
0.900593 0.000000 0.044982
0.000000 0.033091 0.205973
0.000389 0.039403 0.242216
0.043296 0.024757 0.253869
0.177441 0.000171 0.199688
0.528217 0.000000 0.173277
0.903415 0.001288 0.215490
0.911773 0.021731 0.235983
0.918099 0.122385 0.198531
0.000000 0.072964 0.234818
0.000000 0.090049 0.244832
0.041747 0.093069 0.255456
0.263304 0.058144 0.271173
0.732422 0.091331 0.294130
0.918533 0.129450 0.209031
0.929826 0.325638 0.254959
0.944656 0.525136 0.367697
0.000000 0.401984 0.371622
0.000000 0.370760 0.336696
0.003300 0.346425 0.311497
0.342694 0.307784 0.280344
0.942656 0.523169 0.453184
0.962858 0.703172 0.589798
0.964005 0.721048 0.551203
0.968049 0.756927 0.601661
0.015671 0.787083 0.296235
0.013758 0.777259 0.242072
0.012108 0.750514 0.168658
0.076425 0.702893 0.002743
0.896063 0.821241 0.448791
0.981351 0.876636 0.705572
0.982284 0.883388 0.706999
0.986476 0.909562 0.795021
0.560971 0.952902 0.606708
0.556238 0.949390 0.541149
0.506588 0.944216 0.386891
0.567519 0.931379 0.112653
0.900312 0.918197 0.018465
0.979441 0.957940 0.795804
0.992195 0.966685 0.897241
0.994092 0.964833 0.894433
0.852079 0.975056 0.762401
0.845740 0.972037 0.731326
0.846512 0.968407 0.693580
0.853167 0.960022 0.598824
0.920972 0.937861 0.232823
0.979719 0.974134 0.777770
0.990628 0.982543 0.908222
0.992971 0.983647 0.939921
0.933206 0.983981 0.858244
0.935366 0.983429 0.853633
0.937142 0.982351 0.844375
0.938731 0.978757 0.812396
0.953970 0.970962 0.739773
0.981128 0.976201 0.795799
0.990719 0.986840 0.923268
0.993118 0.988392 0.948496
0.008583 0.141327 0.571450
0.038736 0.149749 0.597694
0.080944 0.126979 0.613330
0.210839 0.059415 0.594016
0.400622 0.013491 0.486811
0.652427 0.000000 0.332326
0.908678 0.000000 0.421961
0.914778 0.032238 0.404316
0.004253 0.217304 0.609118
0.053940 0.234990 0.634905
0.134859 0.217532 0.647510
0.282836 0.146986 0.638643
0.521503 0.020966 0.569582
0.874755 0.000107 0.535479
0.927864 0.225242 0.564436
0.934760 0.361387 0.505724
0.000000 0.285097 0.609043
0.026399 0.320717 0.637147
0.132675 0.316071 0.646561
0.344824 0.259025 0.664499
0.651413 0.117630 0.638069
0.927140 0.190427 0.641456
0.941996 0.449112 0.599476
0.948902 0.544672 0.579561
0.001803 0.501729 0.690190
0.001753 0.507959 0.687272
0.019823 0.507597 0.682935
0.391309 0.487029 0.667843
0.772650 0.428803 0.680803
0.961810 0.661837 0.757548
0.972143 0.772113 0.765854
0.974680 0.798807 0.763293
0.586298 0.923155 0.844106
0.627425 0.918803 0.837275
0.639589 0.905883 0.818475
0.614248 0.861328 0.760909
0.779327 0.727346 0.632352
0.982124 0.874877 0.793203
0.988904 0.921223 0.863295
0.989994 0.929289 0.876891
0.815210 0.983051 0.868866
0.822349 0.981575 0.861319
0.826772 0.977866 0.846341
0.838209 0.964741 0.804234
0.823762 0.927892 0.581165
0.970501 0.949268 0.828877
0.992752 0.969858 0.913313
0.995445 0.973059 0.918885
0.933065 0.988797 0.908244
0.939865 0.988045 0.907000
0.944546 0.987049 0.901828
0.936008 0.984362 0.867688
0.927445 0.975079 0.775045
0.974576 0.974909 0.784359
0.991066 0.984649 0.929275
0.994683 0.986959 0.955620
0.969219 0.989507 0.935004
0.970585 0.989858 0.934347
0.969137 0.990217 0.928547
0.965756 0.989377 0.909995
0.963076 0.984994 0.871852
0.978286 0.979138 0.822648
0.991621 0.989089 0.931395
0.994869 0.990912 0.960187
0.194628 0.430995 0.819856
0.274320 0.440903 0.831027
0.343270 0.439926 0.839986
0.442141 0.390771 0.849816
0.601368 0.294033 0.837480
0.802007 0.042571 0.767943
0.915504 0.001024 0.672990
0.924951 0.127734 0.672623
0.215617 0.497396 0.832054
0.322008 0.513640 0.842931
0.393772 0.513650 0.848885
0.508538 0.477398 0.858443
0.674655 0.387080 0.847006
0.864917 0.115078 0.797364
0.924852 0.089546 0.765025
0.944957 0.452443 0.760487
0.191183 0.551471 0.832911
0.326666 0.573598 0.843514
0.415725 0.575960 0.847192
0.552021 0.557973 0.857453
0.741933 0.488684 0.853166
0.920897 0.313949 0.827841
0.941022 0.376078 0.811017
0.959761 0.629236 0.805572
0.139533 0.691981 0.852754
0.294452 0.707947 0.854201
0.421261 0.716116 0.853450
0.620333 0.717239 0.851065
0.816493 0.677759 0.854161
0.952817 0.623294 0.849019
0.966415 0.695362 0.846906
0.979053 0.824832 0.863804
0.335619 0.927626 0.923953
0.404339 0.927160 0.921622
0.526948 0.921701 0.914259
0.674792 0.899644 0.890150
0.846370 0.844229 0.839158
0.946622 0.840215 0.850201
0.987519 0.902943 0.891141
0.991687 0.937797 0.918254
0.958716 0.985768 0.955606
0.963367 0.986419 0.957365
0.966199 0.986474 0.957911
0.965102 0.984511 0.953459
0.933467 0.961885 0.907271
0.928339 0.897567 0.818694
0.992067 0.957884 0.912035
0.996300 0.976174 0.944646
0.980885 0.992794 0.968459
0.982265 0.993149 0.969821
0.982910 0.993301 0.969965
0.981279 0.992792 0.966038
0.970465 0.987758 0.940234
0.952686 0.974015 0.861199
0.986820 0.979656 0.929317
0.994872 0.987384 0.961378
0.986093 0.994212 0.972240
0.987720 0.994710 0.974149
0.988633 0.994892 0.974836
0.988971 0.994308 0.972163
0.985472 0.992454 0.959011
0.979404 0.989979 0.928515
0.989842 0.989272 0.930917
0.995154 0.991710 0.967094
0.522211 0.654682 0.890078
0.573108 0.665032 0.894369
0.613761 0.670284 0.897445
0.658364 0.659439 0.902323
0.763951 0.626486 0.910552
0.869945 0.548457 0.901029
0.936714 0.294014 0.861191
0.933516 0.255028 0.783803
0.556225 0.694430 0.892614
0.611869 0.704923 0.896110
0.644440 0.710171 0.898236
0.701592 0.700627 0.903989
0.798270 0.668235 0.910699
0.893209 0.592424 0.901599
0.943527 0.395882 0.872634
0.945540 0.441139 0.831436
0.564770 0.727705 0.893432
0.622773 0.743357 0.896140
0.662464 0.747902 0.897982
0.731368 0.746932 0.902649
0.832491 0.722963 0.910885
0.916551 0.661732 0.903258
0.954341 0.544357 0.886979
0.958963 0.608107 0.858506
0.613063 0.818363 0.899865
0.670106 0.829565 0.900922
0.706413 0.834042 0.901288
0.786950 0.839953 0.902908
0.880825 0.832083 0.912745
0.935506 0.799982 0.908531
0.972169 0.746386 0.900029
0.975296 0.782280 0.885403
0.705473 0.924229 0.927606
0.733610 0.925361 0.927055
0.774356 0.925301 0.925335
0.841812 0.921521 0.920279
0.912473 0.916579 0.916064
0.950625 0.909406 0.919397
0.981739 0.906005 0.922009
0.989547 0.916897 0.921719
0.929758 0.983699 0.960790
0.936410 0.984457 0.962371
0.942168 0.984726 0.963557
0.945376 0.983600 0.962570
0.940349 0.970813 0.946763
0.952141 0.944785 0.916814
0.978088 0.945714 0.924582
0.992937 0.968146 0.945889
0.989122 0.993192 0.978055
0.991113 0.994063 0.980956
0.992775 0.994781 0.983100
0.993920 0.995220 0.984587
0.992326 0.993950 0.980739
0.978677 0.984404 0.955588
0.967113 0.952563 0.900783
0.993070 0.980194 0.950809
0.993600 0.995405 0.983151
0.995100 0.996266 0.985861
0.996237 0.996796 0.987753
0.996748 0.997053 0.988369
0.995315 0.996338 0.985391
0.989394 0.992879 0.970834
0.979448 0.985252 0.933708
0.991974 0.987874 0.959309
0.733385 0.776569 0.883154
0.763307 0.787026 0.889199
0.782466 0.793637 0.893131
0.804468 0.794218 0.898894
0.848970 0.786480 0.909956
0.893302 0.761191 0.909919
0.930605 0.675889 0.896952
0.951886 0.525765 0.847147
0.757196 0.801878 0.888351
0.782596 0.811408 0.893839
0.801047 0.816854 0.897585
0.821772 0.816225 0.903929
0.867743 0.809419 0.915341
0.905978 0.783628 0.915116
0.942176 0.702807 0.902435
0.958134 0.596891 0.864629
0.767332 0.827157 0.895452
0.796152 0.837668 0.899442
0.815117 0.843719 0.903385
0.846461 0.848125 0.909468
0.887196 0.844629 0.921696
0.921537 0.824510 0.921769
0.953702 0.759924 0.909930
0.967785 0.702868 0.884408
0.804666 0.877216 0.906837
0.831112 0.884820 0.911009
0.847038 0.888356 0.914273
0.876356 0.895110 0.920675
0.914702 0.899108 0.930193
0.943854 0.890911 0.934131
0.966365 0.860928 0.926832
0.980724 0.832214 0.912261
0.844781 0.930958 0.927942
0.855818 0.933562 0.930133
0.871983 0.936203 0.932273
0.902794 0.938753 0.935223
0.935827 0.941838 0.939588
0.961014 0.941486 0.946115
0.976304 0.936710 0.945409
0.989580 0.932403 0.943394
0.914701 0.977338 0.957066
0.922134 0.978818 0.959123
0.931679 0.979757 0.960858
0.943610 0.978497 0.960612
0.955870 0.973853 0.956137
0.969853 0.969408 0.951627
0.980617 0.966678 0.952521
0.989808 0.969611 0.956886
0.980687 0.990949 0.974424
0.984608 0.992343 0.978076
0.987974 0.993485 0.981111
0.990345 0.994283 0.983648
0.989642 0.993514 0.982118
0.982064 0.987920 0.970626
0.978360 0.974139 0.948623
0.987320 0.975064 0.952963
0.993057 0.994358 0.982019
0.995651 0.995900 0.986617
0.997631 0.997089 0.989790
0.998933 0.997753 0.991643
0.999041 0.997751 0.991689
0.997070 0.996434 0.988186
0.988823 0.989877 0.969819
0.981008 0.973396 0.936993
