LUTS/Dam_Filmstock_FJ_D65.cube
#Created by: Damian Krzywonos for Cities Skylines 2 Lumina mod
#LogC or linear to sRGB not completely sure
TITLE "Dam_Filmstock_FJ_D65"
LUT_3D_SIZE 8
DOMAIN_MIN 0.000000 0.000000 0.000000
DOMAIN_MAX 0.903226 0.903226 0.903226
0.000000 0.000000 0.000000
0.000000 0.000000 0.000000
0.000956 0.000000 0.000000
0.012950 0.000000 0.000000
0.042205 0.000000 0.000000
0.197593 0.000000 0.000000
0.549297 0.000000 0.000000
0.559255 0.000000 0.000000
0.000000 0.000000 0.000000
0.000098 0.000044 0.000000
0.002002 0.000000 0.000000
0.018334 0.000000 0.000000
0.095665 0.000000 0.000000
0.447978 0.000000 0.000000
0.772433 0.000000 0.000000
0.781287 0.000000 0.000000
0.000000 0.003816 0.000000
0.000000 0.007882 0.000000
0.031428 0.013977 0.000000
0.135622 0.002470 0.000000
0.313013 0.000000 0.000000
0.614416 0.000000 0.000000
0.897985 0.011830 0.000000
0.886089 0.073137 0.000000
0.000000 0.040671 0.000000
0.000000 0.063465 0.000000
0.070422 0.097532 0.000000
0.333445 0.130499 0.000000
0.583760 0.077474 0.000000
0.738341 0.033008 0.000000
0.916012 0.167519 0.000000
0.888426 0.344734 0.002005
0.000000 0.232777 0.000000
0.000060 0.265036 0.000000
0.115993 0.328225 0.000000
0.549371 0.476148 0.000000
0.850973 0.691209 0.000000
0.932977 0.630346 0.006255
0.946083 0.616773 0.125988
0.939137 0.690463 0.516813
0.001959 0.656706 0.000000
0.069065 0.668204 0.000000
0.206288 0.591529 0.000000
0.519365 0.629648 0.000000
0.874354 0.890969 0.105227
0.933720 0.922893 0.707437
0.950152 0.925078 0.862888
0.960718 0.921282 0.895999
0.362960 0.943783 0.261667
0.433418 0.940932 0.214863
0.513087 0.937251 0.157498
0.679048 0.923161 0.000000
0.884735 0.927105 0.111828
0.940806 0.959848 0.853320
0.961235 0.968289 0.931501
0.964527 0.965901 0.950025
0.766058 0.969421 0.820094
0.780937 0.970513 0.813961
0.796790 0.971388 0.806503
0.830448 0.971091 0.775905
0.899249 0.968821 0.727518
0.946113 0.973762 0.891787
0.964192 0.977327 0.951694
0.967746 0.977464 0.962637
0.000000 0.000000 0.000000
0.000000 0.000000 0.000000
0.001153 0.000000 0.000000
0.017573 0.000000 0.000000
0.052003 0.000000 0.000000
0.459057 0.000000 0.000000
0.707272 0.000000 0.000000
0.714711 0.000000 0.000000
0.000000 0.000098 0.000000
0.000381 0.000251 0.000000
0.021471 0.000004 0.000000
0.116377 0.000000 0.000000
0.439380 0.000000 0.000000
0.748487 0.000000 0.000000
0.885216 0.000000 0.000000
0.891503 0.000000 0.000000
0.000000 0.007623 0.000000
0.000000 0.008536 0.000000
0.044061 0.020912 0.000000
0.177924 0.005690 0.000000
0.449166 0.000748 0.000000
0.885125 0.036168 0.000000
0.918628 0.187077 0.000644
0.918505 0.224681 0.012032
0.000000 0.041799 0.000000
0.000000 0.053757 0.000000
0.023847 0.081037 0.000000
0.444840 0.249044 0.000000
0.741832 0.211268 0.000000
0.908119 0.202826 0.000000
0.928987 0.363440 0.000000
0.931777 0.505176 0.251706
0.000000 0.277239 0.000000
0.000000 0.279708 0.000000
0.004535 0.310211 0.000000
0.416939 0.456806 0.000000
0.830965 0.763068 0.105883
0.916261 0.727960 0.395943
0.951485 0.703351 0.418990
0.960792 0.765092 0.644044
0.014320 0.864955 0.000000
0.014563 0.868338 0.000000
0.035493 0.869384 0.000000
0.463708 0.851075 0.000000
0.863887 0.900697 0.181508
0.939332 0.936841 0.808614
0.960073 0.941461 0.908220
0.970444 0.938272 0.917660
0.494618 0.966077 0.622451
0.534129 0.962771 0.585318
0.578203 0.959078 0.541406
0.659430 0.949534 0.401486
0.873451 0.928596 0.084645
0.944597 0.964377 0.861735
0.967291 0.973980 0.940858
0.972514 0.974383 0.960994
0.809901 0.978204 0.879796
0.817032 0.979192 0.872507
0.824175 0.979406 0.859899
0.842622 0.978382 0.835803
0.900323 0.973965 0.759629
0.950104 0.977002 0.889807
0.968333 0.980467 0.955965
0.972605 0.981159 0.967335
0.000000 0.000000 0.009220
0.000066 0.000000 0.013665
0.003324 0.000000 0.010382
0.040966 0.000000 0.002387
0.157598 0.000000 0.000072
0.634490 0.000000 0.000000
0.805987 0.000000 0.000000
0.829922 0.000000 0.000000
0.000000 0.002457 0.018240
0.000000 0.004343 0.031860
0.025453 0.000025 0.026624
0.216337 0.000000 0.011221
0.562043 0.000000 0.001043
0.850487 0.000000 0.000000
0.901045 0.000000 0.012625
0.905857 0.004052 0.022039
0.000000 0.046404 0.036651
0.000000 0.052045 0.037544
0.059758 0.055091 0.045482
0.550880 0.064139 0.055256
0.615361 0.053712 0.003343
0.875649 0.112648 0.012908
0.925135 0.258991 0.167326
0.933403 0.386710 0.244472
0.000000 0.209545 0.003695
0.000000 0.172353 0.000000
0.001617 0.148670 0.000000
0.434701 0.339466 0.024011
0.737901 0.348847 0.069302
0.895299 0.382487 0.033474
0.940361 0.488180 0.208078
0.957468 0.648460 0.564102
0.000318 0.607510 0.000000
0.000000 0.573958 0.000000
0.000000 0.561237 0.000000
0.338037 0.517940 0.000000
0.836715 0.805863 0.427379
0.923136 0.793625 0.642022
0.961796 0.772376 0.613420
0.971419 0.835699 0.764998
0.030740 0.916500 0.194773
0.027929 0.914584 0.096517
0.069934 0.906721 0.007880
0.382659 0.893324 0.000000
0.858612 0.907951 0.203110
0.943151 0.944704 0.847318
0.965169 0.950730 0.926540
0.975488 0.948545 0.930949
0.595519 0.976468 0.747761
0.613813 0.973434 0.715580
0.634328 0.968624 0.665320
0.686778 0.960031 0.568836
0.869292 0.935527 0.187603
0.946549 0.967348 0.868784
0.969775 0.976516 0.946297
0.975257 0.977447 0.965071
0.829638 0.980698 0.900383
0.836686 0.981928 0.895457
0.842522 0.982383 0.885386
0.855544 0.981430 0.863054
0.903042 0.977358 0.794661
0.952111 0.978813 0.891224
0.971142 0.982714 0.959113
0.976577 0.984063 0.971362
0.000000 0.011852 0.242118
0.000000 0.010701 0.275428
0.017486 0.007358 0.265445
0.050504 0.000000 0.097409
0.174497 0.000000 0.069788
0.698421 0.000000 0.121316
0.896979 0.000000 0.117876
0.901642 0.000000 0.102029
0.000000 0.035342 0.290248
0.000000 0.041212 0.332793
0.040200 0.020945 0.337986
0.180766 0.001412 0.249816
0.513720 0.000000 0.229722
0.870361 0.001755 0.304257
0.912334 0.018515 0.320861
0.918361 0.108471 0.300797
0.000000 0.089041 0.342136
0.000000 0.108374 0.344226
0.032383 0.105680 0.346791
0.266313 0.058650 0.350428
0.681638 0.102838 0.394032
0.916506 0.124766 0.317801
0.929479 0.298098 0.381699
0.943367 0.488189 0.502751
0.000000 0.441099 0.507448
0.000000 0.406671 0.465879
0.000163 0.375013 0.428126
0.312141 0.323255 0.391410
0.903194 0.502022 0.583015
0.961110 0.664955 0.702332
0.962311 0.683837 0.671748
0.966403 0.720986 0.715524
0.022778 0.810577 0.508537
0.019519 0.793873 0.457723
0.014188 0.758399 0.383720
0.036320 0.707092 0.058564
0.811171 0.811358 0.625517
0.946336 0.860859 0.811801
0.974221 0.865601 0.809433
0.984738 0.895599 0.876571
0.371938 0.958484 0.772568
0.374586 0.954087 0.724985
0.325926 0.949052 0.623191
0.422117 0.935981 0.430492
0.826461 0.915020 0.209756
0.944351 0.951123 0.886128
0.972443 0.962129 0.948395
0.980072 0.959511 0.945786
0.745857 0.981645 0.881667
0.737614 0.982087 0.861469
0.740335 0.981635 0.835958
0.751538 0.977067 0.770631
0.854496 0.955962 0.544910
0.948137 0.971026 0.876133
0.973147 0.979979 0.954999
0.980200 0.981894 0.972447
0.871864 0.985161 0.934846
0.875537 0.986220 0.931819
0.878656 0.986760 0.926041
0.881184 0.985937 0.906862
0.906117 0.982309 0.856086
0.953531 0.981555 0.889348
0.975095 0.985790 0.963309
0.981484 0.987748 0.977283
0.000000 0.156430 0.681408
0.019963 0.161767 0.704559
0.062741 0.136360 0.717893
0.206218 0.064790 0.689834
0.378558 0.023542 0.537420
0.452839 0.000000 0.289930
0.902458 0.000000 0.494067
0.915743 0.028342 0.488494
0.000000 0.237366 0.718845
0.026324 0.251322 0.741278
0.100574 0.231343 0.749042
0.256843 0.152714 0.733664
0.502681 0.036321 0.651465
0.814941 0.002804 0.618353
0.928326 0.207465 0.649415
0.934205 0.327619 0.600747
0.000000 0.314342 0.724630
0.004349 0.340861 0.746426
0.087077 0.332684 0.750895
0.298771 0.269623 0.761861
0.597292 0.128188 0.727354
0.887048 0.188235 0.728822
0.941142 0.413601 0.692973
0.947150 0.501988 0.678700
0.004656 0.532800 0.816463
0.004298 0.529848 0.805258
0.005614 0.521995 0.794557
0.313600 0.493184 0.774743
0.683022 0.431931 0.782662
0.937125 0.631983 0.848296
0.970504 0.738536 0.851440
0.973073 0.766311 0.848089
0.398743 0.933415 0.938431
0.447070 0.928601 0.932550
0.469978 0.914811 0.918107
0.458896 0.867705 0.872601
0.672637 0.721990 0.760034
0.952223 0.860414 0.878778
0.988615 0.910341 0.924195
0.990019 0.919287 0.932946
0.688208 0.988797 0.952066
0.698860 0.987060 0.947345
0.707213 0.982586 0.937209
0.726672 0.967433 0.907244
0.711786 0.928100 0.744874
0.928132 0.943564 0.908937
0.974652 0.966057 0.957826
0.983917 0.969309 0.960147
0.871122 0.991491 0.963844
0.883418 0.990163 0.962188
0.891681 0.988394 0.958500
0.876152 0.985997 0.939676
0.861616 0.979034 0.882517
0.939860 0.973799 0.881444
0.975878 0.982989 0.966509
0.984182 0.986433 0.980834
0.936240 0.990614 0.973300
0.939192 0.990904 0.972867
0.936185 0.991237 0.969759
0.929249 0.991142 0.960080
0.923726 0.989093 0.938848
0.949013 0.985497 0.907406
0.978217 0.988043 0.967598
0.985929 0.990880 0.983311
0.113440 0.440966 0.914662
0.191311 0.450476 0.924340
0.256441 0.448678 0.930841
0.360209 0.400084 0.937660
0.524256 0.303512 0.923651
0.733908 0.073123 0.851854
0.874935 0.022212 0.748496
0.925832 0.113116 0.749035
0.126493 0.505469 0.926894
0.226264 0.519406 0.934589
0.291115 0.518737 0.939092
0.413437 0.481507 0.945989
0.583504 0.394213 0.932839
0.783421 0.129828 0.880286
0.923922 0.079545 0.838323
0.944013 0.415039 0.841155
0.093674 0.558933 0.928263
0.213373 0.579969 0.935609
0.298638 0.581205 0.938547
0.445485 0.561598 0.946190
0.638612 0.489768 0.940696
0.833570 0.313575 0.909555
0.940712 0.345881 0.883881
0.958085 0.591224 0.884345
0.035618 0.697678 0.945623
0.139665 0.712642 0.946543
0.267581 0.719887 0.945865
0.488437 0.718511 0.943413
0.706355 0.672281 0.942239
0.873148 0.604803 0.931335
0.961038 0.662471 0.920594
0.978073 0.802139 0.928375
0.170074 0.942301 0.995974
0.219062 0.941492 0.994329
0.297200 0.935605 0.988554
0.505404 0.910068 0.969870
0.733377 0.843683 0.928337
0.874567 0.829708 0.928298
0.958839 0.894980 0.946736
0.983141 0.931706 0.960904
0.918376 0.987820 0.986509
0.926830 0.988316 0.986863
0.932335 0.988120 0.986715
0.929902 0.985815 0.984340
0.870784 0.962244 0.962943
0.852515 0.893559 0.906369
0.970817 0.953794 0.957736
0.988902 0.973605 0.975110
0.960205 0.994215 0.990102
0.963250 0.994514 0.990520
0.964527 0.994600 0.990475
0.960828 0.994080 0.988706
0.938782 0.988715 0.975992
0.902822 0.972079 0.933165
0.967173 0.977825 0.967310
0.985091 0.987009 0.984234
0.970604 0.995384 0.991289
0.973630 0.995796 0.992060
0.975441 0.995929 0.992236
0.975903 0.995252 0.990783
0.968300 0.993205 0.984165
0.955321 0.989933 0.968073
0.974595 0.988371 0.967591
0.987036 0.991987 0.987290
0.390821 0.658831 0.976381
0.445247 0.667702 0.978550
0.485144 0.672253 0.980570
0.532493 0.660238 0.983977
0.644992 0.625507 0.988225
0.768820 0.541717 0.977338
0.858602 0.291098 0.938996
0.898419 0.246764 0.863563
0.420294 0.697441 0.977312
0.476025 0.707762 0.979149
0.508999 0.711657 0.980606
0.570775 0.700767 0.983822
0.683415 0.663960 0.986609
0.793368 0.583084 0.976950
0.884482 0.380640 0.947719
0.936982 0.411380 0.905978
0.418674 0.731913 0.977489
0.478522 0.746455 0.978557
0.520422 0.750509 0.979018
0.597411 0.748213 0.981240
0.719079 0.718447 0.984905
0.821032 0.648899 0.976300
0.909246 0.521155 0.957343
0.952001 0.575207 0.930851
0.446197 0.826628 0.979632
0.509632 0.837083 0.979225
0.556687 0.840692 0.978216
0.656134 0.843850 0.976762
0.777927 0.830317 0.978519
0.855169 0.790948 0.972755
0.924417 0.724958 0.964332
0.960140 0.758946 0.948478
0.535803 0.935900 0.993387
0.576153 0.935979 0.991760
0.628638 0.934938 0.989002
0.723523 0.927859 0.981548
0.829889 0.917704 0.972742
0.889650 0.907408 0.970984
0.939891 0.901273 0.969098
0.967514 0.911031 0.965791
0.867890 0.987284 0.993756
0.880226 0.987824 0.993663
0.890744 0.988026 0.993517
0.896019 0.986371 0.992642
0.884337 0.972418 0.985184
0.898672 0.943294 0.967313
0.943346 0.942664 0.968260
0.975715 0.965492 0.977718
0.976585 0.994217 0.993792
0.980884 0.995163 0.994800
0.984073 0.995795 0.995615
0.986429 0.996193 0.996060
0.983087 0.994847 0.994561
0.955058 0.984512 0.983547
0.924882 0.949606 0.954613
0.980057 0.978689 0.979052
0.985681 0.996333 0.995508
0.988772 0.997120 0.996451
0.990957 0.997658 0.997107
0.991887 0.997897 0.997271
0.989064 0.997194 0.996181
0.976771 0.993599 0.989956
0.955391 0.984821 0.970742
0.980023 0.987673 0.983252
0.597269 0.779703 0.965794
0.634234 0.789999 0.968639
0.657700 0.796414 0.970666
0.681225 0.796236 0.974175
0.733263 0.785762 0.981120
0.790591 0.754351 0.979944
0.842610 0.658936 0.969993
0.864403 0.510793 0.930560
0.625305 0.805431 0.968276
0.655463 0.813777 0.970846
0.675454 0.818970 0.973044
0.700349 0.817514 0.977106
0.756729 0.808080 0.982921
0.812467 0.777408 0.980787
0.860733 0.686168 0.972748
0.891770 0.575647 0.942166
0.636884 0.830775 0.971939
0.667554 0.840695 0.974449
0.691034 0.845460 0.976000
0.728368 0.849188 0.978399
0.789030 0.842493 0.983144
0.836957 0.818265 0.981532
0.878427 0.744359 0.974806
0.911779 0.679390 0.955175
0.672960 0.884240 0.977284
0.705497 0.891687 0.978065
0.727807 0.894393 0.978783
0.774981 0.899086 0.979816
0.831087 0.900196 0.982835
0.875444 0.890108 0.982932
0.907722 0.853602 0.977919
0.935543 0.818254 0.967562
0.728618 0.937480 0.986022
0.747325 0.939619 0.986221
0.772066 0.941323 0.986012
0.817495 0.942103 0.984943
0.872154 0.942969 0.983286
0.913094 0.941126 0.984187
0.939086 0.934941 0.981989
0.959965 0.929219 0.979375
0.842175 0.981549 0.994121
0.854782 0.982780 0.994165
0.870804 0.983080 0.993925
0.891635 0.981025 0.992095
0.912275 0.974949 0.988317
0.935737 0.968872 0.984305
0.953827 0.965406 0.983531
0.971427 0.967637 0.984175
0.960001 0.992432 0.993359
0.968317 0.993752 0.994516
0.974673 0.994728 0.995437
0.979770 0.995497 0.996216
0.978125 0.994745 0.995661
0.962310 0.988933 0.991273
0.951336 0.973289 0.980813
0.968151 0.973750 0.981698
0.984689 0.995380 0.995060
0.989824 0.996813 0.996710
0.993630 0.997906 0.997862
0.996129 0.998639 0.998624
0.996272 0.998598 0.998640
0.992528 0.997236 0.997229
0.975555 0.990213 0.989596
0.955697 0.971672 0.973149
