LUTS/Dam_Filmstock_KD_D55.cube
#Created by: Damian Krzywonos for Cities Skylines 2 Lumina mod
#LogC or linear to sRGB not completely sure
TITLE "Dam_Filmstock_KD_D55"
LUT_3D_SIZE 8
DOMAIN_MIN 0.000000 0.000000 0.000000
DOMAIN_MAX 0.903226 0.903226 0.903226
0.000000 0.000000 0.000000
0.000859 0.000000 0.000000
0.009136 0.000000 0.000000
0.065035 0.000000 0.000000
0.205071 0.000000 0.000000
0.479741 0.000000 0.000000
0.704299 0.000000 0.000000
0.661178 0.000000 0.000000
0.000000 0.000000 0.000000
0.001761 0.000098 0.000000
0.017423 0.000000 0.000000
0.086238 0.000000 0.000000
0.301453 0.000000 0.000000
0.676778 0.000000 0.000000
0.858141 0.000000 0.000000
0.857426 0.000000 0.000000
0.000000 0.004013 0.000000
0.000064 0.009656 0.000000
0.068275 0.015953 0.000000
0.246815 0.001456 0.000000
0.482969 0.000000 0.000000
0.828487 0.000000 0.000000
0.904995 0.013197 0.000000
0.910524 0.070813 0.000000
0.000000 0.048139 0.000000
0.006512 0.080117 0.000000
0.174474 0.135278 0.000000
0.526273 0.177963 0.000000
0.806714 0.093700 0.000000
0.909219 0.053384 0.000000
0.917407 0.194939 0.000000
0.928068 0.364966 0.000000
0.000000 0.320201 0.000000
0.016171 0.374034 0.000000
0.279657 0.455529 0.000000
0.716378 0.581076 0.000000
0.943594 0.724217 0.000000
0.951846 0.671077 0.000000
0.951599 0.657576 0.000000
0.961112 0.726291 0.201686
0.004276 0.737290 0.000000
0.107924 0.753091 0.000000
0.418431 0.777773 0.000000
0.756167 0.780621 0.000000
0.960038 0.905682 0.000000
0.984383 0.934471 0.447779
0.987561 0.934474 0.701751
0.988040 0.930534 0.757957
0.616229 0.923531 0.000000
0.664156 0.921263 0.000000
0.718660 0.918451 0.000000
0.826983 0.911599 0.000000
0.959735 0.912444 0.000000
0.987751 0.964442 0.678685
0.993517 0.971777 0.821901
0.993876 0.968976 0.858592
0.897517 0.958960 0.595781
0.905140 0.958203 0.587984
0.913489 0.957194 0.577369
0.932152 0.953434 0.532079
0.966400 0.948318 0.463431
0.987873 0.970785 0.744742
0.992962 0.978849 0.863700
0.994150 0.978567 0.887464
0.000000 0.000000 0.000000
0.000762 0.000000 0.000000
0.013457 0.000000 0.000000
0.079654 0.000000 0.000000
0.273818 0.000000 0.000000
0.593758 0.000000 0.000000
0.798309 0.000000 0.000000
0.794637 0.000000 0.000000
0.000000 0.000817 0.000000
0.003431 0.000969 0.000000
0.055466 0.000000 0.000000
0.243619 0.000000 0.000000
0.508078 0.000000 0.000000
0.822442 0.000000 0.000000
0.897028 0.000000 0.000000
0.899433 0.000000 0.000000
0.000000 0.008579 0.000000
0.000000 0.010315 0.000000
0.088865 0.025782 0.000000
0.289540 0.003389 0.000000
0.626461 0.000000 0.000000
0.907860 0.031259 0.000000
0.918762 0.209213 0.000000
0.920966 0.241746 0.000000
0.000000 0.052637 0.000000
0.000000 0.065678 0.000000
0.075502 0.106465 0.000000
0.502721 0.262792 0.000000
0.832091 0.207582 0.000000
0.919030 0.223992 0.000000
0.930236 0.402904 0.000000
0.942605 0.540612 0.006156
0.000000 0.394117 0.000000
0.000000 0.421205 0.000000
0.026190 0.463704 0.000000
0.588753 0.580389 0.000000
0.933605 0.779555 0.000000
0.962921 0.757269 0.085660
0.961489 0.739974 0.106377
0.969625 0.797072 0.400861
0.013428 0.863342 0.000000
0.047606 0.868754 0.000000
0.213974 0.871336 0.000000
0.602411 0.865293 0.000000
0.952930 0.910025 0.000000
0.987509 0.946134 0.611805
0.990288 0.948707 0.777850
0.990326 0.945815 0.797545
0.730475 0.940061 0.217046
0.752184 0.936922 0.166478
0.778871 0.933432 0.088523
0.825931 0.925308 0.000000
0.952679 0.911654 0.000000
0.988876 0.965798 0.692958
0.994374 0.976419 0.842071
0.995114 0.975958 0.884784
0.922934 0.967577 0.699488
0.926335 0.966503 0.688603
0.929749 0.964633 0.669487
0.938440 0.961345 0.633249
0.966811 0.951719 0.517323
0.988918 0.970570 0.742812
0.994507 0.981247 0.873914
0.995417 0.981446 0.898823
0.000000 0.000763 0.009947
0.000000 0.000000 0.016321
0.004647 0.000000 0.005312
0.038627 0.000000 0.000497
0.343402 0.000000 0.000000
0.729732 0.000000 0.000000
0.878549 0.000000 0.000000
0.893589 0.000000 0.000000
0.000000 0.003055 0.014503
0.000243 0.004981 0.023217
0.034206 0.000042 0.021808
0.239235 0.000000 0.005614
0.612390 0.000000 0.000000
0.893172 0.000000 0.000000
0.900006 0.000000 0.000000
0.904862 0.004739 0.000004
0.000000 0.039930 0.021037
0.000000 0.045209 0.021774
0.074561 0.049850 0.023796
0.605073 0.051695 0.007484
0.675518 0.038639 0.000000
0.913950 0.105762 0.000000
0.925031 0.287427 0.000000
0.933907 0.424498 0.011300
0.000000 0.183369 0.000532
0.000000 0.158826 0.000000
0.002643 0.161531 0.000000
0.510802 0.333546 0.001402
0.838880 0.346483 0.000000
0.931292 0.406744 0.000000
0.941258 0.527105 0.000000
0.958582 0.692206 0.299253
0.000000 0.596768 0.000000
0.000000 0.576754 0.000000
0.000000 0.581997 0.000000
0.443560 0.617446 0.000000
0.940534 0.819247 0.068346
0.971406 0.816030 0.376591
0.969739 0.802579 0.348603
0.977712 0.858346 0.570796
0.117969 0.908024 0.000000
0.181387 0.907355 0.000000
0.318752 0.902488 0.000000
0.578793 0.896129 0.000000
0.949251 0.912957 0.001451
0.989050 0.952835 0.671955
0.991736 0.956616 0.812676
0.991771 0.955034 0.823711
0.799011 0.950890 0.459443
0.809523 0.947358 0.399987
0.820488 0.942296 0.298497
0.849546 0.934254 0.132190
0.950109 0.915275 0.000000
0.989326 0.966933 0.705356
0.994845 0.978661 0.854201
0.995580 0.978650 0.894340
0.932704 0.971057 0.737040
0.935888 0.970227 0.729244
0.938672 0.968648 0.713813
0.944684 0.965343 0.679903
0.967843 0.956054 0.575557
0.989618 0.970870 0.745732
0.995171 0.983089 0.882197
0.996392 0.983826 0.908858
0.000000 0.014125 0.150587
0.004204 0.013004 0.176261
0.025470 0.002484 0.176262
0.065937 0.000000 0.068921
0.161147 0.000000 0.030433
0.780918 0.000000 0.038479
0.899733 0.000000 0.022856
0.899760 0.000000 0.016196
0.000000 0.033919 0.180779
0.006240 0.040405 0.218573
0.054603 0.024394 0.228304
0.199478 0.000080 0.169571
0.556479 0.000000 0.133622
0.905917 0.001073 0.142722
0.911175 0.023546 0.154298
0.917834 0.130378 0.111119
0.000000 0.076128 0.209055
0.000000 0.093219 0.220522
0.058972 0.096161 0.226845
0.299494 0.056954 0.233645
0.768978 0.084987 0.224508
0.918080 0.134322 0.128445
0.929713 0.339000 0.151008
0.944511 0.536048 0.253649
0.000000 0.412015 0.317116
0.000000 0.380290 0.285214
0.020300 0.354224 0.258224
0.397407 0.311785 0.220648
0.945347 0.533324 0.353414
0.962370 0.710398 0.502430
0.963460 0.727677 0.457477
0.967400 0.762160 0.514912
0.014293 0.791186 0.197991
0.012329 0.781056 0.146610
0.047355 0.754574 0.082286
0.175175 0.708629 0.000000
0.924990 0.821749 0.326642
0.980479 0.876915 0.630112
0.981213 0.883826 0.632941
0.985458 0.909946 0.732803
0.662734 0.947250 0.510164
0.657305 0.943717 0.432238
0.618407 0.937587 0.245425
0.662269 0.925102 0.029991
0.928989 0.914544 0.004441
0.989686 0.957580 0.734874
0.993543 0.966065 0.857433
0.993311 0.964552 0.853963
0.889750 0.967745 0.694237
0.884720 0.964717 0.660193
0.885312 0.961089 0.618346
0.890075 0.952848 0.511156
0.943209 0.931973 0.115436
0.989242 0.968334 0.719041
0.995482 0.981199 0.873396
0.996311 0.982242 0.911567
0.952621 0.978246 0.809837
0.954467 0.977718 0.805371
0.956106 0.976575 0.795001
0.957304 0.972791 0.758837
0.968960 0.964634 0.676829
0.989901 0.970638 0.743422
0.996177 0.985564 0.892541
0.997043 0.986824 0.923641
0.031451 0.145561 0.522179
0.069923 0.155392 0.546741
0.123173 0.129711 0.561925
0.251871 0.058529 0.542199
0.428725 0.005389 0.434642
0.671499 0.000000 0.269798
0.906914 0.000000 0.353462
0.913993 0.034494 0.328380
0.028191 0.224638 0.556562
0.096214 0.240519 0.580375
0.194521 0.220876 0.591639
0.337658 0.146376 0.582537
0.558480 0.010639 0.512755
0.894912 0.000097 0.468664
0.927222 0.234505 0.491759
0.934592 0.376961 0.421150
0.000000 0.293787 0.556068
0.070257 0.326847 0.580639
0.198890 0.322086 0.587850
0.404941 0.261880 0.604077
0.694042 0.112707 0.573924
0.926696 0.198012 0.571560
0.941674 0.461299 0.520574
0.948672 0.556349 0.495403
0.001507 0.512393 0.629795
0.001445 0.517660 0.625755
0.070413 0.515837 0.618596
0.464305 0.491974 0.597765
0.813945 0.433977 0.605174
0.961327 0.670421 0.684688
0.971416 0.776695 0.695916
0.973916 0.802672 0.694086
0.682170 0.917935 0.775313
0.713317 0.913780 0.767728
0.720658 0.901050 0.747415
0.694250 0.858119 0.682353
0.825382 0.730296 0.543486
0.981762 0.875252 0.727895
0.988039 0.921690 0.813614
0.989204 0.929732 0.830326
0.863297 0.978267 0.814963
0.868323 0.977193 0.806584
0.870745 0.973951 0.788544
0.878213 0.961504 0.738418
0.865718 0.925207 0.481951
0.982560 0.948437 0.771732
0.994255 0.969241 0.877424
0.994749 0.972522 0.885127
0.952434 0.984979 0.870275
0.957672 0.984825 0.869369
0.961320 0.983903 0.863221
0.954196 0.979541 0.821768
0.947761 0.968591 0.713582
0.985076 0.969102 0.726481
0.996151 0.983198 0.898724
0.997043 0.985629 0.931198
0.979939 0.987320 0.905112
0.981114 0.987677 0.904920
0.980053 0.987353 0.897655
0.977506 0.985164 0.875854
0.975846 0.980012 0.830392
0.987321 0.973839 0.774783
0.996660 0.987291 0.902719
0.997593 0.989414 0.938151
0.280280 0.436410 0.755548
0.358480 0.446920 0.766175
0.421912 0.445261 0.774553
0.510382 0.394520 0.784162
0.654480 0.293133 0.771477
0.836898 0.025390 0.702267
0.914588 0.000000 0.607675
0.924106 0.137466 0.604456
0.312418 0.503916 0.766700
0.412230 0.517633 0.776337
0.475058 0.518035 0.781357
0.575044 0.480737 0.790410
0.725698 0.389145 0.778326
0.896480 0.111186 0.730152
0.923739 0.094700 0.699413
0.944555 0.464833 0.690835
0.298278 0.557906 0.766649
0.421486 0.579071 0.775112
0.498626 0.580913 0.777866
0.620165 0.561948 0.787697
0.789617 0.493398 0.783415
0.933553 0.321092 0.759972
0.940428 0.388343 0.743187
0.959310 0.638946 0.735738
0.272618 0.696209 0.783290
0.414503 0.710812 0.783551
0.518621 0.717839 0.782503
0.690084 0.718849 0.779201
0.856049 0.682420 0.784699
0.959107 0.632250 0.782313
0.965827 0.701899 0.783283
0.978189 0.826755 0.807411
0.472294 0.921102 0.865128
0.543891 0.920841 0.863084
0.634772 0.915517 0.855265
0.746677 0.894638 0.828834
0.882639 0.843197 0.772855
0.965296 0.840220 0.789064
0.986598 0.902585 0.843783
0.990912 0.937567 0.879931
0.971446 0.983448 0.927589
0.974991 0.984189 0.930392
0.977127 0.984304 0.931409
0.976329 0.982388 0.925163
0.951626 0.959987 0.864272
0.949383 0.896367 0.754756
0.992951 0.957650 0.873847
0.995685 0.975551 0.916854
0.988246 0.990725 0.947332
0.989399 0.991109 0.949295
0.989870 0.991309 0.949644
0.988578 0.990728 0.944404
0.980661 0.985681 0.910893
0.967285 0.972334 0.812392
0.993510 0.978454 0.896767
0.997230 0.985951 0.938606
0.991994 0.992366 0.953393
0.993123 0.992894 0.956248
0.993801 0.993134 0.957166
0.994060 0.992584 0.953744
0.991696 0.990648 0.936407
0.987818 0.987521 0.898502
0.995515 0.987327 0.901797
0.997869 0.990154 0.947047
0.598528 0.658034 0.821564
0.646502 0.668514 0.826134
0.681728 0.673465 0.830153
0.721461 0.662984 0.835738
0.809443 0.631327 0.845545
0.903338 0.553424 0.836364
0.936451 0.303204 0.795927
0.932765 0.265246 0.718136
0.634114 0.697002 0.824559
0.683448 0.707789 0.828546
0.711819 0.712306 0.831533
0.759362 0.703834 0.838394
0.840148 0.672547 0.847082
0.924282 0.598360 0.837496
0.942834 0.406226 0.808520
0.944935 0.451181 0.763737
0.642221 0.729747 0.825862
0.695694 0.743516 0.829488
0.728571 0.747986 0.832072
0.784485 0.747397 0.838584
0.871477 0.725971 0.849425
0.940710 0.667824 0.841594
0.953893 0.554444 0.824804
0.958497 0.617034 0.794354
0.692632 0.816477 0.834843
0.736472 0.827607 0.837794
0.767199 0.831554 0.839257
0.835244 0.838053 0.843766
0.909489 0.832014 0.858933
0.956280 0.802533 0.854190
0.971497 0.750575 0.844652
0.974639 0.786349 0.829946
0.772440 0.918937 0.874496
0.795725 0.920225 0.874624
0.827256 0.920654 0.874272
0.877934 0.918169 0.871172
0.935466 0.914145 0.869163
0.966956 0.907818 0.874675
0.987481 0.904938 0.880027
0.988746 0.916551 0.881861
0.948902 0.980400 0.931213
0.954417 0.981390 0.934021
0.959021 0.981947 0.936108
0.961521 0.980785 0.934865
0.956805 0.968481 0.913293
0.967150 0.943042 0.874946
0.988186 0.944657 0.886285
0.994787 0.967379 0.916158
0.994016 0.991262 0.960451
0.995605 0.992306 0.964764
0.996747 0.993055 0.967903
0.997692 0.993599 0.970055
0.996453 0.992202 0.964558
0.986865 0.982489 0.929149
0.978867 0.951231 0.856815
0.996203 0.979224 0.924048
0.997354 0.993812 0.968383
0.998569 0.994663 0.972402
0.998933 0.995221 0.974956
0.999006 0.995451 0.975966
0.998587 0.994753 0.971849
0.994446 0.991031 0.951289
0.987828 0.983398 0.902621
0.996738 0.986342 0.935563
0.786366 0.776986 0.817567
0.812100 0.788169 0.824447
0.830457 0.793797 0.829586
0.848770 0.794146 0.836846
0.885972 0.788075 0.851161
0.919526 0.763059 0.852432
0.952917 0.680524 0.835267
0.951548 0.536193 0.780152
0.807782 0.801236 0.824370
0.830308 0.810711 0.831673
0.846683 0.816816 0.835916
0.864293 0.816792 0.844540
0.898362 0.810558 0.859999
0.930693 0.785589 0.860002
0.962788 0.708455 0.842820
0.957605 0.605288 0.800504
0.818879 0.826308 0.833237
0.843348 0.836212 0.839516
0.859626 0.841599 0.845203
0.881876 0.846106 0.854304
0.915005 0.843329 0.870222
0.944441 0.825959 0.870276
0.971585 0.762923 0.854537
0.967245 0.709577 0.824314
0.851171 0.873660 0.851149
0.869356 0.882222 0.858026
0.881303 0.885635 0.862708
0.906153 0.892738 0.871541
0.937770 0.897018 0.885083
0.961408 0.889343 0.891149
0.981386 0.859600 0.881030
0.979935 0.833964 0.863616
0.880195 0.927473 0.881169
0.889443 0.930331 0.884681
0.903050 0.933369 0.888197
0.927054 0.936445 0.894090
0.953669 0.939957 0.901364
0.973878 0.939995 0.909921
0.986942 0.935600 0.909493
0.990862 0.931848 0.908035
0.937091 0.974439 0.925183
0.943033 0.975924 0.928108
0.950130 0.977026 0.930749
0.959626 0.976059 0.931053
0.969094 0.971809 0.926095
0.980457 0.967683 0.921427
0.988432 0.965708 0.923087
0.995148 0.968516 0.928789
0.987836 0.988878 0.954264
0.990872 0.990406 0.959762
0.993085 0.991596 0.964397
0.995042 0.992492 0.968001
0.994464 0.991691 0.965887
0.989013 0.985992 0.948930
0.986624 0.972539 0.918891
0.993777 0.973861 0.924901
0.996983 0.992675 0.966574
0.998758 0.994324 0.973112
0.999034 0.995527 0.977595
0.999183 0.996220 0.980293
0.999183 0.996221 0.980312
0.998932 0.994934 0.975339
0.994218 0.987990 0.949074
0.988911 0.972012 0.904257
