LUTS/Dam_Filmstock_FJ_D55.cube
#Created by: Damian Krzywonos for Cities Skylines 2 Lumina mod
#unity log or linear to sRGB not completely sure
TITLE "Dam"
LUT_3D_SIZE 32
DOMAIN_MIN 0.0 0.0 0.0
DOMAIN_MAX 1.0 1.0 1.0
0.000000 0.000000 0.000000
0.000000 0.000000 0.000000
0.000000 0.000000 0.000000
0.000000 0.000000 0.000000
0.000000 0.000000 0.000000
0.000000 0.000000 0.000000
0.000000 0.000000 0.000000
0.000172 0.000000 0.000000
0.001153 0.000000 0.000000
0.002712 0.000000 0.000000
0.005005 0.000000 0.000000
0.009453 0.000000 0.000000
0.015224 0.000000 0.000000
0.021797 0.000000 0.000000
0.028838 0.000000 0.000000
0.036979 0.000000 0.000000
0.047532 0.000000 0.000000
0.060096 0.000000 0.000000
0.075594 0.000000 0.000000
0.098368 0.000000 0.000000
0.218893 0.000000 0.000000
0.343910 0.000000 0.000000
0.417922 0.000000 0.000000
0.473323 0.000000 0.000000
0.594777 0.000000 0.000000
0.634160 0.000000 0.000000
0.632431 0.000000 0.000000
0.618276 0.000000 0.000000
0.593430 0.000000 0.000000
0.556680 0.000000 0.000000
0.511860 0.000000 0.000000
0.459251 0.000000 0.000000
0.000000 0.000000 0.000000
0.000000 0.000000 0.000000
0.000000 0.000000 0.000000
0.000000 0.000000 0.000000
0.000000 0.000000 0.000000
0.000000 0.000000 0.000000
0.000148 0.000000 0.000000
0.000932 0.000000 0.000000
0.001904 0.000000 0.000000
0.003932 0.000000 0.000000
0.007549 0.000000 0.000000
0.012779 0.000000 0.000000
0.019347 0.000000 0.000000
0.026393 0.000000 0.000000
0.034481 0.000000 0.000000
0.044624 0.000000 0.000000
0.056855 0.000000 0.000000
0.074694 0.000000 0.000000
0.168203 0.000000 0.000000
0.292782 0.000000 0.000000
0.383968 0.000000 0.000000
0.461091 0.000000 0.000000
0.610741 0.000000 0.000000
0.687531 0.000000 0.000000
0.714303 0.000000 0.000000
0.729050 0.000000 0.000000
0.731992 0.000000 0.000000
0.723318 0.000000 0.000000
0.705173 0.000000 0.000000
0.676960 0.000000 0.000000
0.641794 0.000000 0.000000
0.598141 0.000000 0.000000
0.000000 0.000000 0.000000
0.000000 0.000000 0.000000
0.000000 0.000000 0.000000
0.000000 0.000000 0.000000
0.000000 0.000000 0.000000
0.000000 0.000000 0.000000
0.000148 0.000000 0.000000
0.000932 0.000000 0.000000
0.001904 0.000000 0.000000
0.004135 0.000000 0.000000
0.008288 0.000000 0.000000
0.013518 0.000000 0.000000
0.020356 0.000000 0.000000
0.027894 0.000000 0.000000
0.036315 0.000000 0.000000
0.047256 0.000000 0.000000
0.066322 0.000000 0.000000
0.143277 0.000000 0.000000
0.252640 0.000000 0.000000
0.343787 0.000000 0.000000
0.427298 0.000000 0.000000
0.583776 0.000000 0.000000
0.683534 0.000000 0.000000
0.725360 0.000000 0.000000
0.751958 0.000000 0.000000
0.767301 0.000000 0.000000
0.771939 0.000000 0.000000
0.766545 0.000000 0.000000
0.749825 0.000000 0.000000
0.725407 0.000000 0.000000
0.692584 0.000000 0.000000
0.652168 0.000000 0.000000
0.000000 0.000000 0.000000
0.000000 0.000000 0.000000
0.000000 0.000000 0.000000
0.000000 0.000000 0.000000
0.000042 0.000000 0.000000
0.000029 0.000000 0.000000
0.000148 0.000000 0.000000
0.000980 0.000000 0.000000
0.001977 0.000000 0.000000
0.004156 0.000000 0.000000
0.008288 0.000000 0.000000
0.013518 0.000000 0.000000
0.020299 0.000000 0.000000
0.028160 0.000000 0.000000
0.037023 0.000000 0.000000
0.048350 0.000000 0.000000
0.106348 0.000000 0.000000
0.195690 0.000000 0.000000
0.282929 0.000000 0.000000
0.375131 0.000000 0.000000
0.458046 0.000000 0.000000
0.614709 0.000000 0.000000
0.712685 0.000000 0.000000
0.752255 0.000000 0.000000
0.780489 0.000000 0.000000
0.797067 0.000000 0.000000
0.802086 0.000000 0.000000
0.797334 0.000000 0.000000
0.782957 0.000000 0.000000
0.759889 0.000000 0.000000
0.730109 0.000000 0.000000
0.694405 0.000000 0.000000
0.000000 0.000000 0.000000
0.000000 0.000000 0.000000
0.000000 0.000000 0.000000
0.000000 0.000000 0.000000
0.000098 0.000000 0.000000
0.000754 0.000000 0.000000
0.000463 0.000000 0.000000
0.001306 0.000000 0.000000
0.002762 0.000000 0.000000
0.004831 0.000000 0.000000
0.008483 0.000000 0.000000
0.013641 0.000000 0.000000
0.020163 0.000000 0.000000
0.027761 0.000000 0.000000
0.037102 0.000000 0.000000
0.048832 0.000000 0.000000
0.108941 0.000000 0.000000
0.208672 0.000000 0.000000
0.305392 0.000000 0.000000
0.402087 0.000000 0.000000
0.484640 0.000000 0.000000
0.613641 0.000000 0.000000
0.730796 0.000000 0.000000
0.777362 0.000000 0.000000
0.804970 0.000000 0.000000
0.822866 0.000000 0.000000
0.829615 0.000000 0.000000
0.826761 0.000000 0.000000
0.814658 0.000000 0.000000
0.794091 0.000000 0.000000
0.769444 0.000000 0.000000
0.734055 0.000000 0.000000
0.000000 0.000000 0.000000
0.000000 0.000123 0.000000
0.000000 0.000123 0.000000
0.000000 0.000167 0.000000
0.000098 0.000244 0.000000
0.001025 0.000244 0.000000
0.002417 0.000171 0.000000
0.004996 0.000045 0.000000
0.005821 0.000000 0.000000
0.008584 0.000000 0.000000
0.011118 0.000000 0.000000
0.015194 0.000000 0.000000
0.021283 0.000000 0.000000
0.028758 0.000000 0.000000
0.038076 0.000000 0.000000
0.050616 0.000000 0.000000
0.113721 0.000000 0.000000
0.221463 0.000000 0.000000
0.331067 0.000000 0.000000
0.428862 0.000000 0.000000
0.511217 0.000000 0.000000
0.575166 0.000000 0.000000
0.723336 0.000000 0.000000
0.800453 0.000000 0.000000
0.828450 0.000000 0.000000
0.847606 0.000000 0.000000
0.855832 0.000000 0.000000
0.854502 0.000000 0.000000
0.846647 0.000000 0.000000
0.828962 0.000000 0.000000
0.803016 0.000000 0.000000
0.768443 0.000000 0.000000
0.000000 0.000148 0.000000
0.000000 0.000908 0.000000
0.000000 0.000939 0.000000
0.000000 0.001082 0.000000
0.000098 0.001778 0.000000
0.001277 0.002025 0.000000
0.004553 0.001952 0.000000
0.010442 0.001086 0.000000
0.018711 0.000155 0.000000
0.027234 0.000000 0.000000
0.032273 0.000000 0.000000
0.029785 0.000000 0.000000
0.037609 0.000000 0.000000
0.049156 0.000000 0.000000
0.064033 0.000000 0.000000
0.083992 0.000000 0.000000
0.160896 0.000000 0.000000
0.281822 0.000000 0.000000
0.382102 0.000000 0.000000
0.474199 0.000000 0.000000
0.549073 0.000000 0.000000
0.607003 0.000000 0.000000
0.754498 0.000000 0.000000
0.828246 0.000000 0.000000
0.856499 0.000000 0.000000
0.876051 0.000000 0.000000
0.884634 0.000000 0.000000
0.884646 0.000000 0.000000
0.875684 0.000000 0.000000
0.858690 0.001598 0.000000
0.833104 0.004095 0.000000
0.795568 0.007478 0.000000
0.000000 0.001104 0.000000
0.000000 0.001872 0.000000
0.000000 0.002073 0.000000
0.000000 0.002835 0.000000
0.000035 0.003216 0.000000
0.001201 0.004916 0.000000
0.006567 0.005869 0.000000
0.016332 0.005258 0.000000
0.029530 0.003459 0.000000
0.046474 0.001257 0.000000
0.064582 0.000555 0.000000
0.084405 0.000098 0.000000
0.107428 0.000000 0.000000
0.133680 0.000000 0.000000
0.167000 0.000000 0.000000
0.211726 0.000000 0.000000
0.287158 0.000000 0.000000
0.387927 0.000000 0.000000
0.475942 0.000000 0.000000
0.552955 0.000000 0.000000
0.616321 0.000000 0.000000
0.667776 0.000000 0.000000
0.805328 0.000000 0.000000
0.870959 0.000000 0.000000
0.889996 0.000000 0.000000
0.899960 0.000000 0.000000
0.902736 0.003474 0.000000
0.904347 0.007096 0.000000
0.899152 0.010212 0.000000
0.882562 0.018904 0.000000
0.853071 0.031913 0.000000
0.799439 0.049586 0.000000
0.000000 0.003250 0.000000
0.000000 0.004055 0.000000
0.000000 0.005040 0.000000
0.000000 0.006087 0.000000
0.000000 0.007359 0.000000
0.000610 0.009857 0.000000
0.006425 0.012574 0.000000
0.022694 0.014584 0.000000
0.042032 0.013854 0.000000
0.065904 0.010670 0.000000
0.095081 0.007347 0.000000
0.128945 0.004003 0.000000
0.165509 0.001743 0.000000
0.206926 0.000341 0.000000
0.246911 0.000000 0.000000
0.292913 0.000000 0.000000
0.351057 0.000000 0.000000
0.423326 0.000000 0.000000
0.505071 0.000000 0.000000
0.585329 0.000000 0.000000
0.653952 0.000000 0.000000
0.713852 0.000000 0.000000
0.848869 0.000000 0.000000
0.900467 0.000000 0.000000
0.904354 0.010319 0.000000
0.906532 0.021953 0.000000
0.908111 0.036961 0.000000
0.909294 0.052280 0.000000
0.910146 0.064700 0.000000
0.894852 0.077902 0.000000
0.852236 0.092317 0.000000
0.797312 0.111567 0.000000
0.000000 0.007599 0.000000
0.000000 0.008868 0.000000
0.000000 0.010701 0.000000
0.000000 0.012755 0.000000
0.000000 0.015406 0.000000
0.000695 0.018301 0.000000
0.007040 0.022416 0.000000
0.025194 0.026906 0.000000
0.057171 0.030715 0.000000
0.089680 0.028903 0.000000
0.129745 0.025075 0.000000
0.176281 0.020477 0.000000
0.225069 0.014776 0.000000
0.267203 0.008751 0.000000
0.315193 0.003647 0.000000
0.368464 0.001001 0.000000
0.427512 0.000084 0.000000
0.487255 0.000000 0.000000
0.549329 0.000000 0.000000
0.612591 0.000000 0.000000
0.669613 0.000000 0.000000
0.720874 0.000000 0.000000
0.854380 0.000000 0.000000
0.905016 0.003258 0.000000
0.908384 0.038842 0.000000
0.911760 0.086723 0.000000
0.913708 0.122789 0.000000
0.914720 0.141742 0.000000
0.913834 0.152950 0.000000
0.887527 0.170902 0.000000
0.856443 0.205432 0.000000
0.829133 0.253664 0.014739
0.000000 0.014056 0.000000
0.000000 0.016964 0.000000
0.000000 0.020265 0.000000
0.000000 0.023439 0.000000
0.000000 0.026931 0.000000
0.001167 0.031184 0.000000
0.009404 0.035804 0.000000
0.030725 0.041832 0.000000
0.067351 0.048348 0.000000
0.122295 0.052936 0.000000
0.171921 0.050731 0.000000
0.225947 0.046016 0.000000
0.273572 0.039417 0.000000
0.328251 0.032025 0.000000
0.383783 0.023174 0.000000
0.439694 0.013455 0.000000
0.497763 0.005471 0.000000
0.553536 0.001346 0.000000
0.604992 0.000117 0.000000
0.652287 0.000000 0.000000
0.697921 0.000000 0.000000
0.741698 0.000000 0.000000
0.860900 0.005769 0.000000
0.906785 0.017600 0.000000
0.910121 0.063090 0.000000
0.913605 0.121205 0.000000
0.916250 0.175306 0.000000
0.917980 0.208363 0.000000
0.914977 0.233399 0.000000
0.884150 0.263619 0.000000
0.887449 0.346079 0.000000
0.910751 0.449763 0.078135
0.000000 0.024269 0.000000
0.000000 0.029587 0.000000
0.000000 0.035210 0.000000
0.000000 0.038691 0.000000
0.000218 0.042920 0.000000
0.002867 0.047816 0.000000
0.015844 0.053831 0.000000
0.041009 0.060876 0.000000
0.081890 0.069203 0.000000
0.144515 0.077308 0.000000
0.224431 0.083637 0.000000
0.274247 0.080367 0.000000
0.330281 0.073063 0.000000
0.388994 0.063863 0.000000
0.447828 0.052967 0.000000
0.507990 0.040825 0.000000
0.565997 0.028450 0.000000
0.618667 0.016840 0.000000
0.664799 0.008390 0.000000
0.702019 0.004470 0.000000
0.734538 0.002163 0.000000
0.768701 0.001884 0.000000
0.868817 0.020232 0.000000
0.909220 0.049674 0.000000
0.912638 0.105029 0.000000
0.915982 0.168445 0.000000
0.918404 0.214022 0.000000
0.920282 0.245020 0.000000
0.918711 0.275661 0.000000
0.895105 0.318898 0.000000
0.909605 0.414120 0.008009
0.930319 0.510630 0.162896
0.000000 0.040204 0.000000
0.000000 0.049709 0.000000
0.000000 0.055593 0.000000
0.000057 0.059886 0.000000
0.001487 0.064962 0.000000
0.008961 0.070521 0.000000
0.027845 0.077692 0.000000
0.058436 0.086678 0.000000
0.106166 0.097081 0.000000
0.172808 0.109112 0.000000
0.254017 0.121429 0.000000
0.332657 0.130625 0.000000
0.393105 0.124438 0.000000
0.450600 0.112384 0.000000
0.510708 0.098382 0.000000
0.574414 0.082994 0.000000
0.633028 0.067121 0.000000
0.681853 0.052786 0.000000
0.722942 0.040695 0.000000
0.754306 0.030069 0.000000
0.779499 0.022200 0.000000
0.829963 0.035494 0.000000
0.882355 0.055421 0.000000
0.912534 0.105704 0.000000
0.915934 0.166212 0.000000
0.918917 0.222569 0.000000
0.921279 0.262343 0.000000
0.923755 0.301317 0.000000
0.924374 0.337989 0.000000
0.915848 0.396614 0.000000
0.929528 0.481782 0.052852
0.943742 0.564302 0.241662
0.000000 0.067206 0.000000
0.000000 0.080113 0.000000
0.000276 0.085324 0.000000
0.003118 0.090821 0.000000
0.009359 0.097400 0.000000
0.024512 0.105001 0.000000
0.048725 0.114687 0.000000
0.086404 0.126767 0.000000
0.140452 0.142064 0.000000
0.213955 0.157252 0.000000
0.288603 0.171967 0.000000
0.375447 0.186545 0.000000
0.456648 0.195825 0.000000
0.515194 0.186226 0.000000
0.574938 0.171811 0.000000
0.638579 0.155858 0.000000
0.736636 0.172571 0.000000
0.791486 0.160577 0.000000
0.821320 0.141803 0.000000
0.839362 0.129158 0.000000
0.852432 0.120800 0.000000
0.888787 0.134757 0.000000
0.915680 0.157992 0.000000
0.917667 0.197744 0.000000
0.920593 0.251390 0.000000
0.923291 0.297392 0.000000
0.925967 0.338606 0.000000
0.929163 0.380946 0.000000
0.932033 0.421667 0.000000
0.935472 0.481452 0.021249
0.944457 0.552263 0.147870
0.952388 0.622114 0.324488
0.000000 0.108750 0.000000
0.000000 0.121330 0.000000
0.000423 0.128936 0.000000
0.007331 0.137508 0.000000
0.021402 0.147759 0.000000
0.042279 0.158664 0.000000
0.073580 0.169194 0.000000
0.120788 0.181989 0.000000
0.186082 0.197414 0.000000
0.256276 0.215198 0.000000
0.332946 0.230795 0.000000
0.417734 0.246276 0.000000
0.504200 0.262659 0.000000
0.582441 0.272948 0.000000
0.681552 0.315768 0.000000
0.750095 0.323325 0.000000
0.819294 0.335363 0.000000
0.903846 0.364717 0.000000
0.920874 0.339765 0.000000
0.924725 0.318079 0.000000
0.923946 0.306291 0.000000
0.923699 0.302870 0.000000
0.924256 0.311585 0.000000
0.925467 0.331766 0.000000
0.927440 0.364218 0.000000
0.930109 0.402015 0.000000
0.933213 0.439299 0.000000
0.936735 0.476735 0.000000
0.940678 0.515740 0.020625
0.945834 0.565188 0.112487
0.951824 0.621542 0.261106
0.958354 0.679345 0.408722
0.000000 0.166524 0.000000
0.000000 0.175407 0.000000
0.000068 0.184739 0.000000
0.004729 0.194036 0.000000
0.019726 0.204849 0.000000
0.044083 0.218043 0.000000
0.078859 0.230193 0.000000
0.132803 0.243744 0.000000
0.210396 0.258304 0.000000
0.282030 0.274696 0.000000
0.369661 0.294415 0.000000
0.458441 0.315216 0.000000
0.584004 0.383567 0.000000
0.684193 0.441029 0.000000
0.762859 0.481433 0.000000
0.857666 0.544210 0.000000
0.890287 0.541468 0.000000
0.919827 0.539342 0.000000
0.936355 0.527156 0.000000
0.937271 0.503210 0.000000
0.935701 0.482759 0.000000
0.934772 0.470521 0.000000
0.934668 0.469349 0.000000
0.935625 0.479591 0.000000
0.937277 0.497082 0.000000
0.939589 0.520056 0.000000
0.942609 0.547302 0.000000
0.945978 0.577094 0.037968
0.949650 0.608823 0.123478
0.953750 0.644132 0.249926
0.958687 0.686916 0.371520
0.963958 0.730501 0.484419
0.000000 0.235901 0.000000
0.000000 0.244403 0.000000
0.000000 0.251424 0.000000
0.000547 0.259455 0.000000
0.011141 0.268937 0.000000
0.035928 0.281585 0.000000
0.070409 0.296596 0.000000
0.124918 0.313056 0.000000
0.205834 0.329687 0.000000
0.284155 0.346999 0.000000
0.383173 0.367984 0.000000
0.481741 0.389260 0.000000
0.625639 0.475257 0.000000
0.776020 0.612305 0.000000
0.829561 0.660446 0.000000
0.876322 0.688564 0.000000
0.903794 0.691302 0.000000
0.925719 0.682666 0.000000
0.941575 0.667558 0.000000
0.949128 0.651517 0.000000
0.948881 0.634719 0.000000
0.947487 0.618242 0.000000
0.946911 0.610074 0.000000
0.947371 0.611423 0.000000
0.948792 0.620205 0.000000
0.950665 0.633257 0.031977
0.953027 0.650550 0.097195
0.955761 0.671454 0.180773
0.958596 0.692667 0.293570
0.961528 0.715142 0.387735
0.965137 0.743933 0.474931
0.969274 0.776101 0.557457
0.000000 0.317390 0.000000
0.000000 0.326471 0.000000
0.000000 0.332255 0.000000
0.000567 0.339199 0.000000
0.008392 0.348633 0.000000
0.033840 0.360531 0.000000
0.070124 0.374253 0.000000
0.127316 0.388881 0.000000
0.209863 0.403947 0.000000
0.289091 0.419840 0.000000
0.387441 0.437149 0.000000
0.488940 0.455501 0.000000
0.601761 0.488315 0.000000
0.766818 0.642159 0.000000
0.840300 0.735827 0.000000
0.887075 0.776094 0.000000
0.914890 0.787476 0.000000
0.929229 0.783481 0.000000
0.940568 0.774790 0.000000
0.950299 0.764858 0.000000
0.956688 0.755714 0.000000
0.959483 0.745507 0.034522
0.960565 0.735864 0.108767
0.960589 0.730514 0.137802
0.961023 0.730148 0.163643
0.962014 0.734343 0.218282
0.963519 0.742776 0.306198
0.965331 0.753940 0.389427
0.967246 0.766340 0.462678
0.969037 0.778315 0.516800
0.971227 0.794382 0.567226
0.974001 0.815015 0.621344
0.000000 0.404094 0.000000
0.000154 0.412211 0.000000
0.003738 0.416922 0.000000
0.010912 0.421609 0.000000
0.023167 0.428272 0.000000
0.049423 0.437300 0.000000
0.090515 0.448010 0.000000
0.151683 0.459277 0.000000
0.231122 0.471704 0.000000
0.309758 0.484542 0.000000
0.400720 0.498709 0.000000
0.494596 0.513094 0.000000
0.595108 0.529383 0.000000
0.734902 0.622776 0.000000
0.852656 0.773536 0.000000
0.891153 0.817591 0.000000
0.919784 0.838391 0.000000
0.936085 0.846183 0.000000
0.944587 0.845114 0.000000
0.951558 0.841907 0.045229
0.957629 0.837279 0.118265
0.962427 0.832513 0.201209
0.965974 0.828146 0.308099
0.967731 0.824477 0.400558
0.969352 0.822427 0.460344
0.971648 0.821404 0.498497
0.973648 0.822220 0.537541
0.974525 0.825529 0.576216
0.975329 0.829335 0.608602
0.976074 0.833813 0.630876
0.977066 0.840247 0.655146
0.976735 0.844562 0.674871
0.011148 0.480422 0.000000
0.026003 0.487760 0.000000
0.037705 0.491638 0.000000
0.050954 0.495307 0.000000
0.069526 0.499606 0.000000
0.099031 0.505533 0.000000
0.144463 0.512971 0.000000
0.205448 0.521587 0.000000
0.274097 0.531000 0.000000
0.349120 0.541473 0.000000
0.428658 0.551890 0.000000
0.510504 0.562585 0.000000
0.600187 0.575318 0.000000
0.707380 0.602539 0.000000
0.843560 0.758079 0.000000
0.896487 0.843968 0.000000
0.920655 0.863403 0.000000
0.939218 0.880504 0.076587
0.950773 0.887448 0.164129
0.957086 0.888610 0.249208
0.961617 0.887640 0.347941
0.965304 0.886187 0.443557
0.968447 0.885162 0.526281
0.970965 0.884869 0.598722
0.973302 0.884977 0.660005
0.975915 0.885138 0.696228
0.978718 0.883445 0.707804
0.980402 0.882286 0.715872
0.981397 0.881449 0.723427
0.982006 0.881145 0.728831
0.981258 0.879684 0.733471
0.977936 0.873344 0.729236
0.109586 0.662638 0.000000
0.153397 0.666731 0.000000
0.173102 0.669392 0.000000
0.193187 0.671702 0.000000
0.221987 0.674548 0.000000
0.255157 0.678645 0.000000
0.279679 0.653086 0.000000
0.286756 0.577973 0.000000
0.345210 0.584831 0.000000
0.408624 0.592263 0.000000
0.474490 0.599998 0.000000
0.543118 0.608086 0.000000
0.618097 0.617576 0.000000
0.707200 0.629621 0.000000
0.822573 0.732133 0.000000
0.903364 0.864008 0.000000
0.923799 0.884028 0.000000
0.939124 0.897548 0.132408
0.952688 0.910323 0.350759
0.961037 0.916067 0.470433
0.965816 0.918254 0.552010
0.969146 0.919009 0.616515
0.971884 0.919455 0.670737
0.974426 0.920160 0.716266
0.976474 0.921192 0.756491
0.978620 0.921810 0.786988
0.980794 0.921416 0.801329
0.982706 0.919759 0.801512
0.984163 0.917851 0.800850
0.984148 0.914656 0.798116
0.982072 0.909060 0.791929
0.978656 0.901343 0.781902
0.159337 0.814400 0.000000
0.215390 0.816370 0.000000
0.237978 0.817360 0.000000
0.264168 0.817699 0.000000
0.297631 0.818492 0.000000
0.334052 0.820147 0.000000
0.366912 0.818728 0.000000
0.384820 0.767059 0.000000
0.446006 0.764501 0.000000
0.514179 0.759274 0.000000
0.586177 0.756964 0.000000
0.626523 0.710846 0.000000
0.654414 0.658668 0.000000
0.727067 0.667480 0.000000
0.830376 0.759997 0.000000
0.909531 0.881205 0.000000
0.927531 0.901126 0.000000
0.940652 0.912209 0.162335
0.951970 0.922064 0.421320
0.962387 0.931988 0.588276
0.968662 0.936698 0.657908
0.972317 0.938952 0.708563
0.975015 0.940215 0.748122
0.977367 0.941104 0.780633
0.979475 0.941945 0.807876
0.981490 0.942499 0.829357
0.982960 0.942769 0.845034
0.984138 0.941407 0.848974
0.984556 0.938358 0.844330
0.983964 0.933835 0.837671
0.981816 0.928444 0.830072
0.979223 0.922075 0.821308
0.265540 0.885590 0.000000
0.310964 0.886734 0.000000
0.332726 0.887007 0.000000
0.355865 0.886794 0.000000
0.380246 0.886484 0.000000
0.408435 0.886828 0.000000
0.436094 0.886811 0.000000
0.468700 0.886919 0.000000
0.512433 0.885234 0.000000
0.569398 0.880917 0.000000
0.630922 0.875378 0.000000
0.691477 0.867113 0.000000
0.727573 0.822647 0.000000
0.792405 0.819991 0.000000
0.858206 0.839484 0.000000
0.912377 0.897548 0.000000
0.930585 0.913094 0.000000
0.942687 0.924024 0.172166
0.952726 0.932217 0.452247
0.961477 0.939390 0.624050
0.969233 0.946550 0.713980
0.973929 0.950134 0.755994
0.977001 0.952310 0.788913
0.979601 0.953742 0.815664
0.981282 0.954367 0.836147
0.982624 0.954527 0.851650
0.983489 0.954178 0.862992
0.983880 0.952814 0.869730
0.983811 0.950237 0.870456
0.983183 0.946393 0.864633
0.982045 0.941802 0.857210
0.979909 0.936894 0.849744
0.427405 0.916223 0.000000
0.457196 0.915776 0.000000
0.472613 0.915413 0.000000
0.486804 0.915007 0.000000
0.501812 0.914372 0.000000
0.518609 0.913936 0.000000
0.537582 0.913281 0.000000
0.559328 0.912786 0.000000
0.583539 0.912504 0.000000
0.616860 0.911719 0.000000
0.661873 0.910373 0.000000
0.709918 0.908708 0.000000
0.761639 0.906343 0.000000
0.817621 0.903751 0.000000
0.873105 0.902438 0.000000
0.911018 0.907308 0.000000
0.931271 0.915667 0.000000
0.944324 0.931231 0.176664
0.954167 0.941114 0.468954
0.961773 0.946221 0.644368
0.968391 0.951651 0.734658
0.974170 0.956712 0.786136
0.977668 0.959148 0.811693
0.979895 0.960500 0.832274
0.981459 0.961196 0.849020
0.982401 0.961258 0.861998
0.983008 0.960799 0.871376
0.983222 0.959642 0.877747
0.983098 0.957736 0.881094
0.982632 0.955242 0.881361
0.981888 0.951884 0.878351
0.980570 0.947862 0.872065
0.570190 0.930935 0.009380
0.588865 0.929898 0.000000
0.597675 0.929302 0.000000
0.605835 0.928766 0.000000
0.615418 0.928138 0.000000
0.626007 0.927423 0.000000
0.638449 0.926660 0.000000
0.652837 0.925840 0.000000
0.668463 0.925054 0.000000
0.686414 0.924047 0.000000
0.713583 0.921824 0.000000
0.745803 0.918503 0.000000
0.782089 0.914749 0.000000
0.824796 0.911908 0.000000
0.871634 0.910499 0.000000
0.907832 0.910120 0.000000
0.929806 0.917721 0.000000
0.944780 0.934019 0.195503
0.955441 0.947046 0.489933
0.962957 0.952682 0.663286
0.968446 0.956372 0.749019
0.973557 0.960386 0.801010
0.977936 0.963626 0.832074
0.980125 0.964706 0.846730
0.981362 0.965216 0.859564
0.982283 0.965357 0.870007
0.982859 0.965054 0.878156
0.983073 0.964288 0.883697
0.982955 0.963031 0.887196
0.982607 0.961177 0.888716
0.981840 0.958725 0.888645
0.980941 0.955973 0.886726
0.682871 0.942990 0.276084
0.693566 0.942123 0.259429
0.697902 0.941721 0.253048
0.703350 0.941265 0.244526
0.709147 0.940707 0.236582
0.715697 0.940094 0.227644
0.723208 0.939487 0.217316
0.732044 0.938735 0.204585
0.741621 0.937955 0.192636
0.751976 0.937182 0.180736
0.766280 0.935549 0.149034
0.787729 0.932000 0.074618
0.813470 0.927607 0.015066
0.844130 0.922749 0.000000
0.877575 0.918749 0.000000
0.907779 0.918276 0.000000
0.929851 0.924815 0.035249
0.944873 0.938318 0.251183
0.956159 0.951710 0.525668
0.963887 0.958202 0.681418
0.969492 0.961127 0.763871
0.973788 0.963302 0.810801
0.977665 0.965885 0.842680
0.980307 0.967935 0.862215
0.981604 0.968351 0.871089
0.982421 0.968379 0.878943
0.982983 0.968101 0.885067
0.983208 0.967490 0.889489
0.983173 0.966604 0.892600
0.982765 0.965309 0.894359
0.982169 0.963570 0.895027
0.981187 0.961597 0.894536
0.759482 0.953574 0.492410
0.766779 0.952860 0.482666
0.770113 0.952561 0.478594
0.773176 0.952194 0.473487
0.776557 0.951844 0.468033
0.780977 0.951376 0.461869
0.786053 0.950798 0.454139
0.791867 0.950260 0.445718
0.798627 0.949740 0.437679
0.806038 0.949052 0.428355
0.815036 0.947996 0.412427
0.828144 0.945560 0.368294
0.845215 0.941964 0.299798
0.865733 0.937817 0.224414
0.889466 0.933870 0.148773
0.912335 0.932083 0.120796
0.931436 0.935848 0.211812
0.945737 0.945185 0.388034
0.956848 0.956331 0.576669
0.964830 0.962254 0.702021
0.970525 0.964652 0.777276
0.974874 0.966437 0.821927
0.977857 0.967839 0.849586
0.980164 0.969696 0.870338
0.981978 0.970868 0.882477
0.982717 0.970871 0.887579
0.983162 0.970604 0.891910
0.983380 0.970151 0.895589
0.983446 0.969274 0.898302
0.983118 0.968312 0.899799
0.982612 0.967050 0.900700
0.981871 0.965523 0.900498
0.813004 0.958082 0.616879
0.818145 0.958676 0.611843
0.820670 0.958800 0.609230
0.822743 0.958999 0.606604
0.825267 0.959086 0.603189
0.828173 0.959320 0.600212
0.831216 0.959439 0.596353
0.834477 0.959501 0.592394
0.838591 0.959387 0.588297
0.843600 0.958930 0.583564
0.849869 0.958263 0.576554
0.858331 0.956673 0.556825
0.870309 0.953842 0.520248
0.885416 0.950573 0.474750
0.902852 0.947519 0.429045
0.920139 0.945731 0.401283
0.934698 0.947296 0.432144
0.947261 0.953235 0.527684
