LUTS/Dam_Filmstock_FJ_D55.cube
#Created by: Damian Krzywonos for Cities Skylines 2 Lumina mod
#unity log or linear to sRGB not completely sure
TITLE "Dam"
LUT_3D_SIZE 5
DOMAIN_MIN 0.000000 0.000000 0.000000
DOMAIN_MAX 0.903226 0.903226 0.903226
0.000000 0.000000 0.000000
0.000172 0.000000 0.000000
0.028838 0.000000 0.000000
0.343910 0.000000 0.000000
0.593430 0.000000 0.000000
0.000000 0.001104 0.000000
0.016332 0.005258 0.000000
0.167000 0.000000 0.000000
0.667776 0.000000 0.000000
0.899152 0.010212 0.000000
0.000000 0.108750 0.000000
0.120788 0.181989 0.000000
0.681552 0.315768 0.000000
0.923699 0.302870 0.000000
0.940678 0.515740 0.020625
0.159337 0.814400 0.000000
0.384820 0.767059 0.000000
0.830376 0.759997 0.000000
0.972317 0.938952 0.708563
0.984556 0.938358 0.844330
0.846152 0.959972 0.691314
0.863510 0.962949 0.679581
0.915467 0.958438 0.592941
0.976166 0.971017 0.839877
0.984431 0.973852 0.909858
0.000000 0.000000 0.000686
0.001343 0.000000 0.002302
0.087926 0.000000 0.000000
0.656332 0.000000 0.000000
0.831986 0.000000 0.000000
0.000000 0.018339 0.003840
0.045560 0.025494 0.005848
0.484929 0.005264 0.000000
0.911487 0.065127 0.000000
0.920432 0.212678 0.000940
0.000000 0.313247 0.000000
0.000008 0.184927 0.000000
0.732769 0.559202 0.000000
0.943868 0.556512 0.011582
0.965280 0.745433 0.469188
0.261539 0.925913 0.045017
0.415550 0.918091 0.000000
0.803471 0.899219 0.000000
0.976828 0.952437 0.786219
0.990676 0.956396 0.880569
0.887783 0.971619 0.793751
0.896279 0.973357 0.779220
0.922506 0.967903 0.702597
0.979804 0.976239 0.846637
0.988857 0.979744 0.924977
0.001709 0.051493 0.371223
0.046849 0.040034 0.415799
0.160069 0.000476 0.177045
0.783704 0.000000 0.160185
0.905643 0.000000 0.148481
0.000000 0.154171 0.413259
0.071347 0.169887 0.440116
0.455808 0.034551 0.406548
0.922548 0.180425 0.365985
0.937962 0.439076 0.353470
0.040726 0.742910 0.634698
0.108524 0.702344 0.588613
0.602167 0.540115 0.442125
0.976271 0.819698 0.735833
0.980345 0.854951 0.767839
0.752217 0.968455 0.784494
0.796589 0.959489 0.751159
0.779483 0.942453 0.485989
0.977673 0.960847 0.846729
0.993868 0.969326 0.910979
0.942605 0.981199 0.890845
0.942825 0.982425 0.883425
0.942377 0.981067 0.839371
0.981785 0.980170 0.847461
0.993739 0.986026 0.944897
0.338249 0.505250 0.821890
0.439327 0.516203 0.833109
0.573430 0.445634 0.842923
0.828733 0.072119 0.762323
0.923580 0.104834 0.659646
0.351804 0.591246 0.828101
0.482018 0.611957 0.835677
0.653428 0.562110 0.847327
0.897806 0.301376 0.799809
0.950442 0.523793 0.772655
0.339110 0.831266 0.864881
0.503116 0.837298 0.860805
0.761705 0.822467 0.844275
0.938279 0.769593 0.843334
0.983293 0.865708 0.869989
0.970072 0.985253 0.952057
0.976275 0.986323 0.955528
0.971412 0.982450 0.946353
0.922760 0.906311 0.829061
0.995966 0.974834 0.937466
0.989148 0.991894 0.965968
0.991742 0.992815 0.968805
0.990825 0.991795 0.964871
0.977954 0.985044 0.925734
0.995176 0.988266 0.957140
0.706199 0.774012 0.854705
0.746801 0.788125 0.863913
0.789230 0.786910 0.874721
0.864956 0.737620 0.876299
0.912684 0.513033 0.806616
0.731942 0.813265 0.866608
0.772646 0.828075 0.874203
0.825674 0.830964 0.886160
0.892671 0.785736 0.887302
0.944776 0.651101 0.841646
0.794872 0.899161 0.894922
0.823873 0.905927 0.900588
0.885382 0.913691 0.909212
0.942049 0.910343 0.917978
0.976085 0.881166 0.904454
0.931964 0.979080 0.947717
0.944711 0.981188 0.951942
0.955813 0.979168 0.950742
0.968475 0.967104 0.936691
0.987262 0.968135 0.942303
0.993908 0.991753 0.970274
0.998875 0.994577 0.977382
0.999126 0.995763 0.980572
0.997407 0.993149 0.974014
0.976329 0.967746 0.922303
