LUTS/Dam_Filmstock_FJ_D55.cube
#Created by: Damian Krzywonos for Cities Skylines 2 Lumina mod
#unity log or linear to sRGB not completely sure
TITLE "Dam"
LUT_3D_SIZE 8
DOMAIN_MIN 0.000000 0.000000 0.000000
DOMAIN_MAX 0.903226 0.903226 0.903226
0.000000 0.000000 0.000000
0.000000 0.000000 0.000000
0.001153 0.000000 0.000000
0.015224 0.000000 0.000000
0.047532 0.000000 0.000000
0.218893 0.000000 0.000000
0.594777 0.000000 0.000000
0.593430 0.000000 0.000000
0.000000 0.000000 0.000000
0.000098 0.000000 0.000000
0.002762 0.000000 0.000000
0.020163 0.000000 0.000000
0.108941 0.000000 0.000000
0.484640 0.000000 0.000000
0.804970 0.000000 0.000000
0.814658 0.000000 0.000000
0.000000 0.003250 0.000000
0.000000 0.007359 0.000000
0.042032 0.013854 0.000000
0.165509 0.001743 0.000000
0.351057 0.000000 0.000000
0.653952 0.000000 0.000000
0.904354 0.010319 0.000000
0.910146 0.064700 0.000000
0.000000 0.040204 0.000000
0.001487 0.064962 0.000000
0.106166 0.097081 0.000000
0.393105 0.124438 0.000000
0.633028 0.067121 0.000000
0.779499 0.022200 0.000000
0.915934 0.166212 0.000000
0.924374 0.337989 0.000000
0.000000 0.235901 0.000000
0.011141 0.268937 0.000000
0.205834 0.329687 0.000000
0.625639 0.475257 0.000000
0.903794 0.691302 0.000000
0.948881 0.634719 0.000000
0.948792 0.620205 0.000000
0.958596 0.692667 0.293570
0.109586 0.662638 0.000000
0.221987 0.674548 0.000000
0.345210 0.584831 0.000000
0.618097 0.617576 0.000000
0.923799 0.884028 0.000000
0.965816 0.918254 0.552010
0.976474 0.921192 0.756491
0.984163 0.917851 0.800850
0.570190 0.930935 0.009380
0.615418 0.928138 0.000000
0.668463 0.925054 0.000000
0.782089 0.914749 0.000000
0.929806 0.917721 0.000000
0.968446 0.956372 0.749019
0.981362 0.965216 0.859564
0.982955 0.963031 0.887196
0.846152 0.959972 0.691314
0.855805 0.961842 0.685318
0.866998 0.963251 0.677311
0.891378 0.962849 0.641384
0.939273 0.957613 0.588046
0.971981 0.969647 0.804630
0.982005 0.973721 0.892926
0.984431 0.973852 0.909858
0.000000 0.000000 0.000000
0.000000 0.000000 0.000000
0.001873 0.000000 0.000000
0.019379 0.000000 0.000000
0.058136 0.000000 0.000000
0.485230 0.000000 0.000000
0.737894 0.000000 0.000000
0.748621 0.000000 0.000000
0.000000 0.000098 0.000000
0.001341 0.000207 0.000000
0.025948 0.000000 0.000000
0.137204 0.000000 0.000000
0.474816 0.000000 0.000000
0.782676 0.000000 0.000000
0.897041 0.000000 0.000000
0.899406 0.000000 0.000000
0.000000 0.007460 0.000000
0.000000 0.008536 0.000000
0.060201 0.021148 0.000000
0.214233 0.003971 0.000000
0.500337 0.000000 0.000000
0.902357 0.028932 0.000000
0.917422 0.182957 0.000000
0.919884 0.220774 0.000000
0.000000 0.041799 0.000000
0.000000 0.054169 0.000000
0.042200 0.081437 0.000000
0.507059 0.243820 0.000000
0.790530 0.198580 0.000000
0.917737 0.199287 0.000000
0.927994 0.365463 0.000000
0.940391 0.507151 0.034122
0.000000 0.281722 0.000000
0.000000 0.289908 0.000000
0.033502 0.314079 0.000000
0.511462 0.466984 0.000000
0.886464 0.758511 0.000000
0.951568 0.727307 0.149708
0.958836 0.705054 0.168458
0.967255 0.765843 0.470310
0.014003 0.859181 0.000000
0.089311 0.861634 0.000000
0.270409 0.861133 0.000000
0.603868 0.840388 0.000000
0.915788 0.892836 0.013555
0.968789 0.932781 0.687525
0.982672 0.938106 0.820533
0.989119 0.935320 0.834590
0.667830 0.950254 0.417217
0.690260 0.947195 0.366120
0.718483 0.943731 0.299672
0.771330 0.935022 0.123908
0.921807 0.918189 0.000000
0.971165 0.961198 0.761117
0.984705 0.970421 0.876559
0.988135 0.970823 0.906962
0.878212 0.970063 0.775374
0.883574 0.971004 0.767461
0.888773 0.971367 0.752626
0.901426 0.970131 0.721632
0.940318 0.961181 0.631785
0.974839 0.973225 0.804338
0.984861 0.977260 0.900754
0.987493 0.977904 0.919600
0.000000 0.000000 0.005966
0.000262 0.000000 0.009803
0.004279 0.000000 0.007263
0.046391 0.000000 0.000996
0.175044 0.000000 0.000000
0.663082 0.000000 0.000000
0.832740 0.000000 0.000000
0.857259 0.000000 0.000000
0.000000 0.002391 0.012848
0.000238 0.004310 0.022589
0.031547 0.000025 0.017523
0.241068 0.000000 0.002517
0.597225 0.000000 0.000000
0.875061 0.000000 0.000000
0.899549 0.000000 0.000000
0.904374 0.003540 0.000003
0.000000 0.046721 0.021839
0.000000 0.052331 0.021699
0.087523 0.053570 0.021081
0.599417 0.054048 0.007668
0.660482 0.041543 0.000000
0.904954 0.100713 0.000000
0.923499 0.257700 0.003781
0.931931 0.390988 0.030114
0.000000 0.211214 0.000266
0.000000 0.174454 0.000000
0.005536 0.155235 0.000000
0.509155 0.332906 0.002103
0.791559 0.341242 0.001621
0.925742 0.379471 0.000000
0.938795 0.491052 0.008414
0.955682 0.654249 0.368011
0.000000 0.612908 0.000000
0.000000 0.581298 0.000000
0.000629 0.567611 0.000000
0.438574 0.518605 0.000000
0.891956 0.799904 0.157521
0.959022 0.791304 0.458483
0.967502 0.772585 0.425641
0.976037 0.834514 0.625701
0.120195 0.904749 0.026196
0.188077 0.902162 0.000000
0.327477 0.894869 0.000000
0.560742 0.882946 0.000000
0.911959 0.899841 0.037388
0.970829 0.940960 0.738274
0.985158 0.947533 0.848924
0.991174 0.945942 0.856851
0.733537 0.961238 0.592929
0.745285 0.957878 0.551289
0.758939 0.952944 0.481612
0.792719 0.944797 0.344552
0.918319 0.923449 0.000000
0.972456 0.963884 0.772110
0.986229 0.973217 0.885873
0.989451 0.974150 0.915238
0.892996 0.972677 0.803378
0.897870 0.973918 0.798091
0.901896 0.974448 0.786545
0.910346 0.973669 0.760757
0.942530 0.965110 0.676495
0.976106 0.975466 0.807292
0.986914 0.979147 0.906940
0.989499 0.980496 0.927354
0.000000 0.012904 0.178393
0.004790 0.010973 0.211867
0.027865 0.002935 0.199023
0.057539 0.000000 0.069028
0.191127 0.000000 0.045748
0.728715 0.000000 0.037145
0.899511 0.000000 0.019630
0.899433 0.000000 0.013261
0.000000 0.036493 0.223741
0.006798 0.042820 0.251666
0.064615 0.021583 0.254448
0.216039 0.000009 0.171773
0.550879 0.000000 0.128371
0.894853 0.001001 0.144958
0.910348 0.017027 0.151656
0.916508 0.106154 0.118734
0.000000 0.093217 0.257021
0.000000 0.111961 0.257814
0.068971 0.107505 0.251996
0.325509 0.055684 0.245558
0.731952 0.091977 0.244426
0.917389 0.120997 0.138821
0.927716 0.300678 0.180175
0.941670 0.495104 0.303106
0.000000 0.446450 0.382968
0.000000 0.411653 0.341041
0.025070 0.378762 0.303537
0.401478 0.319526 0.247549
0.932727 0.504105 0.404017
0.959257 0.670585 0.546599
0.960423 0.688971 0.508049
0.964508 0.725415 0.562069
0.018380 0.808019 0.321667
0.015479 0.792523 0.259606
0.053348 0.757972 0.167389
0.205765 0.705670 0.001275
0.871512 0.805445 0.432661
0.974989 0.857528 0.683812
0.979847 0.863162 0.684907
0.984454 0.893634 0.775396
0.588973 0.943886 0.619575
0.587208 0.939792 0.559103
0.555627 0.934832 0.418652
0.605927 0.922039 0.153942
0.886750 0.906008 0.045573
0.970994 0.947409 0.790393
0.988677 0.959308 0.884717
0.993028 0.957221 0.881660
0.835774 0.971697 0.773752
0.830405 0.971910 0.746773
0.831687 0.970451 0.714600
0.838321 0.962969 0.631417
0.907889 0.941899 0.316412
0.973548 0.967303 0.783767
0.988298 0.976903 0.900062
0.991716 0.978807 0.928614
0.921629 0.978232 0.857514
0.924483 0.979401 0.854514
0.926844 0.980188 0.847265
0.928448 0.979555 0.820485
0.945082 0.973007 0.758550
0.976902 0.977025 0.806676
0.988926 0.981913 0.915732
0.992444 0.984347 0.938642
0.033756 0.159804 0.569810
0.075479 0.165167 0.590525
0.137624 0.138742 0.602547
0.271312 0.054781 0.575187
0.416161 0.006265 0.428800
0.475230 0.000000 0.200632
0.906211 0.000000 0.351262
0.913434 0.026682 0.331351
0.029025 0.241483 0.603416
0.103571 0.252889 0.622094
0.204292 0.231537 0.629660
0.344060 0.149851 0.614033
0.552052 0.012107 0.531505
0.851160 0.000151 0.482722
0.926010 0.209096 0.504355
0.932103 0.331179 0.442118
0.000000 0.320254 0.606811
0.073171 0.344616 0.623648
0.204810 0.333754 0.626741
0.398247 0.267495 0.636373
0.657727 0.118650 0.598497
0.918486 0.182287 0.588970
0.939210 0.421200 0.545037
0.945206 0.507940 0.524909
0.003062 0.540554 0.691759
0.002708 0.536054 0.679308
0.071926 0.525653 0.665236
0.439347 0.492984 0.638824
0.752411 0.427930 0.643377
0.958128 0.636635 0.717872
0.968798 0.743861 0.729296
0.971325 0.770535 0.728552
0.597529 0.918341 0.829461
0.629404 0.913955 0.822693
0.638943 0.901133 0.803409
0.618102 0.856858 0.742620
0.758738 0.720199 0.605898
0.977084 0.857238 0.768440
0.987275 0.909003 0.843660
0.988506 0.918201 0.858253
0.801360 0.976695 0.865802
0.807608 0.975167 0.858984
0.810551 0.971154 0.844773
0.818992 0.956949 0.803749
0.805780 0.917030 0.588319
0.959427 0.938845 0.817912
0.989901 0.963197 0.900257
0.994527 0.966822 0.906651
0.922946 0.983581 0.902262
0.930655 0.982745 0.900950
0.935551 0.981554 0.895884
0.924738 0.979019 0.866335
0.914022 0.972078 0.784446
0.967789 0.969555 0.790897
0.989338 0.979627 0.919673
0.994187 0.983004 0.944435
0.964858 0.984875 0.925947
0.966397 0.985364 0.925915
0.964730 0.985566 0.921046
0.960708 0.985311 0.905584
0.956989 0.983194 0.872854
0.973904 0.980203 0.831816
0.990360 0.984605 0.924061
0.994890 0.987471 0.950594
0.267062 0.441618 0.792404
0.336225 0.450892 0.801650
0.392451 0.448498 0.809207
0.472442 0.397581 0.817196
0.606839 0.297811 0.801104
0.781917 0.035609 0.724662
0.905107 0.000000 0.617055
0.923137 0.111569 0.616129
0.288325 0.507541 0.803633
0.376835 0.520876 0.812662
0.432714 0.520115 0.817054
0.526457 0.480775 0.824937
0.664774 0.389433 0.809999
0.833141 0.116263 0.753329
0.922967 0.076635 0.709765
0.942015 0.423144 0.709552
0.269771 0.561143 0.804457
0.378150 0.581172 0.813167
0.449891 0.581917 0.815790
0.560252 0.561027 0.824026
0.719890 0.487927 0.816839
0.881623 0.309434 0.784350
0.938490 0.351683 0.760446
0.956304 0.598260 0.761902
0.222069 0.699722 0.825087
0.354138 0.712826 0.824958
0.454620 0.718410 0.823665
0.614426 0.716635 0.820733
0.784026 0.671738 0.821805
0.917837 0.607042 0.811506
0.963240 0.668447 0.807711
0.976412 0.804157 0.832050
0.367242 0.926010 0.902783
0.448567 0.924992 0.900452
0.540139 0.919083 0.893600
0.660485 0.896227 0.869507
0.815460 0.836428 0.816106
0.920256 0.826389 0.824125
0.983035 0.890588 0.867341
0.990372 0.928999 0.898822
0.952939 0.981409 0.942090
0.958251 0.982164 0.944007
0.961381 0.982261 0.944539
0.959705 0.979969 0.939902
0.918398 0.955023 0.892949
0.904620 0.885557 0.800424
0.987894 0.950367 0.896171
0.995474 0.971072 0.931395
0.979399 0.989371 0.957464
0.981095 0.989811 0.958781
0.981812 0.989993 0.959059
0.979733 0.989290 0.955456
0.966050 0.983154 0.929600
0.941683 0.966569 0.855129
0.983915 0.974209 0.917360
0.994579 0.983644 0.949688
0.985578 0.991115 0.961839
0.987475 0.991677 0.963845
0.988526 0.991934 0.964537
0.988728 0.991299 0.962088
0.984167 0.988884 0.949561
0.976338 0.985332 0.921589
0.988308 0.984754 0.923491
0.995540 0.988583 0.957162
0.532183 0.657957 0.857122
0.574220 0.666023 0.861132
0.607250 0.670059 0.864273
0.644467 0.658685 0.868882
0.733610 0.623221 0.875774
0.831504 0.541605 0.863133
0.904555 0.286171 0.815329
0.931848 0.242929 0.733172
0.558536 0.696311 0.860191
0.603712 0.705274 0.863803
0.632115 0.709219 0.866292
0.680244 0.698312 0.871579
0.764361 0.662531 0.877336
0.854152 0.582962 0.864739
0.928012 0.379184 0.826447
0.942963 0.416991 0.783068
0.564681 0.729525 0.861733
0.613661 0.743131 0.865182
0.646011 0.747225 0.867029
0.704410 0.744585 0.872011
0.796567 0.716888 0.878695
0.877480 0.649855 0.867994
0.945449 0.524873 0.843666
0.955918 0.581629 0.815574
0.605132 0.817096 0.871925
0.651307 0.828037 0.873906
0.683501 0.831020 0.874682
0.756972 0.835119 0.876828
0.846690 0.824176 0.885446
0.904454 0.787853 0.878353
0.959314 0.726270 0.864636
0.972582 0.761091 0.850815
0.686633 0.920733 0.907069
0.712679 0.921328 0.906712
0.749312 0.920934 0.905451
0.813342 0.916110 0.900367
0.888109 0.908967 0.895025
0.931555 0.900424 0.896646
0.968979 0.895911 0.898349
0.987753 0.907239 0.898919
0.919367 0.979431 0.945874
0.927389 0.980160 0.947615
0.934042 0.980522 0.948792
0.937461 0.979323 0.947633
0.928466 0.965410 0.930547
0.938010 0.937063 0.898415
0.969405 0.937993 0.905668
0.990129 0.962495 0.930076
0.988934 0.990216 0.966171
0.991572 0.991342 0.969082
0.993645 0.992137 0.971290
0.995084 0.992695 0.972693
0.992916 0.991188 0.968933
0.975464 0.979966 0.942409
0.956401 0.944435 0.884434
0.991629 0.975526 0.937476
0.994672 0.992896 0.971738
0.996677 0.993866 0.974355
0.998057 0.994540 0.976233
0.998633 0.994806 0.976929
0.996879 0.993996 0.974072
0.989055 0.989742 0.960148
0.976091 0.980296 0.922992
0.991237 0.983995 0.947710
0.706199 0.774012 0.854705
0.733414 0.783744 0.860705
0.751787 0.789141 0.864968
0.771959 0.788908 0.870035
0.813533 0.779928 0.879932
0.855615 0.752517 0.878368
0.892886 0.660919 0.862136
0.912684 0.513033 0.806616
0.728616 0.797412 0.861234
0.752297 0.806388 0.866753
0.769453 0.811750 0.869970
0.788786 0.810222 0.876333
0.832255 0.801403 0.886688
0.870761 0.773468 0.884662
0.905891 0.688319 0.868037
0.931841 0.577936 0.824972
0.739057 0.822454 0.868755
0.765206 0.832802 0.873298
0.783542 0.837914 0.877347
0.812660 0.841844 0.883317
0.854098 0.836834 0.894861
0.890329 0.814579 0.893108
0.922164 0.745058 0.877141
0.949661 0.682433 0.847971
0.775175 0.871876 0.883391
0.799589 0.879337 0.888084
0.815221 0.882452 0.891355
0.846462 0.888553 0.898008
0.888886 0.891374 0.906654
0.921053 0.882307 0.909438
0.945417 0.849067 0.899368
0.967339 0.817414 0.882193
0.817373 0.925730 0.908622
0.829289 0.928211 0.910900
0.847043 0.930560 0.912761
0.880321 0.932606 0.915686
0.918565 0.935352 0.919968
0.948228 0.934815 0.925805
0.966396 0.929522 0.924570
0.982002 0.924840 0.922288
0.901014 0.972834 0.941244
0.909714 0.974343 0.943452
0.920668 0.975288 0.945216
0.934115 0.973948 0.944668
0.947234 0.968845 0.939862
0.963171 0.964008 0.934970
0.975288 0.961277 0.935732
0.986904 0.964419 0.940704
0.979131 0.987609 0.961444
0.983946 0.989287 0.965408
0.987854 0.990563 0.968603
0.990862 0.991649 0.971200
0.989858 0.990718 0.969578
0.980407 0.984262 0.957190
0.973624 0.968759 0.933137
0.984511 0.969964 0.937873
0.993908 0.991753 0.970274
0.997254 0.993604 0.974833
0.998961 0.994925 0.978254
0.999126 0.995700 0.980364
0.999125 0.995722 0.980392
0.998663 0.994241 0.976560
0.988106 0.986413 0.957678
0.976329 0.967746 0.922303
