LUTS/Dam_Filmstock_KD_D60.cube
#Created by: Damian Krzywonos for Cities Skylines 2 Lumina mod
#LogC or linear to sRGB not completely sure
TITLE "Dam_Filmstock_KD_D60"
LUT_3D_SIZE 32
DOMAIN_MIN 0.0 0.0 0.0
DOMAIN_MAX 1.0 1.0 1.0
0.000000 0.000000 0.000000
0.000000 0.000000 0.000000
0.000000 0.000000 0.000000
0.000074 0.000000 0.000000
0.000859 0.000000 0.000000
0.001634 0.000000 0.000000
0.002421 0.000000 0.000000
0.003891 0.000000 0.000000
0.008384 0.000000 0.000000
0.015736 0.000000 0.000000
0.027121 0.000000 0.000000
0.042275 0.000000 0.000000
0.061241 0.000000 0.000000
0.083778 0.000000 0.000000
0.109630 0.000000 0.000000
0.146635 0.000000 0.000000
0.191802 0.000000 0.000000
0.237507 0.000000 0.000000
0.296163 0.000000 0.000000
0.374722 0.000000 0.000000
0.456639 0.000000 0.000000
0.529023 0.000000 0.000000
0.609741 0.000000 0.000000
0.657699 0.000000 0.000000
0.680042 0.000000 0.000000
0.689593 0.000000 0.000000
0.684793 0.000000 0.000000
0.665718 0.000000 0.000000
0.636356 0.000000 0.000000
0.593510 0.000000 0.000000
0.543440 0.000000 0.000000
0.483421 0.000000 0.000000
0.000000 0.000000 0.000000
0.000000 0.000000 0.000000
0.000049 0.000000 0.000000
0.000763 0.000000 0.000000
0.000859 0.000000 0.000000
0.001634 0.000000 0.000000
0.002714 0.000000 0.000000
0.005743 0.000000 0.000000
0.012206 0.000000 0.000000
0.022921 0.000000 0.000000
0.038279 0.000000 0.000000
0.057917 0.000000 0.000000
0.081852 0.000000 0.000000
0.110972 0.000000 0.000000
0.152641 0.000000 0.000000
0.199147 0.000000 0.000000
0.244941 0.000000 0.000000
0.303219 0.000000 0.000000
0.375737 0.000000 0.000000
0.457863 0.000000 0.000000
0.539164 0.000000 0.000000
0.630732 0.000000 0.000000
0.695034 0.000000 0.000000
0.730876 0.000000 0.000000
0.754170 0.000000 0.000000
0.764749 0.000000 0.000000
0.763281 0.000000 0.000000
0.749777 0.000000 0.000000
0.725524 0.000000 0.000000
0.691646 0.000000 0.000000
0.648286 0.000000 0.000000
0.596925 0.000000 0.000000
0.000000 0.000000 0.000000
0.000000 0.000000 0.000000
0.000049 0.000000 0.000000
0.000790 0.000000 0.000000
0.000908 0.000000 0.000000
0.001683 0.000000 0.000000
0.002763 0.000000 0.000000
0.005759 0.000000 0.000000
0.012352 0.000000 0.000000
0.023611 0.000000 0.000000
0.039606 0.000000 0.000000
0.061032 0.000000 0.000000
0.086601 0.000000 0.000000
0.119439 0.000000 0.000000
0.166105 0.000000 0.000000
0.215193 0.000000 0.000000
0.264466 0.000000 0.000000
0.328587 0.000000 0.000000
0.407344 0.000000 0.000000
0.493239 0.000000 0.000000
0.575983 0.000000 0.000000
0.665671 0.000000 0.000000
0.726619 0.000000 0.000000
0.763207 0.000000 0.000000
0.786551 0.000000 0.000000
0.798083 0.000000 0.000000
0.798078 0.000000 0.000000
0.787222 0.000000 0.000000
0.765776 0.000000 0.000000
0.735852 0.000000 0.000000
0.695962 0.000000 0.000000
0.648338 0.000000 0.000000
0.000000 0.000000 0.000000
0.000000 0.000000 0.000000
0.000049 0.000027 0.000000
0.000835 0.000034 0.000000
0.001609 0.000000 0.000000
0.002440 0.000000 0.000000
0.003641 0.000000 0.000000
0.006650 0.000000 0.000000
0.012456 0.000000 0.000000
0.022961 0.000000 0.000000
0.038473 0.000000 0.000000
0.059444 0.000000 0.000000
0.085647 0.000000 0.000000
0.119539 0.000000 0.000000
0.168130 0.000000 0.000000
0.221025 0.000000 0.000000
0.275505 0.000000 0.000000
0.346112 0.000000 0.000000
0.430940 0.000000 0.000000
0.519916 0.000000 0.000000
0.603285 0.000000 0.000000
0.691712 0.000000 0.000000
0.751539 0.000000 0.000000
0.787666 0.000000 0.000000
0.811591 0.000000 0.000000
0.824433 0.000000 0.000000
0.826208 0.000000 0.000000
0.818036 0.000000 0.000000
0.799150 0.000000 0.000000
0.771695 0.000000 0.000000
0.734307 0.000000 0.000000
0.690809 0.000000 0.000000
0.000000 0.000000 0.000000
0.000000 0.000098 0.000000
0.000020 0.000119 0.000000
0.000779 0.000731 0.000000
0.001664 0.000098 0.000000
0.002674 0.000098 0.000000
0.004894 0.000038 0.000000
0.009554 0.000000 0.000000
0.016476 0.000000 0.000000
0.025488 0.000000 0.000000
0.038477 0.000000 0.000000
0.056606 0.000000 0.000000
0.081198 0.000000 0.000000
0.114578 0.000000 0.000000
0.164919 0.000000 0.000000
0.221165 0.000000 0.000000
0.280401 0.000000 0.000000
0.359067 0.000000 0.000000
0.450903 0.000000 0.000000
0.544484 0.000000 0.000000
0.628468 0.000000 0.000000
0.715937 0.000000 0.000000
0.774308 0.000000 0.000000
0.810519 0.000000 0.000000
0.835833 0.000000 0.000000
0.849865 0.000000 0.000000
0.853728 0.000000 0.000000
0.847978 0.000000 0.000000
0.832477 0.000000 0.000000
0.807090 0.000000 0.000000
0.775750 0.000000 0.000000
0.732916 0.000000 0.000000
0.000000 0.000123 0.000000
0.000000 0.000763 0.000000
0.000000 0.000793 0.000000
0.000103 0.000884 0.000000
0.001644 0.000941 0.000000
0.003612 0.000936 0.000000
0.006995 0.000737 0.000000
0.014150 0.000045 0.000000
0.023307 0.000000 0.000000
0.034502 0.000000 0.000000
0.047547 0.000000 0.000000
0.063508 0.000000 0.000000
0.085507 0.000000 0.000000
0.117143 0.000000 0.000000
0.165694 0.000000 0.000000
0.225326 0.000000 0.000000
0.289658 0.000000 0.000000
0.376818 0.000000 0.000000
0.476025 0.000000 0.000000
0.571527 0.000000 0.000000
0.656051 0.000000 0.000000
0.738279 0.000000 0.000000
0.797213 0.000000 0.000000
0.833388 0.000000 0.000000
0.859703 0.000000 0.000000
0.874262 0.000000 0.000000
0.879233 0.000000 0.000000
0.876800 0.000000 0.000000
0.866618 0.000000 0.000000
0.844971 0.000000 0.000000
0.812888 0.000000 0.000000
0.770914 0.000000 0.000000
0.000000 0.000908 0.000000
0.000000 0.000924 0.000000
0.000000 0.001104 0.000000
0.000027 0.001851 0.000000
0.000909 0.002049 0.000000
0.003843 0.002739 0.000000
0.009677 0.002100 0.000000
0.019313 0.001142 0.000000
0.033504 0.000155 0.000000
0.049771 0.000000 0.000000
0.067210 0.000000 0.000000
0.088130 0.000000 0.000000
0.114379 0.000000 0.000000
0.149782 0.000000 0.000000
0.195284 0.000000 0.000000
0.251806 0.000000 0.000000
0.330236 0.000000 0.000000
0.424551 0.000000 0.000000
0.523128 0.000000 0.000000
0.615798 0.000000 0.000000
0.694994 0.000000 0.000000
0.756362 0.000000 0.000000
0.818913 0.000000 0.000000
0.860020 0.000000 0.000000
0.883401 0.000000 0.000000
0.895806 0.000000 0.000000
0.898975 0.000000 0.000000
0.900408 0.000000 0.000000
0.895782 0.000000 0.000000
0.877780 0.000872 0.000000
0.846748 0.003510 0.000000
0.802660 0.006893 0.000000
0.000000 0.001855 0.000000
0.000000 0.002049 0.000000
0.000000 0.002868 0.000000
0.000000 0.003840 0.000000
0.000168 0.004801 0.000000
0.003031 0.005851 0.000000
0.011711 0.006894 0.000000
0.025350 0.006190 0.000000
0.044735 0.003693 0.000000
0.068494 0.001430 0.000000
0.095853 0.000492 0.000000
0.128792 0.000049 0.000000
0.165914 0.000000 0.000000
0.208841 0.000000 0.000000
0.252314 0.000000 0.000000
0.307527 0.000000 0.000000
0.396618 0.000000 0.000000
0.506909 0.000000 0.000000
0.602723 0.000000 0.000000
0.688461 0.000000 0.000000
0.759068 0.000000 0.000000
0.818932 0.000000 0.000000
0.864479 0.000000 0.000000
0.893143 0.000000 0.000000
0.899915 0.000000 0.000000
0.901581 0.000165 0.000000
0.903130 0.004472 0.000000
0.904540 0.007457 0.000000
0.905791 0.010218 0.000000
0.902125 0.015702 0.000000
0.870561 0.029209 0.000000
0.808610 0.047075 0.000000
0.000000 0.004013 0.000000
0.000000 0.005179 0.000000
0.000000 0.006045 0.000000
0.000000 0.007818 0.000000
0.000032 0.009656 0.000000
0.001745 0.011692 0.000000
0.011184 0.014438 0.000000
0.032745 0.017097 0.000000
0.058262 0.015879 0.000000
0.090688 0.012085 0.000000
0.132152 0.008339 0.000000
0.178295 0.004026 0.000000
0.226334 0.001849 0.000000
0.270561 0.000341 0.000000
0.324735 0.000000 0.000000
0.385293 0.000000 0.000000
0.454000 0.000000 0.000000
0.536724 0.000000 0.000000
0.629579 0.000000 0.000000
0.720785 0.000000 0.000000
0.799084 0.000000 0.000000
0.871889 0.000000 0.000000
0.900856 0.000000 0.000000
0.902931 0.001638 0.000000
0.905021 0.012818 0.000000
0.906976 0.024549 0.000000
0.908520 0.042099 0.000000
0.909510 0.055936 0.000000
0.910279 0.066801 0.000000
0.910533 0.076378 0.000000
0.870539 0.091757 0.000000
0.806834 0.111198 0.000000
0.000000 0.008801 0.000000
0.000000 0.011352 0.000000
0.000000 0.012664 0.000000
0.000000 0.015249 0.000000
0.000000 0.017928 0.000000
0.001389 0.021465 0.000000
0.012171 0.025494 0.000000
0.036438 0.030874 0.000000
0.078269 0.035763 0.000000
0.123530 0.034149 0.000000
0.175094 0.029323 0.000000
0.231924 0.023953 0.000000
0.282914 0.016766 0.000000
0.340599 0.009306 0.000000
0.399054 0.003416 0.000000
0.461804 0.000562 0.000000
0.531594 0.000000 0.000000
0.602714 0.000000 0.000000
0.676706 0.000000 0.000000
0.750902 0.000000 0.000000
0.816336 0.000000 0.000000
0.872975 0.000000 0.000000
0.898850 0.000000 0.000000
0.905687 0.009948 0.000000
0.909167 0.048945 0.000000
0.912317 0.096442 0.000000
0.914223 0.132650 0.000000
0.915171 0.149590 0.000000
0.915973 0.160103 0.000000
0.911196 0.171853 0.000000
0.878539 0.209115 0.000000
0.845572 0.257510 0.024853
0.000000 0.016816 0.000000
0.000000 0.020459 0.000000
0.000000 0.023569 0.000000
0.000000 0.027015 0.000000
0.000000 0.030688 0.000000
0.002073 0.035198 0.000000
0.015611 0.041436 0.000000
0.043881 0.048811 0.000000
0.093034 0.057484 0.000000
0.165263 0.064569 0.000000
0.229675 0.062343 0.000000
0.284010 0.055757 0.000000
0.348389 0.047804 0.000000
0.413499 0.037415 0.000000
0.476763 0.025889 0.000000
0.542469 0.012864 0.000000
0.613106 0.003664 0.000000
0.679178 0.000482 0.000000
0.740151 0.000000 0.000000
0.795846 0.000000 0.000000
0.847389 0.000000 0.000000
0.888538 0.000000 0.000000
0.904363 0.003548 0.000000
0.907468 0.028539 0.000000
0.911051 0.076765 0.000000
0.914279 0.135138 0.000000
0.916752 0.185869 0.000000
0.918637 0.216485 0.000000
0.920572 0.240863 0.000000
0.909476 0.267081 0.000000
0.915421 0.354882 0.000000
0.937082 0.462963 0.122023
0.000000 0.028589 0.000000
0.000000 0.034688 0.000000
0.000000 0.040115 0.000000
0.000000 0.044384 0.000000
0.000582 0.049438 0.000000
0.005009 0.055159 0.000000
0.023988 0.063455 0.000000
0.056791 0.073537 0.000000
0.113440 0.085721 0.000000
0.196417 0.099856 0.000000
0.282344 0.110867 0.000000
0.349545 0.107020 0.000000
0.415956 0.096718 0.000000
0.482821 0.083177 0.000000
0.551889 0.067639 0.000000
0.623848 0.049870 0.000000
0.693763 0.031591 0.000000
0.756694 0.016951 0.000000
0.809746 0.008377 0.000000
0.852082 0.004318 0.000000
0.881607 0.002825 0.000000
0.900087 0.005549 0.000000
0.906775 0.022042 0.000000
0.910095 0.062806 0.000000
0.913630 0.123692 0.000000
0.916717 0.183467 0.000000
0.918991 0.224789 0.000000
0.921177 0.256073 0.000000
0.923539 0.288787 0.000000
0.919800 0.327037 0.000000
0.934021 0.427641 0.020293
0.943586 0.528867 0.219535
0.000000 0.047259 0.000000
0.000000 0.058170 0.000000
0.000000 0.065164 0.000000
0.000284 0.070754 0.000000
0.002997 0.077020 0.000000
0.014161 0.085535 0.000000
0.038705 0.097132 0.000000
0.079219 0.112006 0.000000
0.141412 0.130187 0.000000
0.231036 0.150664 0.000000
0.321865 0.170350 0.000000
0.417465 0.183168 0.000000
0.485772 0.175859 0.000000
0.553248 0.161140 0.000000
0.626659 0.142650 0.000000
0.702122 0.120663 0.000000
0.771713 0.096188 0.000000
0.829223 0.074442 0.000000
0.870811 0.057803 0.000000
0.895697 0.044963 0.000000
0.907624 0.052548 0.000000
0.909037 0.049683 0.000000
0.910750 0.076540 0.000000
0.913703 0.127633 0.000000
0.916938 0.186157 0.000000
0.919836 0.238562 0.000000
0.922209 0.278795 0.000000
0.924951 0.317109 0.000000
0.927914 0.355127 0.000000
0.932525 0.410599 0.000000
0.940388 0.499625 0.095898
0.948973 0.586253 0.289537
0.000000 0.081502 0.000000
0.000000 0.099340 0.000000
0.000394 0.107162 0.000000
0.004301 0.116046 0.000000
0.013546 0.125769 0.000000
0.032455 0.139517 0.000000
0.063767 0.154653 0.000000
0.114434 0.170916 0.000000
0.184470 0.192388 0.000000
0.267777 0.217418 0.000000
0.361346 0.239293 0.000000
0.461966 0.260426 0.000000
0.555177 0.276499 0.000000
0.626380 0.268555 0.000000
0.698489 0.253969 0.000000
0.773601 0.235961 0.000000
0.839499 0.227082 0.000000
0.886101 0.205939 0.000000
0.909744 0.185088 0.000000
0.916390 0.171234 0.000000
0.916535 0.173952 0.000000
0.916813 0.178586 0.000000
0.917282 0.188433 0.000000
0.919165 0.227003 0.000000
0.921745 0.272415 0.000000
0.924524 0.317973 0.000000
0.927375 0.360143 0.000000
0.930734 0.401101 0.000000
0.934277 0.439744 0.000000
0.939988 0.501090 0.038438
0.947311 0.574769 0.200116
0.955039 0.646882 0.373160
0.000000 0.144263 0.000000
0.000000 0.161848 0.000000
0.000327 0.170989 0.000000
0.007763 0.181392 0.000000
0.024562 0.194156 0.000000
0.050764 0.210664 0.000000
0.091175 0.230164 0.000000
0.151087 0.247020 0.000000
0.232406 0.267691 0.000000
0.313848 0.292059 0.000000
0.406704 0.317741 0.000000
0.503651 0.344961 0.000000
0.604701 0.373433 0.000000
0.702773 0.410326 0.000000
0.766159 0.407373 0.000000
0.828073 0.395235 0.000000
0.884816 0.393306 0.000000
0.918954 0.399796 0.000000
0.928559 0.378873 0.000000
0.927183 0.358402 0.000000
0.926334 0.345576 0.000000
0.925835 0.337436 0.000000
0.926167 0.343140 0.000000
0.927261 0.359826 0.000000
0.929073 0.389198 0.000000
0.931895 0.426940 0.000000
0.935126 0.462941 0.000000
0.938716 0.498830 0.000000
0.942733 0.536941 0.037262
0.948160 0.588660 0.150035
0.954488 0.647075 0.307834
0.961127 0.704558 0.450348
0.000000 0.220437 0.000000
0.000000 0.233169 0.000000
0.000046 0.245301 0.000000
0.002795 0.256424 0.000000
0.015486 0.270293 0.000000
0.044692 0.288050 0.000000
0.086983 0.308376 0.000000
0.155304 0.330427 0.000000
0.241522 0.354172 0.000000
0.337339 0.380827 0.000000
0.439775 0.407997 0.000000
0.542730 0.437572 0.000000
0.643011 0.482861 0.000000
0.735940 0.534496 0.000000
0.818579 0.582632 0.000000
0.862504 0.578615 0.000000
0.905132 0.574690 0.000000
0.934634 0.567779 0.000000
0.941290 0.554345 0.000000
0.939477 0.531708 0.000000
0.937928 0.512044 0.000000
0.936966 0.499485 0.000000
0.936782 0.496954 0.000000
0.937797 0.506962 0.000000
0.939470 0.524007 0.000000
0.941926 0.546454 0.000000
0.945035 0.573427 0.000692
0.948371 0.601234 0.058391
0.952235 0.634077 0.160714
0.956585 0.671164 0.290781
0.961543 0.712796 0.413987
0.966832 0.755532 0.520731
0.000000 0.309873 0.000000
0.000000 0.323467 0.000000
0.000000 0.335615 0.000000
0.000032 0.347974 0.000000
0.002206 0.362733 0.000000
0.022292 0.381399 0.000000
0.062029 0.400743 0.000000
0.128230 0.422432 0.000000
0.223489 0.446197 0.000000
0.325499 0.470439 0.000000
0.443102 0.496924 0.000000
0.560372 0.526333 0.000000
0.669394 0.576416 0.000000
0.753196 0.647872 0.000000
0.826888 0.693209 0.000000
0.883962 0.717986 0.000000
0.916844 0.718124 0.000000
0.942006 0.707888 0.000000
0.952717 0.693141 0.000000
0.952348 0.678170 0.000000
0.951371 0.662156 0.000000
0.950081 0.646606 0.000000
0.949581 0.639327 0.000000
0.950141 0.640867 0.000000
0.951574 0.649239 0.001785
0.953455 0.661673 0.048466
0.955770 0.677680 0.114896
0.958496 0.697348 0.221387
0.961464 0.719261 0.334450
0.964469 0.741698 0.427719
0.968072 0.769412 0.509947
0.972148 0.800651 0.588879
0.000000 0.422234 0.000000
0.000000 0.433772 0.000000
0.000000 0.441648 0.000000
0.000000 0.450831 0.000000
0.000093 0.463044 0.000000
0.007182 0.477821 0.000000
0.044332 0.494715 0.000000
0.109873 0.513785 0.000000
0.210244 0.534238 0.000000
0.314440 0.555232 0.000000
0.435158 0.577969 0.000000
0.558615 0.602468 0.000000
0.682790 0.634149 0.000000
0.770898 0.706416 0.000000
0.838042 0.764527 0.000000
0.896864 0.799615 0.000000
0.929720 0.811543 0.000000
0.946034 0.807473 0.000000
0.957840 0.799244 0.000000
0.963136 0.790033 0.000000
0.963870 0.781683 0.000000
0.963780 0.772085 0.041640
0.963598 0.763701 0.122154
0.963540 0.758738 0.155618
0.963912 0.757524 0.184206
0.964950 0.761538 0.247545
0.966448 0.769465 0.338533
0.968221 0.779946 0.425961
0.970141 0.792072 0.496742
0.971851 0.802863 0.548765
0.974088 0.818935 0.596601
0.976698 0.837691 0.648590
0.000000 0.527503 0.000000
0.000000 0.537319 0.000000
0.000000 0.543517 0.000000
0.000000 0.549291 0.000000
0.000000 0.557837 0.000000
0.006564 0.568448 0.000000
0.048642 0.581996 0.000000
0.118632 0.597008 0.000000
0.221204 0.613321 0.000000
0.324943 0.630478 0.000000
0.439144 0.648753 0.000000
0.555810 0.667358 0.000000
0.678414 0.689564 0.000000
0.783797 0.737029 0.000000
0.848022 0.806761 0.000000
0.901344 0.841004 0.000000
0.935905 0.860901 0.000000
0.953638 0.868905 0.000000
0.961799 0.867748 0.000000
0.968753 0.864527 0.038817
0.973123 0.860461 0.115830
0.973987 0.855964 0.207174
0.974583 0.851752 0.323883
0.975077 0.847679 0.422226
0.975521 0.844995 0.486161
0.975828 0.844051 0.524614
0.976390 0.845339 0.563738
0.977164 0.848282 0.602080
0.977984 0.852120 0.633809
0.978683 0.855776 0.656026
0.979607 0.861714 0.679535
0.980232 0.864930 0.698587
0.000000 0.617879 0.000000
0.000000 0.626972 0.000000
0.000222 0.632226 0.000000
0.004237 0.636898 0.000000
0.019026 0.642078 0.000000
0.039811 0.649140 0.000000
0.091321 0.658477 0.000000
0.170524 0.669386 0.000000
0.265040 0.681369 0.000000
0.364203 0.694324 0.000000
0.465792 0.707931 0.000000
0.568452 0.721816 0.000000
0.678004 0.738081 0.000000
0.791822 0.780977 0.000000
0.862089 0.837838 0.000000
0.906016 0.868297 0.000000
0.936628 0.885252 0.000000
0.955899 0.901010 0.057272
0.966861 0.907853 0.148973
0.972302 0.908781 0.241435
0.976307 0.907342 0.343822
0.979286 0.905773 0.445768
0.981057 0.904142 0.534380
0.982615 0.903313 0.610754
0.983771 0.902454 0.674567
0.984352 0.901987 0.713141
0.984406 0.900688 0.726102
0.984445 0.899603 0.734908
0.984484 0.898823 0.742779
0.984561 0.898579 0.749129
0.984438 0.896996 0.753483
0.983769 0.891205 0.749864
0.002441 0.733393 0.000000
0.002956 0.740173 0.000000
0.003535 0.743975 0.000000
0.007735 0.746833 0.000000
0.030795 0.750363 0.000000
0.063393 0.754473 0.000000
0.116765 0.759822 0.000000
0.228267 0.767142 0.000000
0.345300 0.762906 0.000000
0.433241 0.750032 0.000000
0.519166 0.759367 0.000000
0.604825 0.769560 0.000000
0.695239 0.781170 0.000000
0.796027 0.800099 0.000000
0.874067 0.855068 0.000000
0.910551 0.890616 0.000000
0.939239 0.905676 0.000000
0.955193 0.917063 0.113747
0.967271 0.928483 0.326707
0.974286 0.933517 0.459239
0.977949 0.934697 0.548216
0.980701 0.934654 0.617892
0.982920 0.934555 0.675547
0.984621 0.934525 0.724745
0.986201 0.934496 0.767378
0.987363 0.934430 0.800143
0.988473 0.933818 0.815854
0.989196 0.932331 0.816579
0.989040 0.930424 0.816427
0.988725 0.927783 0.814287
0.988077 0.922743 0.808496
0.987197 0.915846 0.799500
0.010462 0.835690 0.000000
0.010801 0.839874 0.000000
0.014057 0.841957 0.000000
0.027885 0.843045 0.000000
0.055197 0.844865 0.000000
0.095096 0.846931 0.000000
0.148263 0.848837 0.000000
0.229623 0.851440 0.000000
0.343112 0.850904 0.000000
0.441916 0.835651 0.000000
0.536263 0.836820 0.000000
0.632059 0.843076 0.000000
0.728729 0.852173 0.000000
0.815614 0.863001 0.000000
0.878363 0.880135 0.000000
0.914453 0.903059 0.000000
0.941045 0.914332 0.000000
0.955794 0.928515 0.142138
0.965915 0.938959 0.399150
0.974190 0.947069 0.579911
0.979131 0.950541 0.653699
0.981540 0.951867 0.708801
0.983522 0.952374 0.751774
0.985203 0.952568 0.787406
0.986624 0.952666 0.817227
0.988031 0.952692 0.840836
0.989299 0.952355 0.857914
0.990316 0.950944 0.862422
0.990468 0.948313 0.858462
0.990011 0.944410 0.852536
0.989105 0.939615 0.845014
0.987717 0.933847 0.837400
0.067407 0.899739 0.000000
0.104682 0.901885 0.000000
0.135115 0.902621 0.000000
0.160982 0.903311 0.000000
0.189983 0.903555 0.000000
0.229098 0.904524 0.000000
0.276798 0.904823 0.000000
0.325916 0.905333 0.000000
0.389554 0.904895 0.000000
0.470528 0.903448 0.000000
0.552731 0.901942 0.000000
0.634441 0.901552 0.000000
0.718728 0.903512 0.000000
0.804947 0.904337 0.000000
0.873533 0.906920 0.000000
0.915870 0.908755 0.000000
0.941675 0.913985 0.000000
0.955769 0.929829 0.148280
0.965737 0.946005 0.426202
0.972871 0.953470 0.614830
0.978534 0.958688 0.710985
0.981793 0.961219 0.756384
0.983988 0.962503 0.791972
0.985682 0.963235 0.821488
0.987071 0.963350 0.844430
0.987964 0.963218 0.861900
0.988695 0.962428 0.874803
0.989145 0.960955 0.882285
0.989208 0.958589 0.883811
0.989063 0.955287 0.878553
0.988469 0.951166 0.871925
0.987020 0.946705 0.864936
0.278693 0.918822 0.000000
0.322226 0.918557 0.000000
0.347845 0.918288 0.000000
0.369053 0.918192 0.000000
0.391608 0.917904 0.000000
0.417397 0.917964 0.000000
0.444185 0.917756 0.000000
0.476015 0.917600 0.000000
0.510391 0.917266 0.000000
0.555182 0.916735 0.000000
0.611922 0.915890 0.000000
0.672437 0.914887 0.000000
0.735697 0.913693 0.000000
0.802713 0.912209 0.000000
0.868376 0.910560 0.000000
0.915260 0.909270 0.000000
0.941493 0.913821 0.000000
0.955744 0.929424 0.148516
0.965859 0.947713 0.437970
0.972537 0.958391 0.633239
0.977330 0.962934 0.731162
0.981358 0.966542 0.787225
0.983776 0.968266 0.815008
0.985545 0.969056 0.837816
0.986558 0.969319 0.856804
0.987307 0.968990 0.871354
0.987803 0.968307 0.881983
0.987991 0.966938 0.889467
0.988002 0.965291 0.893681
0.987867 0.962889 0.894462
0.987445 0.960022 0.892441
0.986722 0.956385 0.886543
0.504960 0.928694 0.000000
0.529966 0.927608 0.000000
0.542915 0.926987 0.000000
0.555297 0.926411 0.000000
0.568159 0.925824 0.000000
0.581648 0.925226 0.000000
0.596845 0.924495 0.000000
0.615793 0.923717 0.000000
0.636348 0.922880 0.000000
0.659894 0.921873 0.000000
0.692757 0.919560 0.000000
0.731864 0.916148 0.000000
0.773818 0.913398 0.000000
0.822836 0.911749 0.000000
0.874807 0.910386 0.000000
0.915757 0.909257 0.000000
0.940722 0.915222 0.000000
0.955773 0.930911 0.163679
0.965785 0.948836 0.454489
0.972746 0.962152 0.650054
0.976989 0.966993 0.744498
0.980502 0.969780 0.801602
0.983722 0.971952 0.835947
0.985286 0.972607 0.852719
0.986197 0.972804 0.866882
0.986770 0.972632 0.878635
0.987133 0.972195 0.888201
0.987288 0.971231 0.894740
0.987256 0.970083 0.899000
0.987063 0.968246 0.901443
0.986801 0.966034 0.902225
0.986254 0.963414 0.900818
0.666969 0.940067 0.213922
0.680172 0.939168 0.197820
0.686295 0.938568 0.188985
0.692467 0.938095 0.181989
0.699166 0.937517 0.173450
0.706147 0.936884 0.164458
0.714849 0.936132 0.152856
0.724962 0.935366 0.132557
0.736410 0.934533 0.113734
0.749542 0.933727 0.095775
0.765903 0.931970 0.062687
0.789305 0.928233 0.015352
0.817179 0.923818 0.000000
0.850934 0.919288 0.000000
0.886738 0.915270 0.000000
0.918193 0.914748 0.000000
0.941115 0.921195 0.000000
0.955859 0.935036 0.200905
0.965813 0.950896 0.490772
0.972752 0.963914 0.667063
0.977231 0.970469 0.758472
0.980240 0.972241 0.811472
0.983221 0.973856 0.846865
0.985158 0.975109 0.868645
0.986007 0.975346 0.878463
0.986523 0.975193 0.887526
0.986878 0.974819 0.894765
0.987018 0.974152 0.900349
0.987023 0.973311 0.904002
0.986773 0.971963 0.906425
0.986429 0.970436 0.907711
0.986044 0.968295 0.907895
0.763871 0.950735 0.448349
0.771509 0.950064 0.437491
0.775391 0.949613 0.431268
0.779453 0.949200 0.425006
0.783624 0.948766 0.418493
0.788418 0.948280 0.411276
0.793875 0.947653 0.402521
0.799436 0.947100 0.392016
0.806931 0.946396 0.380137
0.815354 0.945678 0.368048
0.825689 0.944593 0.349013
0.839875 0.941957 0.298371
0.857801 0.938167 0.227600
0.878744 0.933794 0.139938
0.901998 0.929656 0.054212
0.924355 0.927884 0.027616
0.943123 0.931932 0.128720
0.956319 0.941930 0.328649
0.965990 0.954434 0.546757
0.972850 0.965747 0.687823
0.977546 0.972743 0.771833
0.980724 0.974780 0.822437
0.982993 0.975486 0.854354
0.984768 0.976620 0.877017
0.985902 0.977390 0.890613
0.986482 0.977305 0.896589
0.986806 0.976979 0.901939
0.987031 0.976383 0.906149
0.987050 0.975610 0.909388
0.986881 0.974575 0.911708
0.986498 0.973440 0.913106
0.986023 0.971959 0.913582
0.827238 0.959673 0.590384
0.833193 0.959093 0.584018
0.835595 0.958826 0.580853
0.838674 0.958478 0.577412
0.841002 0.958176 0.573357
0.843867 0.957853 0.569897
0.846874 0.957469 0.565815
0.850331 0.957083 0.561052
0.854663 0.956611 0.555550
0.859268 0.956124 0.550154
0.865168 0.955424 0.541744
0.873641 0.953661 0.518880
0.885350 0.950596 0.475821
0.900061 0.947192 0.422504
0.916581 0.944015 0.367300
0.932770 0.942134 0.335468
0.946283 0.943845 0.371756
