LUTS/Dam_Filmstock_FJ_D65.cube
#Created by: Damian Krzywonos for Cities Skylines 2 Lumina mod
#LogC or linear to sRGB not completely sure
TITLE "Dam_Filmstock_FJ_D65"
LUT_3D_SIZE 5
DOMAIN_MIN 0.000000 0.000000 0.000000
DOMAIN_MAX 0.903226 0.903226 0.903226
0.000000 0.000000 0.000000
0.000172 0.000000 0.000000
0.025801 0.000000 0.000000
0.314458 0.000000 0.000000
0.559255 0.000000 0.000000
0.000000 0.001276 0.000000
0.011589 0.005258 0.000000
0.141273 0.000000 0.000000
0.628967 0.000000 0.000000
0.868223 0.014496 0.000000
0.000000 0.106213 0.000000
0.073514 0.180634 0.000000
0.621335 0.319030 0.000000
0.923667 0.302605 0.000000
0.913126 0.514063 0.199287
0.009187 0.815839 0.000000
0.193136 0.775648 0.000000
0.757504 0.772293 0.000000
0.944760 0.942584 0.823883
0.963012 0.941631 0.924934
0.766058 0.969421 0.820094
0.792307 0.971149 0.808549
0.864694 0.969483 0.734464
0.952594 0.975003 0.916774
0.967746 0.977464 0.962637
0.000000 0.000000 0.001790
0.001104 0.000000 0.003469
0.078133 0.000000 0.000000
0.628594 0.000000 0.000000
0.802206 0.000000 0.000000
0.000000 0.018271 0.008208
0.031748 0.025218 0.016359
0.441913 0.009285 0.000000
0.905904 0.071911 0.004916
0.921888 0.214460 0.091386
0.000000 0.307378 0.000000
0.000000 0.179201 0.000000
0.661645 0.562287 0.015212
0.930276 0.554447 0.173607
0.967280 0.743662 0.643460
0.036887 0.939616 0.273454
0.148476 0.930107 0.063195
0.711281 0.905905 0.000000
0.952501 0.955666 0.881594
0.975096 0.959161 0.945672
0.822436 0.979793 0.893558
0.834482 0.981337 0.880295
0.874316 0.978518 0.817864
0.958861 0.979465 0.919710
0.975315 0.983120 0.970070
0.000000 0.048537 0.465750
0.019211 0.038714 0.514723
0.144588 0.002647 0.252392
0.754031 0.000000 0.288485
0.907695 0.000000 0.307245
0.000000 0.148285 0.514529
0.022079 0.167205 0.550271
0.398164 0.038709 0.523938
0.917292 0.182677 0.528826
0.939741 0.431986 0.537316
0.022552 0.741058 0.774150
0.019634 0.700224 0.733590
0.508125 0.540137 0.607661
0.978177 0.818221 0.851847
0.982186 0.854286 0.872925
0.617379 0.981261 0.896380
0.691177 0.970804 0.869212
0.669689 0.954032 0.668848
0.955113 0.964094 0.923890
0.981948 0.972158 0.962656
0.901882 0.987567 0.954279
0.901792 0.989027 0.948716
0.900886 0.987339 0.917833
0.962212 0.984091 0.918085
0.983780 0.989357 0.980249
0.185420 0.503076 0.941859
0.300765 0.513769 0.952738
0.472253 0.447253 0.963675
0.781183 0.092251 0.887684
0.926366 0.106910 0.790759
0.176801 0.590815 0.948911
0.331102 0.612136 0.957002
0.554957 0.563469 0.968133
0.850712 0.305229 0.924631
0.952293 0.516080 0.894735
0.078907 0.839136 0.976389
0.289594 0.846247 0.971908
0.665362 0.829910 0.952783
0.898070 0.770359 0.946007
0.979331 0.867599 0.949211
0.945793 0.990557 0.989512
0.955301 0.991368 0.990311
0.948041 0.987638 0.986311
0.877527 0.913268 0.923898
0.987343 0.977589 0.978307
0.976580 0.995808 0.993115
0.980601 0.996553 0.994169
0.979326 0.995518 0.992078
0.958200 0.989501 0.970739
0.986552 0.991712 0.987421
0.597269 0.779703 0.965794
0.651739 0.795234 0.970212
0.704116 0.793881 0.977335
0.804564 0.738831 0.978635
0.864403 0.510793 0.930560
0.629947 0.821152 0.971067
0.678480 0.836097 0.974879
0.746911 0.837254 0.980404
0.840870 0.789053 0.980044
0.906506 0.648427 0.951611
0.696332 0.911469 0.981028
0.740770 0.916810 0.981789
0.825358 0.922812 0.982388
0.903582 0.916807 0.982925
0.948755 0.886238 0.974178
0.887341 0.986364 0.993372
0.905891 0.988219 0.994097
0.923299 0.985326 0.992308
0.943267 0.971728 0.984038
0.972170 0.971577 0.984381
0.984689 0.995380 0.995060
0.992641 0.997596 0.997577
0.996400 0.998764 0.998706
0.990155 0.996370 0.996309
0.955697 0.971672 0.973149
